pic/松下lut/LUTs/Blue sky.cube
TITLE "Generated by Resolve"
LUT_3D_SIZE 33
#LUMIXPHOTOSTYLE VLOG
0.0390784 0.046891 0.0429847
0.0262455 0.0431067 0.0405432
0.0134279 0.0393225 0.0381018
0.0191653 0.033341 0.035172
0.0249027 0.0273442 0.0322271
0.0610513 0.0234379 0.0278325
0.0971847 0.0195315 0.0234379
0.163119 0.0117189 0.0234379
0.229053 0.00390631 0.0234379
0.317342 0.00195315 0.0175784
0.405615 0 0.0117189
0.518685 0 0.00781262
0.631739 0 0.00390631
0.739071 0 0.00195315
0.846403 0 0
0.923201 0 0
1 0 0
1 0 0
1 0 0
1 0 0
1 0 0
1 0 0
1 0 0
1 0 0
1 0 0
1 0.00781262 0
1 0.0156252 0
1 0.025391 0
1 0.035172 0
1 0.058732 0
1 0.0822919 0
0.998047 0.11368 0.00781262
0.996094 0.145052 0.0156252
0.036759 0.0294194 0.0472572
0.0239872 0.0275883 0.0439002
0.0112306 0.0257572 0.0405432
0.0208743 0.0204471 0.0376135
0.030518 0.0151369 0.0346838
0.0667887 0.0124514 0.0291752
0.103059 0.00976577 0.023682
0.16997 0.00585946 0.0235599
0.236881 0.00195315 0.0234379
0.327108 0.000976577 0.0175784
0.417334 0 0.0117189
0.530404 0 0.00683604
0.643473 0 0.00195315
0.754696 0 0.000976577
0.865934 0 0
0.932967 0 0
1 0 0
1 0 0
1 0 0
1 0 0
1 0 0
1 0 0
1 0 0
1 0 0
1 0 0
1 0.00390631 0
1 0.00781262 0
1 0.0126955 0
1 0.0175784 0
1 0.033341 0
1 0.0490883 0
0.998047 0.0794842 0.00488289
0.996094 0.109895 0.00976577
0.0344396 0.0119631 0.0515297
0.0217288 0.0120851 0.0472572
0.00903334 0.0122072 0.0429847
0.0225834 0.00756847 0.0400549
0.0361486 0.00292973 0.0371252
0.0725261 0.00146487 0.030518
0.108919 0 0.0239261
0.176806 0 0.023682
0.244694 0 0.0234379
0.336873 0 0.0175784
0.429053 0 0.0117189
0.542123 0 0.00585946
0.655192 0 0
0.770336 0 0
0.885466 0 0
0.942733 0 0
1 0 0
1 0 0
1 0 0
1 0 0
1 0 0
1 0 0
1 0 0
1 0 0
1 0 0
1 0 0
1 0 0
1 0 0
1 0 0
1 0.00793469 0
1 0.0158694 0
0.998047 0.045304 0.00195315
0.996094 0.0747234 0.00390631
0.0356603 0.00598154 0.0583658
0.0209354 0.00604257 0.0550698
0.00622568 0.00610361 0.0517739
0.0178836 0.00378424 0.046891
0.0295415 0.00146487 0.0420081
0.0697795 0.000732433 0.0354162
0.110018 0 0.028809
0.175036 0 0.0251469
0.240055 0 0.0214847
0.334127 0 0.0166018
0.428199 0 0.0117189
0.540352 0 0.00683604
0.652506 0 0.00195315
0.765621 0 0.000976577
0.878752 0 0
0.939376 0 0
1 0 0
1 0 0
1 0 0
1 0 0
1 0 0
1 0 0
1 0 0
1 0 0
1 0 0
1 0 0
1 0 0
1 0 0
1 0 0
1 0.00396735 0
1 0.00793469 0
0.998047 0.0305791 0.000976577
0.996094 0.0532387 0.00195315
0.0368811 0 0.0652018
0.0201419 0 0.0628824
0.00341802 0 0.0605631
0.0131838 0 0.053727
0.0229496 0 0.046891
0.0670329 0 0.0402991
0.111116 0 0.0337072
0.173266 0 0.0266117
0.235416 0 0.0195315
0.33138 0 0.0156252
0.427344 0 0.0117189
0.538582 0 0.00781262
0.649821 0 0.00390631
0.760922 0 0.00195315
0.872038 0 0
0.936019 0 0
1 0 0
1 0 0
1 0 0
1 0 0
1 0 0
1 0 0
1 0 0
1 0 0
1 0 0
1 0 0
1 0 0
1 0 0
1 0 0
1 0 0
1 0 0
0.998047 0.0158694 0
0.996094 0.0317388 0
0.0379797 0 0.0757
0.0205081 0 0.0742962
0.0030518 0 0.0728923
0.00726329 0.000183108 0.0680095
0.0114748 0.000366217 0.0631266
0.0513466 0.000183108 0.0517128
0.0912032 0 0.0402991
0.161105 0 0.030396
0.231006 0 0.0205081
0.327047 0 0.0161135
0.423072 0 0.0117189
0.535286 0 0.00683604
0.647501 0 0.00195315
0.758785 0 0.000976577
0.870085 0 0
0.935042 0 0
1 0 0
1 0 0
1 0 0
1 0 0
1 0 0
1 0 0
1 0 0
1 0 0
1 0 0
1 0 0
1 0 0
1 0 0
1 0 0
1 0.00317388 0
1 0.00634775 0
0.998047 0.0260014 0
0.996094 0.0456703 0
0.0390784 0 0.0861982
0.0208743 0 0.0857099
0.00268559 0 0.0852216
0.00134279 0.000366217 0.0822919
0 0.000732433 0.0793622
0.0356603 0.000366217 0.0631266
0.0713054 0 0.046891
0.148959 0 0.0341955
0.226612 0 0.0214847
0.322713 0 0.0166018
0.418799 0 0.0117189
0.531991 0 0.00585946
0.645182 0 0
0.756649 0 0
0.868132 0 0
0.934066 0 0
1 0 0
1 0 0
1 0 0
1 0 0
1 0 0
1 0 0
1 0 0
1 0 0
1 0 0
1 0 0
1 0 0
1 0 0
1 0 0
1 0.00634775 0
1 0.0126955 0
0.998047 0.0361486 0
0.996094 0.0595865 0
0.046891 0.0192874 0.106722
0.0274662 0.0203861 0.108248
0.00805676 0.0214847 0.109773
0.00402838 0.020325 0.104891
0 0.0191653 0.100008
0.0246586 0.0232547 0.0886397
0.0493324 0.0273442 0.0772869
0.130953 0.028809 0.0586709
0.212573 0.0302739 0.0400549
0.313619 0.0230106 0.0258793
0.414649 0.0157473 0.0117189
0.526864 0.00787366 0.00683604
0.639078 0 0.00195315
0.751339 0 0.000976577
0.863615 0 0
0.931807 0 0
1 0 0
1 0 0
1 0 0
1 0 0
1 0 0
1 0 0
1 0 0
1 0 0
1 0 0
1 0.0021973 0
1 0.0043946 0
1 0.00927749 0
1 0.0141604 0
1 0.0173342 0
1 0.0205081 0
0.998047 0.040116 0.000976577
0.996094 0.0597086 0.00195315
0.0547036 0.0385901 0.12723
0.0340734 0.0407874 0.13077
0.0134279 0.0429847 0.13431
0.00671397 0.0402991 0.127474
0 0.0376135 0.120638
0.0136721 0.0461585 0.114168
0.0273442 0.0547036 0.107698
0.112947 0.0576333 0.0831464
0.198535 0.0605631 0.0586099
0.304524 0.0460365 0.035172
0.410498 0.0314946 0.0117189
0.521737 0.0157473 0.00781262
0.632959 0 0.00390631
0.746029 0 0.00195315
0.859098 0 0
0.929549 0 0
1 0 0
1 0 0
1 0 0
1 0 0
1 0 0
1 0 0
1 0 0
1 0 0
1 0 0
1 0.0043946 0
1 0.0087892 0
1 0.018555 0
1 0.0283207 0
1 0.0283207 0
1 0.0283207 0
0.998047 0.0440833 0.00195315
0.996094 0.0598306 0.00390631
0.0704509 0.0826581 0.156039
0.0464637 0.0838178 0.158663
0.0224613 0.0849775 0.161288
0.0112306 0.0822919 0.156405
0 0.0796063 0.151522
0.0103761 0.0861372 0.146944
0.0207523 0.092668 0.142367
0.0915694 0.0985885 0.119844
0.162387 0.104524 0.0973068
0.274296 0.0997482 0.0663005
0.386206 0.0949874 0.0352941
0.508186 0.084123 0.0205081
0.630152 0.0732586 0.00573739
0.739315 0.0652018 0.0028687
0.848478 0.057145 0
0.924239 0.0475624 0
1 0.0379797 0
1 0.0295415 0
1 0.0211185 0
1 0.0165408 0
1 0.0119631 0
1 0.0081178 0
1 0.00427253 0
1 0.00634775 0
1 0.00842298 0
1 0.0106203 0
1 0.0128176 0
1 0.0216678 0
1 0.030518 0
1 0.0324102 0
1 0.0343175 0
0.998047 0.0495766 0.00378424
0.996094 0.0648356 0.00756847
0.0861982 0.126741 0.184863
0.058854 0.126864 0.186572
0.0314946 0.126986 0.188281
0.0157473 0.1243 0.185351
0 0.121614 0.182422
0.00708019 0.126131 0.179736
0.0141604 0.130648 0.17705
0.0702068 0.139559 0.156527
0.126253 0.14847 0.136019
0.244083 0.153475 0.0974289
0.361898 0.15848 0.058854
0.494621 0.152499 0.0332036
0.627344 0.146517 0.00756847
0.732601 0.130404 0.00378424
0.837858 0.11429 0
0.918929 0.0951095 0
1 0.0759442 0
1 0.0590982 0
1 0.0422522 0
1 0.0330816 0
1 0.0239261 0
1 0.0162356 0
1 0.00854505 0
1 0.0126955 0
1 0.016846 0
1 0.016846 0
1 0.016846 0
1 0.0247807 0
1 0.0327153 0
1 0.0365148 0
1 0.0402991 0
0.998047 0.0550698 0.00561532
0.996094 0.0698405 0.0112306
0.10782 0.18645 0.219654
0.0804608 0.185657 0.222278
0.0531167 0.184863 0.224903
0.0311284 0.183154 0.221973
0.00915541 0.181445 0.219043
0.0131838 0.183093 0.213489
0.0172122 0.184741 0.207935
0.0576333 0.189624 0.192309
0.0980392 0.194507 0.176684
0.209949 0.207446 0.144015
0.321859 0.220386 0.11136
0.460441 0.223194 0.0742351
0.599023 0.226001 0.0371252
0.713191 0.212818 0.018555
0.827344 0.199634 0
0.91368 0.183398 0
1 0.167163 0
1 0.151339 0
1 0.135531 0
1 0.12253 0
1 0.109529 0
1 0.0967575 0
1 0.0840009 0
1 0.0822919 0
1 0.0805829 0
1 0.0788739 0
1 0.0771649 0
1 0.0803998 0
1 0.0836347 0
1 0.0831464 0
1 0.0826581 0
0.998047 0.0975509 0.00549325
0.996094 0.112459 0.0109865
0.129427 0.246159 0.254459
0.102083 0.24445 0.258
0.0747234 0.242741 0.26154
0.0465248 0.242008 0.25861
0.0183108 0.241276 0.25568
0.0192874 0.240055 0.247257
0.020264 0.238834 0.238834
0.0450599 0.239689 0.228077
0.0698405 0.240543 0.217334
0.17583 0.261418 0.1906
0.281804 0.282292 0.163851
0.426246 0.293889 0.115267
0.570703 0.305501 0.0666667
0.693767 0.295232 0.033341
0.816846 0.284977 0
0.908431 0.271672 0
1 0.258366 0
1 0.243595 0
1 0.228809 0
1 0.211963 0
1 0.195117 0
1 0.177295 0
1 0.159457 0
1 0.151888 0
1 0.14432 0
1 0.140902 0
1 0.137484 0
1 0.136019 0
1 0.134554 0
1 0.129793 0
1 0.125032 0
0.998047 0.140047 0.00537118
0.996094 0.155062 0.0107424
0.158724 0.322469 0.29865
0.132418 0.321798 0.30312
0.106111 0.321126 0.307576
0.0744182 0.316426 0.302693
0.0427405 0.311727 0.297795
0.0392615 0.313436 0.291325
0.0357824 0.315145 0.284855
0.0575723 0.315999 0.27509
0.0793622 0.316854 0.265324
0.162875 0.330892 0.245426
0.246403 0.34493 0.225513
0.386877 0.362387 0.18291
0.527352 0.379858 0.140291
0.655314 0.374548 0.090837
0.783276 0.369238 0.0413977
0.88455 0.35787 0.0216678
0.98584 0.346517 0.00195315
0.99292 0.329732 0.00189212
1 0.312947 0.00183108
1 0.295109 0.000915541
1 0.277287 0
1 0.259464 0
1 0.241642 0
1 0.23389 0.000915541
1 0.226123 0.00183108
1 0.218738 0.000915541
1 0.211353 0
1 0.208789 0
1 0.206226 0
1 0.204639 0
1 0.203052 0
0.998047 0.21294 0.00585946
0.996094 0.222827 0.0117189
0.188037 0.398779 0.342855
0.162753 0.399145 0.348226
0.137484 0.399512 0.353597
0.102327 0.390845 0.346761
0.067155 0.382177 0.339925
0.0592203 0.386816 0.335409
0.0512856 0.391455 0.330892
0.0700847 0.392309 0.322103
0.0888838 0.393164 0.313313
0.149935 0.400366 0.300252
0.210986 0.407568 0.287175
0.347494 0.430884 0.250553
0.484001 0.454215 0.213916
0.616846 0.453849 0.148348
0.749691 0.453483 0.0827802
0.860685 0.444083 0.0433509
0.971679 0.434684 0.00390631
0.98584 0.415869 0.00378424
1 0.39707 0.00366217
1 0.378271 0.00183108
1 0.359457 0
1 0.341634 0
1 0.323812 0
1 0.315877 0.00183108
1 0.307942 0.00366217
1 0.296574 0.00183108
1 0.285222 0
1 0.281559 0
1 0.277897 0
1 0.279484 0
1 0.281071 0
0.998047 0.285832 0.00634775
0.996094 0.290593 0.0126955
0.219532 0.482902 0.387549
0.193225 0.482231 0.392004
0.166918 0.481559 0.39646
0.135714 0.475029 0.393652
0.104524 0.468498 0.390845
0.0872969 0.471061 0.386206
0.0700847 0.473625 0.381567
0.0879683 0.473564 0.371923
0.105867 0.473503 0.362264
0.157076 0.476799 0.350118
0.208301 0.480095 0.337972
0.324178 0.499443 0.309163
0.440055 0.518807 0.280339
0.573938 0.525338 0.226551
0.70782 0.531868 0.172778
0.822583 0.524361 0.125704
0.937362 0.516854 0.0786297
0.968688 0.500923 0.0550088
1 0.484977 0.0313725
1 0.463981 0.0272831
1 0.442985 0.0231937
1 0.424109 0.0193484
1 0.405249 0.0155032
1 0.393469 0.0144045
1 0.381689 0.0133059
1 0.371008 0.00885023
1 0.360311 0.0043946
1 0.355673 0.00317388
1 0.351034 0.00195315
1 0.351827 0.00183108
1 0.352621 0.00170901
0.998047 0.358419 0.0100099
0.996094 0.364218 0.0183108
0.251041 0.567041 0.432227
0.223682 0.565316 0.435782
0.196338 0.563607 0.439323
0.169116 0.559213 0.440543
0.141878 0.554818 0.441764
0.115389 0.555306 0.437003
0.0888838 0.555795 0.432227
0.105867 0.554818 0.421729
0.122835 0.553841 0.411231
0.164218 0.553231 0.4
0.205615 0.552621 0.388769
0.300862 0.568017 0.367773
0.396094 0.583398 0.346761
0.531014 0.596826 0.304768
0.665934 0.610254 0.26276
0.784497 0.604639 0.208057
0.903059 0.599023 0.153353
0.951522 0.585962 0.106233
1 0.5729 0.0590982
1 0.549691 0.0527504
1 0.526497 0.0464027
1 0.5066 0.0387121
1 0.486686 0.0310063
1 0.471061 0.026978
1 0.455436 0.0229496
1 0.445426 0.0158694
1 0.435416 0.0087892
1 0.429786 0.00634775
1 0.42417 0.00390631
1 0.42417 0.00366217
1 0.42417 0.00341802
0.998047 0.431006 0.0136721
0.996094 0.437858 0.0239261
0.292302 0.657755 0.480949
0.264042 0.65507 0.484489
0.235782 0.652384 0.488029
0.208423 0.647868 0.490105
0.181079 0.643351 0.49218
0.153109 0.641886 0.48748
0.125154 0.640421 0.48278
0.133455 0.63743 0.47216
0.141756 0.63444 0.46154
0.182971 0.63566 0.452201
0.22417 0.636881 0.442863
0.297063 0.639567 0.421729
0.36997 0.642252 0.40061
0.49926 0.660014 0.368994
0.628565 0.677775 0.337362
0.74609 0.674113 0.289433
0.863615 0.670451 0.24152
0.931807 0.657389 0.1953
1 0.644327 0.149081
1 0.61886 0.118929
1 0.593408 0.0887617
1 0.57644 0.0816205
1 0.559457 0.0744793
1 0.545419 0.072221
1 0.53138 0.0699626
1 0.518807 0.0579385
1 0.506233 0.0459144
1 0.500435 0.040177
1 0.494621 0.0344396
1 0.493278 0.0314336
1 0.491936 0.0284428
0.998047 0.497368 0.0357824
0.996094 0.502815 0.0431067
0.333577 0.74847 0.529671
0.304402 0.744808 0.533211
0.275212 0.741146 0.536751
0.247745 0.736507 0.539681
0.220264 0.731868 0.542611
0.190845 0.72845 0.537972
0.16141 0.725032 0.533333
0.161044 0.720027 0.522591
0.160678 0.715023 0.511849
0.201709 0.718074 0.504402
0.242741 0.721126 0.496941
0.293278 0.711116 0.4757
0.343832 0.701106 0.454459
0.467521 0.723201 0.433219
0.591211 0.745296 0.411963
0.707698 0.743587 0.370825
0.82417 0.741878 0.329671
0.912093 0.728817 0.284367
1 0.715755 0.239078
1 0.688029 0.185107
1 0.660319 0.131136
1 0.646281 0.124544
1 0.632227 0.117952
1 0.619776 0.117464
1 0.607324 0.116976
1 0.592187 0.100008
1 0.57705 0.0830243
1 0.571069 0.073991
1 0.565072 0.0649577
1 0.562387 0.0592203
1 0.559701 0.0534829
0.998047 0.563729 0.0578775
0.996094 0.567773 0.0622721
0.379858 0.806836 0.58584
0.350362 0.803845 0.587304
0.320882 0.800855 0.588769
0.290593 0.794446 0.588769
0.260319 0.788037 0.588769
0.229786 0.78352 0.585901
0.199268 0.779004 0.583032
0.193042 0.777417 0.573144
0.186816 0.77583 0.563241
0.221118 0.776684 0.551156
0.255436 0.777539 0.539071
0.306294 0.774121 0.523079
0.357137 0.770703 0.507088
0.455192 0.780102 0.487846
0.553231 0.789502 0.46862
0.666178 0.789868 0.430762
0.779126 0.790234 0.39292
0.873686 0.780835 0.352804
0.968261 0.771435 0.312703
0.984131 0.748898 0.264164
1 0.726375 0.215625
1 0.710628 0.193957
1 0.694865 0.17229
1 0.680583 0.165133
1 0.6663 0.157992
1 0.651835 0.143771
1 0.637369 0.129549
1 0.630274 0.120333
1 0.623194 0.111116
1 0.620264 0.105379
1 0.617334 0.0996262
0.998047 0.619837 0.102388
0.996094 0.622339 0.105135
0.426123 0.865202 0.642008
0.396338 0.862882 0.641398
0.366537 0.860563 0.640787
0.333455 0.852384 0.637858
0.300374 0.844205 0.634928
0.268742 0.83859 0.633829
0.237125 0.832975 0.632715
0.225025 0.834806 0.623682
0.21294 0.836637 0.614649
0.240543 0.835294 0.597925
0.268132 0.833951 0.581201
0.319295 0.837125 0.570459
0.370459 0.840299 0.559701
0.442863 0.837003 0.542489
0.515267 0.833707 0.525277
0.624659 0.836149 0.490715
0.734066 0.83859 0.456168
0.835294 0.832853 0.421241
0.936507 0.8271 0.386328
0.968261 0.809766 0.343221
1 0.792432 0.30013
1 0.774975 0.263371
1 0.757504 0.226612
1 0.74139 0.212818
1 0.725277 0.199023
1 0.711482 0.187549
1 0.697673 0.176074
1 0.689494 0.166674
1 0.681315 0.157259
1 0.678141 0.151522
1 0.674968 0.145785
0.998047 0.675944 0.146883
0.996094 0.676921 0.147982
0.471794 0.883146 0.694133
0.439261 0.878141 0.691569
0.406714 0.873137 0.689006
0.375097 0.869352 0.686687
0.343465 0.865568 0.684367
0.308553 0.857511 0.679911
0.273625 0.849454 0.675456
0.254765 0.851041 0.665507
0.235904 0.852628 0.655558
0.261357 0.854459 0.639445
0.286809 0.856291 0.623316
0.332784 0.860807 0.610376
0.378759 0.865324 0.597436
0.4439 0.864164 0.581689
0.509041 0.863005 0.565927
0.605127 0.867582 0.538399
0.701228 0.87216 0.510872
0.800183 0.869535 0.478447
0.899138 0.866911 0.446036
0.949569 0.852506 0.40708
1 0.838102 0.368139
1 0.821607 0.33138
1 0.805127 0.294621
1 0.788586 0.270451
1 0.772045 0.246281
1 0.758358 0.231434
1 0.744686 0.216602
1 0.736996 0.208423
1 0.729305 0.200244
1 0.726009 0.195666
1 0.722713 0.191089
0.998047 0.722591 0.191943
0.996094 0.722469 0.192798
0.517464 0.901106 0.746273
0.48217 0.8934 0.741756
0.446891 0.88571 0.73724
0.416724 0.88632 0.735531
0.386572 0.886931 0.733822
0.348348 0.876432 0.726009
0.31014 0.865934 0.718196
0.284489 0.867277 0.707332
0.258854 0.86862 0.696452
0.28217 0.873625 0.680949
0.305501 0.87863 0.665446
0.346273 0.884489 0.650309
0.38706 0.890349 0.635172
0.444938 0.891325 0.620874
0.502815 0.892302 0.606592
0.585595 0.899016 0.586084
0.668376 0.905745 0.56556
0.765072 0.906233 0.535653
0.861784 0.906722 0.505745
0.930892 0.895232 0.470939
1 0.883757 0.436149
1 0.868254 0.39939
1 0.85275 0.362631
1 0.835782 0.328084
1 0.818799 0.293523
1 0.805249 0.275334
1 0.791699 0.257145
1 0.784497 0.250187
1 0.777295 0.243229
1 0.773877 0.239811
1 0.770459 0.236393
0.998047 0.769238 0.237003
0.996094 0.768017 0.237613
0.55433 0.903304 0.788525
0.517464 0.895476 0.781689
0.480583 0.887663 0.774853
0.448905 0.886992 0.772961
0.417212 0.88632 0.771069
0.377539 0.873747 0.760555
0.33785 0.861173 0.750057
0.309224 0.861357 0.739864
0.280583 0.86154 0.729671
0.300435 0.865202 0.714534
0.320272 0.868864 0.699382
0.357931 0.873808 0.683879
0.395605 0.878752 0.668376
0.450553 0.883452 0.653605
0.505501 0.888151 0.638834
0.578759 0.896941 0.620752
0.652018 0.905745 0.602686
0.741329 0.910445 0.577356
0.83064 0.915145 0.55201
0.905684 0.910811 0.519966
0.980713 0.906477 0.487907
0.990356 0.893278 0.454215
1 0.880095 0.420508
1 0.86508 0.387366
1 0.850065 0.354208
1 0.836637 0.329793
1 0.823194 0.305379
1 0.815442 0.293217
1 0.807691 0.281071
1 0.804517 0.277592
1 0.801343 0.274113
0.998047 0.799573 0.273625
0.996094 0.797803 0.273136
0.591211 0.905501 0.830762
0.552743 0.897551 0.821607
0.51429 0.889616 0.812451
0.481071 0.887663 0.810376
0.447868 0.88571 0.808301
0.406714 0.871061 0.795117
0.36556 0.856413 0.781933
0.333944 0.855436 0.772412
0.302327 0.854459 0.762875
0.318685 0.856779 0.748104
0.335042 0.859098 0.733333
0.369604 0.863127 0.717464
0.40415 0.867155 0.701595
0.456168 0.875578 0.68632
0.508186 0.884001 0.671061
0.571923 0.894865 0.655436
0.63566 0.905745 0.639811
0.717586 0.914656 0.619043
0.799512 0.923568 0.598291
0.880461 0.926375 0.568994
0.96141 0.929183 0.539681
0.980713 0.918318 0.509041
1 0.907454 0.478386
1 0.894377 0.446647
1 0.881315 0.414893
1 0.868009 0.384253
1 0.854704 0.353597
1 0.846403 0.336263
1 0.838102 0.318929
1 0.835172 0.315389
1 0.832227 0.311849
0.998047 0.829908 0.310262
0.996094 0.827588 0.308675
0.615503 0.896574 0.859464
0.576989 0.887968 0.849454
0.53846 0.879362 0.839445
0.504219 0.876738 0.836515
0.469963 0.874113 0.833585
0.429541 0.861234 0.820813
0.389136 0.848356 0.808057
0.355489 0.844877 0.797436
0.321859 0.841398 0.786816
0.335348 0.842618 0.772839
0.348837 0.843839 0.758846
0.3823 0.847562 0.743465
0.415747 0.851286 0.728084
0.46508 0.858732 0.712642
0.514412 0.866178 0.697185
0.573816 0.875517 0.681926
0.633219 0.884855 0.666667
0.706477 0.894865 0.648844
0.779736 0.904891 0.631006
0.856229 0.913069 0.605676
0.932723 0.921248 0.580346
0.966369 0.917037 0.55201
1 0.912825 0.52369
1 0.903181 0.496147
1 0.893523 0.46862
1 0.881743 0.439384
1 0.869963 0.410132
1 0.860502 0.385901
1 0.851041 0.361654
1 0.846647 0.353475
1 0.842252 0.345296
0.998047 0.840726 0.343893
0.996094 0.8392 0.342489
0.639811 0.887663 0.888151
0.601221 0.878386 0.877287
0.562631 0.869108 0.866423
0.527352 0.865812 0.862638
0.492058 0.862516 0.858854
0.452384 0.851408 0.846525
0.412695 0.840299 0.834195
0.37705 0.834318 0.822461
0.34139 0.828321 0.810742
0.35201 0.828443 0.797559
0.362631 0.828565 0.784375
0.394995 0.831983 0.769482
0.427344 0.835416 0.754574
0.473991 0.841886 0.738949
0.520638 0.848356 0.723323
0.575708 0.856168 0.708431
0.630762 0.863981 0.693523
0.695354 0.87509 0.67863
0.759945 0.886198 0.663737
0.831983 0.899763 0.642374
0.904036 0.913314 0.620996
0.95201 0.915755 0.594995
1 0.918196 0.568994
1 0.911971 0.545663
1 0.905745 0.522347
1 0.895476 0.494499
1 0.885222 0.466667
1 0.874601 0.435538
1 0.863981 0.404395
1 0.858122 0.391577
1 0.852262 0.378759
0.998047 0.85153 0.377539
0.996094 0.850797 0.376318
0.659831 0.874113 0.909285
0.620508 0.864469 0.8981
0.581201 0.854826 0.886931
0.545663 0.850858 0.882109
0.51014 0.846891 0.877287
0.471244 0.837369 0.865873
0.432349 0.827832 0.854459
0.395117 0.820142 0.841825
0.35787 0.812451 0.829175
