pic/松下lut/LUTs/Blue sky.cube
TITLE "Generated by Resolve"
LUT_3D_SIZE 9
#LUMIXPHOTOSTYLE VLOG
0.0390784 0.046891 0.0429847
0.0249027 0.0273442 0.0322271
0.229053 0.00390631 0.0234379
0.631739 0 0.00390631
1 0 0
1 0 0
1 0 0
1 0.035172 0
0.996094 0.145052 0.0156252
0.0368811 0 0.0652018
0.0229496 0 0.046891
0.235416 0 0.0195315
0.649821 0 0.00390631
1 0 0
1 0 0
1 0 0
1 0 0
0.996094 0.0317388 0
0.0547036 0.0385901 0.12723
0 0.0376135 0.120638
0.198535 0.0605631 0.0586099
0.632959 0 0.00390631
1 0 0
1 0 0
1 0 0
1 0.0283207 0
0.996094 0.0598306 0.00390631
0.129427 0.246159 0.254459
0.0183108 0.241276 0.25568
0.0698405 0.240543 0.217334
0.570703 0.305501 0.0666667
1 0.258366 0
1 0.195117 0
1 0.14432 0
1 0.134554 0
0.996094 0.155062 0.0107424
0.251041 0.567041 0.432227
0.141878 0.554818 0.441764
0.122835 0.553841 0.411231
0.396094 0.583398 0.346761
0.903059 0.599023 0.153353
1 0.526497 0.0464027
1 0.455436 0.0229496
1 0.42417 0.00390631
0.996094 0.437858 0.0239261
0.426123 0.865202 0.642008
0.300374 0.844205 0.634928
0.21294 0.836637 0.614649
0.370459 0.840299 0.559701
0.734066 0.83859 0.456168
1 0.792432 0.30013
1 0.725277 0.199023
1 0.681315 0.157259
0.996094 0.676921 0.147982
0.591211 0.905501 0.830762
0.447868 0.88571 0.808301
0.302327 0.854459 0.762875
0.40415 0.867155 0.701595
0.63566 0.905745 0.639811
0.96141 0.929183 0.539681
1 0.881315 0.414893
1 0.838102 0.318929
0.996094 0.827588 0.308675
0.67985 0.860563 0.930404
0.528206 0.83125 0.89572
0.374365 0.796582 0.847623
0.454948 0.800732 0.796826
0.641764 0.824414 0.736019
0.862028 0.857877 0.681315
1 0.895476 0.605859
1 0.863493 0.513558
0.996094 0.839811 0.436393
0.739681 0.787305 0.989502
0.575586 0.753597 0.942367
0.424903 0.719417 0.89865
0.502083 0.721126 0.858122
0.669841 0.734554 0.797803
0.863737 0.764828 0.753841
1 0.800488 0.715755
1 0.805859 0.667399
0.991699 0.795361 0.60708
0.0268559 0.0673991 0
0 0.0390784 0
0.170459 0.0195315 0
0.56141 0 0
1 0 0
1 0 0
1 0.0312505 0
1 0.109651 0
0.996094 0.215625 0
0.016846 0.0197757 0.0134279
0 0.0107424 0.0107424
0.180224 0 0
0.586572 0 0
1 0 0
1 0 0
1 0 0
1 0.0473793 0
0.996094 0.11014 0
0.0429847 0.11014 0.0639811
0.00903334 0.0859541 0.0888838
0.170703 0.0852216 0.0464027
0.600977 0.0166018 0
1 0 0
1 0 0
1 0.0087892 0
1 0.0598306 0
0.996094 0.0910811 0
0.156771 0.321859 0.195117
0.057145 0.305257 0.219776
0.0813153 0.269352 0.189258
0.550912 0.322103 0.0781415
0.994629 0.279118 0
1 0.203662 0
1 0.164828 0
1 0.158236 0
0.996094 0.172168 0
0.286198 0.639078 0.369238
0.184863 0.63003 0.397803
0.146029 0.586572 0.375341
0.387793 0.600244 0.322835
0.901839 0.619532 0.172412
1 0.535042 0.0483558
1 0.474723 0.00805676
1 0.444938 0
0.996094 0.445426 0
0.425635 0.884978 0.551156
0.344808 0.905501 0.589258
0.228321 0.852995 0.558236
0.381689 0.860075 0.51136
0.731624 0.854948 0.42417
1 0.806592 0.283268
1 0.737484 0.175341
1 0.69865 0.12723
0.996094 0.687663 0.100618
0.536019 0.864469 0.688151
0.442008 0.888151 0.718196
0.308675 0.860807 0.694499
0.420508 0.884489 0.647868
0.640299 0.914778 0.583154
0.956527 0.941878 0.487175
1 0.892546 0.366049
1 0.851041 0.274723
0.996094 0.837125 0.254459
0.622461 0.814404 0.787793
0.516487 0.828565 0.802441
0.376318 0.798291 0.771679
0.462272 0.808057 0.728206
0.645182 0.828565 0.667887
0.861295 0.861051 0.610254
1 0.908431 0.540169
1 0.870817 0.445426
0.996094 0.847379 0.369482
0.68986 0.74725 0.857389
0.570947 0.749691 0.856901
0.429541 0.725765 0.823926
0.503792 0.723079 0.781445
0.673259 0.738705 0.723812
0.864469 0.764584 0.676677
1 0.802441 0.640055
1 0.808301 0.591211
0.991699 0.796826 0.528695
0.0217288 0.108431 0.0708171
0 0.095964 0.0642252
0.0676432 0.0822919 0.0378576
0.470329 0.0119631 0.00512703
0.96141 0 0
1 0 0
1 0.117464 0
1 0.227344 0
0.996094 0.309651 0
0.023682 0.0883955 0.105257
0 0.0717937 0.102815
0.0693523 0.0241703 0.0681315
0.503304 0 0.0273442
0.994385 0 0
1 0 0
1 0.0395666 0
1 0.129915 0
0.996094 0.204395 0
0.0234379 0.186816 0.163607
0 0.18999 0.176562
0.0754559 0.126497 0.126497
0.509896 0.0620279 0.0820478
0.981445 0 0.0183108
1 0.0166018 0
1 0.0676432 0
1 0.110872 0
0.996094 0.153109 0
0.0273442 0.504768 0.283024
0 0.503304 0.284245
0.127474 0.353841 0.253971
0.491081 0.359945 0.189502
0.946761 0.305013 0.114046
1 0.241276 0.052018
1 0.21001 0.00976577
1 0.188525 0
0.996094 0.205859 0
0.0666667 0.798047 0.398047
0.0827802 0.808789 0.42295
0.219776 0.678874 0.431739
0.367773 0.626123 0.383154
0.858122 0.641032 0.275456
1 0.564828 0.195361
1 0.510872 0.15433
1 0.484001 0.113802
0.996094 0.480095 0.0905928
0.45153 1 0.594873
0.379736 1 0.625391
0.309163 0.948226 0.604883
0.408789 0.894499 0.548226
0.711604 0.878141 0.483024
1 0.83003 0.366293
1 0.764828 0.281559
1 0.728695 0.239811
0.996094 0.721126 0.221729
0.576318 0.942855 0.717952
0.487175 0.967773 0.742367
0.362387 0.926741 0.715511
0.443229 0.904524 0.662028
0.647623 0.935531 0.602441
0.942123 0.957992 0.522103
1 0.912581 0.418311
1 0.873991 0.343587
0.996094 0.855436 0.314534
0.64567 0.854215 0.78999
0.548959 0.876188 0.80708
0.418799 0.850309 0.781445
0.479362 0.82417 0.729915
0.661784 0.845914 0.67277
0.86276 0.870329 0.612207
1 0.914778 0.5514
1 0.883024 0.462272
0.996094 0.861051 0.393896
0.705745 0.771923 0.846891
0.591943 0.778759 0.849821
0.459831 0.760189 0.821241
0.515023 0.732845 0.771923
0.687907 0.750423 0.719905
0.874235 0.776562 0.67155
1 0.813916 0.639078
1 0.818311 0.589258
0.991699 0.811231 0.532357
0.0124514 0.237613 0.322835
0 0.229053 0.324544
0 0.187793 0.259098
0.346761 0.187793 0.238102
0.893034 0.105745 0.201465
1 0.0898604 0.116732
1 0.290105 0.0822919
1 0.360678 0.0498207
0.996094 0.415625 0.0442054
0.00244144 0.202197 0.346273
0 0.21294 0.370947
0 0.134066 0.308919
0.360189 0.0981613 0.284001
0.914778 0.043473 0.255924
1 0.0395666 0.166537
1 0.200488 0.140169
1 0.274968 0.118929
0.996094 0.329915 0.12137
0.00756847 0.304768 0.408301
0 0.323323 0.437369
0 0.24445 0.375341
0.366796 0.172168 0.330648
0.901106 0.0815595 0.290349
1 0.114534 0.232715
1 0.185351 0.205859
1 0.208789 0.16556
0.996094 0.254948 0.166049
0.0234379 0.58706 0.52015
0 0.609522 0.545052
0 0.553841 0.506722
0.375586 0.430518 0.414893
0.866667 0.371435 0.370703
1 0.327718 0.32845
1 0.284733 0.286198
1 0.281071 0.257389
0.996094 0.300862 0.250065
0.035172 0.94725 0.658854
0 0.981445 0.687419
0 0.921859 0.645182
0.432471 0.7243 0.557504
0.79707 0.691569 0.492302
1 0.618555 0.435416
1 0.568261 0.394385
1 0.534066 0.345052
0.996094 0.540169 0.333089
0.314046 1 0.762387
0.258366 1 0.780224
0.29279 1 0.744808
0.472038 0.973877 0.689372
0.673259 0.899138 0.621973
1 0.85568 0.529915
1 0.794141 0.463981
1 0.761898 0.427344
0.996094 0.756039 0.409766
0.561166 1 0.845914
0.46569 1 0.851774
0.388281 1 0.827832
0.48864 0.959457 0.770459
0.651041 0.950668 0.701595
0.907454 0.967529 0.631251
1 0.933822 0.552865
1 0.896941 0.495476
0.996094 0.884489 0.475944
0.707942 0.96141 0.93431
0.576318 0.952865 0.912337
0.456168 0.923323 0.879606
0.514778 0.867399 0.821241
0.670329 0.859831 0.758968
0.86569 0.885954 0.706233
1 0.923568 0.644938
1 0.910872 0.590723
0.996094 0.891569 0.545296
0.769726 0.852018 0.974365
0.620264 0.830762 0.936507
0.488884 0.808057 0.902815
0.549691 0.773144 0.855192
0.698894 0.762142 0.796826
0.882292 0.790722 0.752621
1 0.820264 0.719173
1 0.839811 0.691081
0.991699 0.832715 0.64567
0.0102541 0.395605 0.617578
0 0.390967 0.619287
0 0.352377 0.572656
0.0319829 0.301839 0.50135
0.71429 0.321126 0.480583
1 0.352377 0.450065
1 0.423438 0.408057
1 0.513802 0.394873
0.996094 0.576562 0.41294
0.000488289 0.36434 0.652262
0 0.379004 0.677165
0 0.29987 0.62295
0.0224613 0.20415 0.543343
0.732357 0.23566 0.53846
1 0.25153 0.496208
1 0.322103 0.450065
1 0.42417 0.452506
0.996094 0.486931 0.474723
0 0.454948 0.698894
0 0.458122 0.712093
0 0.406348 0.681315
0.00805676 0.283268 0.601709
0.726253 0.220264 0.573144
1 0.216602 0.526986
1 0.279362 0.492546
1 0.33846 0.483757
0.996094 0.394385 0.51014
0 0.682292 0.779248
0 0.701106 0.807813
0 0.641276 0.761654
0.0241703 0.545541 0.70135
0.703792 0.443473 0.629541
1 0.39585 0.599756
1 0.383886 0.572168
1 0.383398 0.554818
0.996094 0.394385 0.545052
0.0156252 1 0.894499
0 1 0.915267
0 0.970459 0.884733
0.249821 0.870329 0.812696
0.696941 0.743832 0.724056
1 0.670573 0.674723
1 0.626123 0.637858
1 0.604395 0.609277
0.996094 0.603418 0.591211
0.0634928 1 0.977539
0 1 1
0.114534 1 0.978027
0.433951 1 0.916487
0.685954 0.952865 0.807324
0.966049 0.889128 0.736019
1 0.838834 0.689616
1 0.815381 0.665446
0.996094 0.807568 0.647135
0.442985 1 1
0.357504 1 1
0.324788 1 1
0.496941 1 0.952132
0.68571 1 0.866911
0.880339 0.990723 0.802441
1 0.962875 0.744564
1 0.932601 0.70428
0.99585 0.927474 0.692546
0.622461 0.998779 1
0.515999 1 1
0.429053 1 1
0.549691 0.960189 0.979736
0.700862 0.892058 0.904036
0.869108 0.903304 0.852018
1 0.935531 0.801709
1 0.928939 0.754086
0.993408 0.908675 0.712581
0.72015 0.874723 1
0.607813 0.888395 1
0.506477 0.87863 1
0.588525 0.841031 1
0.725277 0.789502 0.931136
0.884978 0.798291 0.881071
0.995117 0.824659 0.846647
1 0.84445 0.814893
0.989746 0.840299 0.774609
0.00830091 0.538216 0.8486
0 0.552865 0.873259
0 0.528695 0.846403
0.0295415 0.497673 0.786816
0.40293 0.466423 0.722835
1 0.509407 0.68864
1 0.548959 0.654459
1 0.603906 0.641276
0.996094 0.682536 0.671061
0 0.490837 0.875212
0 0.505501 0.903792
0 0.473259 0.881071
0.0195315 0.380468 0.816846
0.408545 0.353353 0.753353
1 0.408301 0.730648
1 0.431983 0.684489
1 0.502571 0.683024
0.996094 0.577295 0.709407
0 0.56997 0.921859
0 0.576806 0.938949
0 0.532845 0.911849
0 0.429297 0.847868
0.426368 0.307454 0.772412
1 0.330404 0.749691
1 0.357992 0.719417
1 0.408789 0.71014
0.996094 0.480339 0.74432
0 0.781445 1
0 0.772656 1
0 0.728695 0.976562
0 0.628809 0.912093
0.473991 0.50721 0.828809
0.981689 0.471305 0.806592
1 0.423926 0.763363
1 0.443717 0.763119
0.996094 0.486198 0.778759
0 1 1
0 1 1
0 1 1
0 0.922103 1
0.563119 0.806348 0.929915
0.93138 0.703548 0.85568
1 0.664714 0.828565
1 0.662516 0.81709
0.996094 0.67155 0.811719
0.00415045 1 1
0 1 1
0 1 1
0.233707 1 1
0.613916 1 1
0.903059 0.928695 0.915755
1 0.876677 0.879118
1 0.86154 0.862516
0.99585 0.857877 0.851286
0.245182 1 1
0.135531 1 1
0.154574 1 1
0.413428 1 1
0.687419 1 1
0.885466 1 0.967529
1 0.994629 0.919173
1 0.972412 0.893034
0.995117 0.968017 0.884489
0.550423 1 1
0.440543 1 1
0.374365 1 1
0.515267 1 1
0.737728 1 1
0.88986 0.933822 0.993164
0.999756 0.95433 0.953597
1 0.958236 0.916487
0.990967 0.943832 0.889372
0.666911 0.93431 1
0.549691 0.942367 1
0.456901 0.934066 1
0.574121 0.913802 1
0.777783 0.879118 1
0.913802 0.827832 1
0.995361 0.838346 0.976074
1 0.861295 0.950423
0.980224 0.859831 0.918685
0.00683604 0.667155 0.99585
0 0.673991 1
0 0.658366 0.986328
0.0280766 0.639078 0.934066
0.181933 0.59585 0.854704
0.860807 0.619532 0.812451
1 0.66276 0.78999
1 0.686442 0.7729
0.988281 0.74139 0.783154
0 0.615869 1
0 0.626856 1
0 0.582666 1
0.0180667 0.525765 0.964096
0.171923 0.478874 0.884978
0.848356 0.494499 0.835172
1 0.549447 0.82002
1 0.569482 0.795117
0.988281 0.635904 0.81709
0 0.671305 1
0 0.666667 1
0 0.626612 1
0 0.546517 0.987305
0.150423 0.440299 0.923568
0.850797 0.408789 0.861784
1 0.452262 0.839078
1 0.475212 0.829541
0.984619 0.522835 0.841031
0 0.839567 1
0 0.846647 1
0 0.798779 1
0 0.726497 1
0.115999 0.61294 0.968505
0.839323 0.521614 0.906722
1 0.500374 0.886198
1 0.482048 0.863493
0.985595 0.5243 0.878874
0 1 1
0 1 1
0 1 1
0 0.968017 1
0.299382 0.860807 1
0.801709 0.740169 0.953353
1 0.706722 0.932113
1 0.690837 0.911849
0.986572 0.720882 0.922835
0 1 1
0 1 1
0 1 1
0 1 1
0.423194 1 1
0.802441 0.968017 1
1 0.90013 0.969726
1 0.88986 0.960189
0.991211 0.899382 0.95848
0.0390784 1 1
0 1 1
0 1 1
0.159701 1 1
0.562631 1 1
0.849821 1 1
1 1 1
1 1 0.990723
0.98999 1 0.984619
0.275456 1 1
0.222705 1 1
0.216358 1 1
0.425147 1 1
0.694987 1 1
0.908431 1 1
0.99292 0.968261 1
1 0.980468 1
0.983398 0.976074 0.992187
0.611963 0.983154 1
0.490349 0.980468 1
0.411231 0.977295 1
0.543099 0.967285 1
0.764096 0.952377 1
0.956283 0.913558 1
1 0.867399 1
1 0.87863 1
0.970459 0.886198 1
0.00634775 0.758968 1
0 0.757992 1
0 0.740902 0.993408
0.0275883 0.744808 0.94847
0.181201 0.729183 0.88864
0.633951 0.705989 0.819287
0.979492 0.752865 0.796582
1 0.772656 0.779736
0.96875 0.800244 0.78584
0 0.699886 1
0 0.702571 1
0 0.666667 1
0.0175784 0.627832 0.975097
0.171435 0.612451 0.91136
0.62417 0.588769 0.841764
0.979736 0.628077 0.815137
1 0.667399 0.809766
0.96875 0.67863 0.808057
0 0.735286 1
0 0.73846 1
0 0.702327 1
0 0.64567 1
0.149935 0.539681 0.934066
0.653239 0.487419 0.86862
0.979736 0.515023 0.833951
1 0.54139 0.824414
0.967529 0.562142 0.824903
0 0.888151 1
0 0.886931 1
0 0.851041 1
0 0.779004 1
0.11136 0.696208 0.98706
0.67277 0.585351 0.909163
0.977295 0.544564 0.869596
1 0.549447 0.864225
0.962875 0.556527 0.861051
0 1 1
0 1 1
0 1 1
0 1 1
0.0625162 0.90135 1
0.659098 0.803906 0.965805
0.97705 0.742855 0.919173
1 0.739681 0.909407
0.961898 0.750179 0.908919
0 1 1
0 1 1
0 1 1
0 1 1
0.0605631 1 1
0.64567 1 1
0.943832 0.929915 0.962386
1 0.918196 0.950668
0.96434 0.926497 0.947494
0 1 1
0 1 1
0 1 1
0 1 1
0.282292 1 1
0.735042 1 1
0.939925 1 0.999268
1 1 0.974609
0.968994 1 0.97583
0.0415198 1 1
0 1 1
0 1 1
0.110628 1 1
0.540413 1 1
0.83444 1 1
0.991943 1 1
0.996582 0.991699 0.978515
0.965072 0.998535 0.977295
0.250065 0.979736 1
0.160189 0.982666 1
0.180713 0.980957 1
0.398047 0.980713 1
0.6757 0.973877 1
0.91722 0.965316 1
1 0.929671 1
0.990234 0.886198 0.98706
0.95433 0.904524 0.983886
0.00634775 0.818311 0.943832
0 0.820996 0.945052
0 0.807813 0.926253
0.0275883 0.803906 0.881559
0.181201 0.811719 0.825391
0.586816 0.811963 0.768017
0.924544 0.811963 0.717464
0.984131 0.851041 0.716487
0.945296 0.870573 0.722591
0 0.762631 0.949203
0 0.76556 0.967529
0 0.725521 0.940902
0.0175784 0.678874 0.896208
0.171191 0.68278 0.840299
0.541634 0.68278 0.782422
0.928939 0.694743 0.740169
0.984131 0.729915 0.734798
0.947982 0.75555 0.740169
0 0.786572 0.953109
0 0.78584 0.96875
0 0.749691 0.971679
0 0.685222 0.923079
0.149935 0.606592 0.870817
0.571923 0.577539 0.813184
0.92845 0.577539 0.762875
0.978515 0.599756 0.749203
0.940902 0.625391 0.756283
0 0.919661 0.957015
0 0.903059 0.964828
0 0.87863 0.96875
0 0.81416 0.968017
0.11136 0.724056 0.90428
0.530159 0.648112 0.84567
0.919173 0.598291 0.801953
0.978271 0.602686 0.794873
0.940902 0.618799 0.79707
0 1 0.964828
0 1 0.960922
0 1 0.971679
0 1 0.967773
0.0622721 0.936263 0.96556
0.433463 0.850553 0.904768
0.903059 0.787793 0.854215
0.965316 0.780713 0.838346
0.931624 0.793896 0.839811
0 1 0.964828
0 1 0.969482
0 1 0.971435
0 1 0.970214
0.0151369 1 0.961898
0.325765 1 0.955062
0.859831 0.973388 0.904524
0.952865 0.952132 0.880583
0.935531 0.96434 0.883268
0 1 0.969238
0 1 0.967773
0 1 0.967041
0 1 0.963119
0 1 0.96141
0.326009 1 0.952865
0.83444 1 0.937728
0.933577 1 0.897185
0.928695 1 0.902083
0 1 0.963851
0 1 0.960433
0 1 0.962631
0 1 0.957748
0.124788 1 0.958724
0.630274 1 0.94432
0.897673 1 0.932357
0.94725 1 0.91136
0.928939 1 0.902083
0.0043946 0.983886 0.950179
0 0.987305 0.957015
0 0.986084 0.956527
0 0.98291 0.954574
0.452262 0.976806 0.951644
0.794141 0.969238 0.947738
0.979736 0.962875 0.943832
1 0.94432 0.929671
0.926497 0.916487 0.89865
