pic/松下lut/LUTs/Blue sky.cube
TITLE "Generated by Resolve"
LUT_3D_SIZE 5
#LUMIXPHOTOSTYLE VLOG
0.0390784 0.046891 0.0429847
0.229053 0.00390631 0.0234379
1 0 0
1 0 0
0.996094 0.145052 0.0156252
0.0547036 0.0385901 0.12723
0.198535 0.0605631 0.0586099
1 0 0
1 0 0
0.996094 0.0598306 0.00390631
0.251041 0.567041 0.432227
0.122835 0.553841 0.411231
0.903059 0.599023 0.153353
1 0.455436 0.0229496
0.996094 0.437858 0.0239261
0.591211 0.905501 0.830762
0.302327 0.854459 0.762875
0.63566 0.905745 0.639811
1 0.881315 0.414893
0.996094 0.827588 0.308675
0.739681 0.787305 0.989502
0.424903 0.719417 0.89865
0.669841 0.734554 0.797803
1 0.800488 0.715755
0.991699 0.795361 0.60708
0.0217288 0.108431 0.0708171
0.0676432 0.0822919 0.0378576
0.96141 0 0
1 0.117464 0
0.996094 0.309651 0
0.0234379 0.186816 0.163607
0.0754559 0.126497 0.126497
0.981445 0 0.0183108
1 0.0676432 0
0.996094 0.153109 0
0.0666667 0.798047 0.398047
0.219776 0.678874 0.431739
0.858122 0.641032 0.275456
1 0.510872 0.15433
0.996094 0.480095 0.0905928
0.576318 0.942855 0.717952
0.362387 0.926741 0.715511
0.647623 0.935531 0.602441
1 0.912581 0.418311
0.996094 0.855436 0.314534
0.705745 0.771923 0.846891
0.459831 0.760189 0.821241
0.687907 0.750423 0.719905
1 0.813916 0.639078
0.991699 0.811231 0.532357
0.0102541 0.395605 0.617578
0 0.352377 0.572656
0.71429 0.321126 0.480583
1 0.423438 0.408057
0.996094 0.576562 0.41294
0 0.454948 0.698894
0 0.406348 0.681315
0.726253 0.220264 0.573144
1 0.279362 0.492546
0.996094 0.394385 0.51014
0.0156252 1 0.894499
0 0.970459 0.884733
0.696941 0.743832 0.724056
1 0.626123 0.637858
0.996094 0.603418 0.591211
0.442985 1 1
0.324788 1 1
0.68571 1 0.866911
1 0.962875 0.744564
0.99585 0.927474 0.692546
0.72015 0.874723 1
0.506477 0.87863 1
0.725277 0.789502 0.931136
0.995117 0.824659 0.846647
0.989746 0.840299 0.774609
0.00683604 0.667155 0.99585
0 0.658366 0.986328
0.181933 0.59585 0.854704
1 0.66276 0.78999
0.988281 0.74139 0.783154
0 0.671305 1
0 0.626612 1
0.150423 0.440299 0.923568
1 0.452262 0.839078
0.984619 0.522835 0.841031
0 1 1
0 1 1
0.299382 0.860807 1
1 0.706722 0.932113
0.986572 0.720882 0.922835
0.0390784 1 1
0 1 1
0.562631 1 1
1 1 1
0.98999 1 0.984619
0.611963 0.983154 1
0.411231 0.977295 1
0.764096 0.952377 1
1 0.867399 1
0.970459 0.886198 1
0.00634775 0.818311 0.943832
0 0.807813 0.926253
0.181201 0.811719 0.825391
0.924544 0.811963 0.717464
0.945296 0.870573 0.722591
0 0.786572 0.953109
0 0.749691 0.971679
0.149935 0.606592 0.870817
0.92845 0.577539 0.762875
0.940902 0.625391 0.756283
0 1 0.964828
0 1 0.971679
0.0622721 0.936263 0.96556
0.903059 0.787793 0.854215
0.931624 0.793896 0.839811
0 1 0.969238
0 1 0.967041
0 1 0.96141
0.83444 1 0.937728
0.928695 1 0.902083
0.0043946 0.983886 0.950179
0 0.986084 0.956527
0.452262 0.976806 0.951644
0.979736 0.962875 0.943832
0.926497 0.916487 0.89865
