pic/松下lut/LUTs/Camp-CinemaLUT.cube
TITLE "Generated by Resolve"
#LUMIXPHOTOSTYLE VLOG
LUT_3D_SIZE 5
0.0478676 0.0478676 0.0478676
0.105074 0.0469825 0.0475776
0.72192 0.00288396 0.0301671
0.957763 0.368292 0.463874
0.934508 0.834958 0.808301
0.0415198 0.0980392 0.0402075
0.0851911 0.0920424 0.0382849
0.744671 0.00914015 0.0268559
0.956024 0.398428 0.483467
0.934218 0.837415 0.809979
0 0.641443 0
0 0.646876 0
0.570733 0.621668 0
0.944625 0.645945 0.506828
0.932174 0.850004 0.81706
0.0151827 0.928237 0.28426
0.0165408 0.928649 0.288457
0.0971847 0.931289 0.288014
0.919676 0.893263 0.349844
0.928801 0.872892 0.792218
0.670863 0.908339 0.760037
0.67187 0.908141 0.760189
0.683268 0.907118 0.756329
0.868254 0.894514 0.738308
0.925063 0.890944 0.757046
0.0419471 0.0560616 0.0919814
0.0977798 0.0482338 0.0983597
0.718486 0.00170901 0.0415808
0.95787 0.363638 0.462577
0.934554 0.834714 0.808103
0.0394751 0.0879683 0.0879225
0.078645 0.0839094 0.0849317
0.735805 0.00790417 0.0399481
0.956558 0.391028 0.480842
0.934264 0.836942 0.809735
0 0.640497 0
0 0.644099 0
0.573953 0.622126 0
0.944808 0.645274 0.502037
0.932174 0.84979 0.816831
0.0148623 0.928191 0.284688
0.016434 0.928618 0.288869
0.102647 0.931289 0.288701
0.919738 0.893263 0.35227
0.928801 0.872938 0.79176
0.670085 0.908385 0.759945
0.670008 0.9084 0.759823
0.684001 0.907057 0.756344
0.869215 0.894423 0.738476
0.925017 0.890944 0.757305
0.0454719 0.109865 0.597253
0.054612 0.111223 0.597757
0.696498 0.000503548 0.553857
0.961196 0.291005 0.598199
0.93518 0.829709 0.807126
0.0411994 0.114046 0.620417
0.0510414 0.114488 0.614801
0.707469 0.000228885 0.566003
0.960616 0.30602 0.611963
0.935088 0.831479 0.808484
0 0.564599 0.486122
0 0.567361 0.489876
0.56614 0.555077 0.502983
0.946258 0.594766 0.618585
0.933242 0.843915 0.814466
0.0128786 0.927016 0.425238
0.0131685 0.92723 0.434485
0.113222 0.930205 0.458778
0.915099 0.887984 0.503578
0.928969 0.872816 0.785763
0.657008 0.909545 0.762676
0.658595 0.909468 0.76318
0.68751 0.906615 0.762646
0.871778 0.893965 0.747433
0.924987 0.890761 0.763806
0.0263371 0.169421 0.939132
0.027985 0.169467 0.939055
0.629236 0.0402686 0.89134
0.941619 0.0135958 0.871962
0.939757 0.763531 0.836759
0.0246891 0.169467 0.940627
0.0264439 0.16968 0.940169
0.655619 0.0348363 0.889296
0.942428 0.0142672 0.872724
0.939879 0.766278 0.837888
0 0.258488 0.90988
0 0.261509 0.908904
0.332143 0.239292 0.881727
0.951141 0.150439 0.879988
0.938506 0.792081 0.841398
0.00225834 0.911452 0.86595
0.00241093 0.911772 0.866453
0.0433967 0.914946 0.870069
0.903883 0.869718 0.828077
0.929488 0.865309 0.827344
0.603662 0.914107 0.834974
0.604791 0.914092 0.83566
0.645396 0.909667 0.833005
0.871672 0.892622 0.817304
0.923873 0.88954 0.818921
0.002533 0.169238 0.95433
0.00257877 0.169238 0.95433
0.154391 0.144915 0.941268
0.946029 0 0.887175
0.954253 0.0639811 0.892836
0.00250248 0.169177 0.95433
0.00250248 0.169223 0.95433
0.169451 0.142061 0.939803
0.946029 0 0.887175
0.954376 0.0640574 0.892989
0.00117494 0.172885 0.952453
0.00117494 0.173098 0.952361
0.117144 0.150317 0.943313
0.944747 0.000946059 0.88716
0.960983 0.156847 0.897414
0 0.897627 0.884764
0 0.897902 0.884794
0.000381476 0.892989 0.883925
0.89781 0.850355 0.854444
0.931975 0.848737 0.852628
0.354543 0.934707 0.889342
0.35816 0.934462 0.889082
0.438071 0.928771 0.883406
0.865232 0.891752 0.846418
0.923522 0.888029 0.843336
