pic/松下lut/LUTs/Camp-CinemaLUT.cube
TITLE "Generated by Resolve"
#LUMIXPHOTOSTYLE VLOG
LUT_3D_SIZE 33
0.0478676 0.0478676 0.0478676
0.0478676 0.0478676 0.0478676
0.0478676 0.0478676 0.0478676
0.0478676 0.0478676 0.0478676
0.0478676 0.0478676 0.0478676
0.0478676 0.0478676 0.0478676
0.0574044 0.0477607 0.0478676
0.0813306 0.0475166 0.0478676
0.105074 0.0469825 0.0475776
0.128511 0.0460059 0.0468452
0.161105 0.0445869 0.04654
0.207492 0.0425116 0.0469062
0.273411 0.0382086 0.0456245
0.368765 0.030518 0.0418402
0.478431 0.02121 0.0369879
0.609689 0.00949111 0.030518
0.72192 0.00288396 0.0301671
0.805432 0.0039826 0.0390784
0.869444 0.011017 0.05626
0.904005 0.0270085 0.0859388
0.931594 0.0521553 0.129137
0.948684 0.0910964 0.192752
0.959274 0.154574 0.269688
0.960006 0.255055 0.366766
0.957763 0.368292 0.463874
0.951049 0.500771 0.561074
0.945403 0.61062 0.641718
0.941375 0.686336 0.697398
0.938857 0.745678 0.741451
0.938613 0.780362 0.767941
0.937774 0.807309 0.788312
0.936065 0.822568 0.79942
0.934508 0.834958 0.808301
0.0478676 0.0478676 0.0478676
0.0478676 0.0478676 0.0478676
0.0478676 0.0478676 0.0478676
0.0478676 0.0478676 0.0478676
0.0478676 0.0478676 0.0478676
0.0478676 0.0478676 0.0478676
0.0574044 0.0477607 0.0478676
0.0813306 0.0475166 0.0478676
0.105074 0.0469825 0.0475776
0.128511 0.0460059 0.0468452
0.161105 0.0445869 0.04654
0.207492 0.0425116 0.0469062
0.273411 0.0382086 0.0456245
0.368765 0.030518 0.0418402
0.478431 0.02121 0.0369879
0.609689 0.00949111 0.030518
0.72192 0.00288396 0.0301671
0.805432 0.0039826 0.0390784
0.869444 0.011017 0.05626
0.904005 0.0270085 0.0859388
0.931594 0.0521553 0.129137
0.948684 0.0910964 0.192752
0.959274 0.154574 0.269688
0.960006 0.255055 0.366766
0.957763 0.368292 0.463874
0.951049 0.500771 0.561074
0.945403 0.61062 0.641718
0.941375 0.686336 0.697398
0.938857 0.745678 0.741451
0.938613 0.780362 0.767941
0.937774 0.807309 0.788312
0.936065 0.822568 0.79942
0.934508 0.834958 0.808301
0.0478676 0.0478676 0.0478676
0.0478676 0.0478676 0.0478676
0.0478676 0.0478676 0.0478676
0.0478676 0.0478676 0.0478676
0.0478676 0.0478676 0.0478676
0.0478676 0.0478676 0.0478676
0.0574044 0.0477607 0.0478676
0.0813306 0.0475166 0.0478676
0.105074 0.0469825 0.0475776
0.128511 0.0460059 0.0468452
0.161105 0.0445869 0.04654
0.207492 0.0425116 0.0469062
0.273411 0.0382086 0.0456245
0.368765 0.030518 0.0418402
0.478431 0.02121 0.0369879
0.609689 0.00949111 0.030518
0.72192 0.00288396 0.0301671
0.805432 0.0039826 0.0390784
0.869444 0.011017 0.05626
0.904005 0.0270085 0.0859388
0.931594 0.0521553 0.129137
0.948684 0.0910964 0.192752
0.959274 0.154574 0.269688
0.960006 0.255055 0.366766
0.957763 0.368292 0.463874
0.951049 0.500771 0.561074
0.945403 0.61062 0.641718
0.941375 0.686336 0.697398
0.938857 0.745678 0.741451
0.938613 0.780362 0.767941
0.937774 0.807309 0.788312
0.936065 0.822568 0.79942
0.934508 0.834958 0.808301
0.0478676 0.0478676 0.0478676
0.0478676 0.0478676 0.0478676
0.0478676 0.0478676 0.0478676
0.0478676 0.0478676 0.0478676
0.0478676 0.0478676 0.0478676
0.0478676 0.0478676 0.0478676
0.0574044 0.0477607 0.0478676
0.0813306 0.0475166 0.0478676
0.105074 0.0469825 0.0475776
0.128511 0.0460059 0.0468452
0.161105 0.0445869 0.04654
0.207492 0.0425116 0.0469062
0.273411 0.0382086 0.0456245
0.368765 0.030518 0.0418402
0.478431 0.02121 0.0369879
0.609689 0.00949111 0.030518
0.72192 0.00288396 0.0301671
0.805432 0.0039826 0.0390784
0.869444 0.011017 0.05626
0.904005 0.0270085 0.0859388
0.931594 0.0521553 0.129137
0.948684 0.0910964 0.192752
0.959274 0.154574 0.269688
0.960006 0.255055 0.366766
0.957763 0.368292 0.463874
0.951049 0.500771 0.561074
0.945403 0.61062 0.641718
0.941375 0.686336 0.697398
0.938857 0.745678 0.741451
0.938613 0.780362 0.767941
0.937774 0.807309 0.788312
0.936065 0.822568 0.79942
0.934508 0.834958 0.808301
0.0478676 0.0478676 0.0478676
0.0478676 0.0478676 0.0478676
0.0478676 0.0478676 0.0478676
0.0478676 0.0478676 0.0478676
0.0478981 0.0478981 0.0478523
0.0480049 0.0479591 0.0478218
0.057435 0.0479744 0.0478218
0.0809796 0.0479133 0.0478218
0.104692 0.0474556 0.0475013
0.128634 0.0464637 0.0467231
0.161746 0.0450446 0.0463569
0.208652 0.0430304 0.0466316
0.27512 0.0386511 0.0452583
0.371145 0.0307469 0.0413977
0.481117 0.0213169 0.0365454
0.612146 0.00962844 0.0301976
0.723949 0.00306706 0.030045
0.806714 0.00428778 0.0392462
0.870192 0.0114748 0.0567178
0.904524 0.0276341 0.086656
0.931945 0.0530251 0.130144
0.948913 0.0923323 0.194095
0.959365 0.156207 0.271305
0.959976 0.25716 0.368521
0.957656 0.370581 0.465629
0.950912 0.502846 0.562585
0.945296 0.612375 0.642954
0.94136 0.687587 0.698314
0.938888 0.746548 0.742077
0.938582 0.780926 0.768338
0.937728 0.80766 0.788525
0.936019 0.822812 0.799558
0.934462 0.835126 0.808392
0.0478676 0.0478676 0.0478676
0.0478676 0.0478676 0.0478676
0.0478676 0.0478676 0.0478676
0.0478676 0.0478676 0.0478676
0.0480049 0.0479591 0.0478218
0.0483406 0.0482185 0.0477455
0.0575418 0.0485237 0.0476997
0.0801099 0.0488746 0.0476997
0.103731 0.048661 0.0473335
0.128969 0.0475929 0.0464332
0.163348 0.0462043 0.0458991
0.211536 0.0442969 0.0459144
0.279438 0.0397803 0.0443275
0.377111 0.0313115 0.0402838
0.487861 0.0215915 0.0354467
0.618341 0.00994888 0.0294041
0.729061 0.00355535 0.0297246
0.809934 0.00508125 0.0396582
0.872038 0.0126192 0.0578317
0.905821 0.0292058 0.0884413
0.932799 0.0552224 0.132677
0.949462 0.0954452 0.197498
0.959609 0.160342 0.275364
0.959915 0.262455 0.372946
0.957382 0.376349 0.470024
0.950591 0.508064 0.566369
0.945022 0.61677 0.646052
0.941344 0.690776 0.700633
0.938949 0.748684 0.743664
0.938537 0.782345 0.769314
0.937606 0.80853 0.789059
0.935897 0.823453 0.799924
0.934371 0.835569 0.808637
0.0469368 0.0561379 0.0467384
0.0469368 0.0561379 0.0467384
0.0469368 0.0561379 0.0467384
0.0469368 0.0561379 0.0467384
0.0471199 0.0562142 0.0467079
0.0475471 0.0564431 0.0466011
0.0562905 0.0566262 0.0464637
0.0775616 0.0567788 0.0462806
0.101106 0.0559091 0.0458228
0.128099 0.0534981 0.0449989
0.164187 0.0507668 0.0444953
0.214054 0.0475471 0.0444953
0.283665 0.0419013 0.0428779
0.383108 0.0326085 0.0387884
0.494682 0.0223545 0.0340887
0.624598 0.0106813 0.0284123
0.734203 0.00437934 0.0292515
0.813169 0.00619516 0.0399023
0.873899 0.0140383 0.0588083
0.907134 0.0310063 0.0901808
0.933654 0.0576333 0.135256
0.950011 0.0988632 0.200992
0.959838 0.164843 0.2795
0.959792 0.268208 0.377295
0.957046 0.382559 0.474327
0.950225 0.513466 0.570169
0.944732 0.621225 0.649241
0.941253 0.693996 0.702968
0.938949 0.750896 0.745281
0.93846 0.78381 0.770397
0.937499 0.809461 0.789731
0.935805 0.82414 0.800381
0.93431 0.836057 0.808957
0.0446174 0.0768902 0.0439307
0.0446174 0.0768902 0.0439307
0.0446174 0.0768902 0.0439307
0.0446174 0.0768902 0.0439307
0.0447395 0.0768292 0.0439155
0.0450599 0.0766918 0.0438849
0.0530251 0.0761883 0.043595
0.0725261 0.0751812 0.0429084
0.0959793 0.0722972 0.0423133
0.125399 0.0665904 0.0418402
0.163867 0.0604868 0.0416876
0.215991 0.0537881 0.0419928
0.287739 0.0455482 0.0406195
0.389136 0.0349584 0.0367285
0.50164 0.0238651 0.0323186
0.630945 0.0120089 0.0271458
0.739406 0.00570687 0.0285344
0.816419 0.00775158 0.0398566
0.875761 0.0158694 0.0595407
0.908446 0.0331426 0.0918288
0.934508 0.0603952 0.137865
0.950561 0.102724 0.204639
0.960037 0.169924 0.283772
0.959548 0.274693 0.381567
0.956573 0.38941 0.478477
0.949828 0.519173 0.574014
0.944427 0.625742 0.652537
0.941054 0.697292 0.705348
0.938827 0.753155 0.746944
0.938338 0.785351 0.771618
0.937392 0.810468 0.790616
0.935775 0.824887 0.801022
0.93431 0.836622 0.8094
0.0415198 0.0980392 0.0402075
0.0415198 0.0980392 0.0402075
0.0415198 0.0980392 0.0402075
0.0415198 0.0980392 0.0402075
0.0415961 0.0979324 0.0401923
0.0417945 0.0976883 0.0401617
0.0479133 0.0970016 0.039826
0.062974 0.0956283 0.0390326
0.0851911 0.0920424 0.0382849
0.118212 0.0850996 0.0376287
0.159945 0.0772106 0.037232
0.214786 0.0678874 0.037232
0.28925 0.0567788 0.0358892
0.393347 0.0429694 0.032517
0.507515 0.0294194 0.0287785
0.636881 0.0162509 0.024506
0.744671 0.00914015 0.0268559
0.819837 0.0111391 0.0392157
0.877852 0.0193179 0.0599527
0.909987 0.0368353 0.0933547
0.935531 0.064744 0.140551
0.95111 0.108354 0.20856
0.960128 0.176989 0.288548
0.959228 0.283406 0.386618
0.956024 0.398428 0.483467
0.949325 0.526406 0.578485
0.944045 0.631327 0.656336
0.940887 0.701427 0.708247
0.938781 0.756054 0.749065
0.938247 0.787366 0.773129
0.937285 0.811826 0.791638
0.935668 0.82594 0.801801
0.934218 0.837415 0.809979
0.0372473 0.119768 0.0350805
0.0372473 0.119768 0.0350805
0.0372473 0.119768 0.0350805
0.0372473 0.119768 0.0350805
0.0372778 0.119799 0.0350347
0.0373541 0.11986 0.0349584
0.0400092 0.119692 0.0347601
0.0465858 0.119173 0.0343786
0.0658427 0.116854 0.033463
0.104234 0.111803 0.0317693
0.150561 0.104524 0.0302739
0.20882 0.0938582 0.0290532
0.28687 0.079469 0.0273899
0.394812 0.0594949 0.0250553
0.511742 0.0410468 0.0225528
0.642206 0.0248875 0.0198062
0.749996 0.0157778 0.0236973
0.823514 0.0173037 0.037644
0.880323 0.0252384 0.0599069
0.91191 0.0428626 0.0947127
0.936828 0.0714733 0.143359
0.951675 0.116686 0.212894
0.960082 0.187076 0.294057
0.958755 0.295506 0.392798
0.955306 0.410666 0.489723
0.948684 0.535958 0.583886
0.943587 0.638544 0.660868
0.940795 0.706798 0.71194
0.938857 0.759899 0.751873
0.938201 0.790097 0.775021
0.937133 0.813733 0.792889
0.93547 0.82742 0.802808
0.934005 0.838529 0.810788
0.0288396 0.14876 0.0256199
0.0288396 0.14876 0.0256199
0.0288396 0.14876 0.0256199
0.0288396 0.14876 0.0256199
0.0287938 0.148898 0.0255741
0.0287022 0.149264 0.0254826
0.029099 0.149538 0.0253758
0.0302129 0.14966 0.0252842
0.0447547 0.14844 0.0244907
0.07953 0.14519 0.0226291
0.126253 0.138888 0.0208896
0.191028 0.127993 0.0193179
0.27512 0.112123 0.0178378
0.388418 0.088716 0.0164645
0.509957 0.0667277 0.0150607
0.643946 0.0468605 0.0135958
0.753597 0.0342565 0.0189059
0.826505 0.032639 0.0344549
0.882826 0.0383612 0.0584421
0.914092 0.0551919 0.0951705
0.938399 0.0840314 0.145708
0.952224 0.131014 0.217105
0.959854 0.203067 0.299962
0.958144 0.312978 0.400076
0.954513 0.427405 0.497414
0.947967 0.548638 0.590555
0.943069 0.647761 0.666453
0.940642 0.713512 0.71632
0.938872 0.764569 0.755138
0.938064 0.793454 0.777295
0.936919 0.816083 0.794446
0.935225 0.829252 0.804044
0.933761 0.839948 0.811765
0.0141909 0.188678 0.00962844
0.0141909 0.188678 0.00962844
0.0141909 0.188678 0.00962844
0.0141909 0.188678 0.00962844
0.0140536 0.188952 0.00961318
0.0137026 0.189624 0.00956741
0.013611 0.190188 0.00953689
0.0138857 0.190616 0.00949111
0.0210422 0.190234 0.00920119
0.0386053 0.188632 0.00849927
0.0794232 0.183917 0.00784314
0.155367 0.174487 0.00726329
0.249226 0.159792 0.00669871
0.370153 0.137118 0.0061799
0.499138 0.113649 0.0056611
0.640253 0.0889601 0.00511177
0.754589 0.0706035 0.0116274
0.828489 0.0618448 0.0288243
0.88539 0.0623941 0.0548867
0.916655 0.0770275 0.0942855
0.940383 0.105379 0.147387
0.952743 0.154437 0.22118
0.959365 0.228 0.306416
0.957351 0.338582 0.408988
0.953582 0.450965 0.507286
0.947158 0.566018 0.59913
0.942473 0.660029 0.673579
0.940429 0.722225 0.721736
0.938796 0.770504 0.759106
0.937804 0.797742 0.780148
0.936568 0.819104 0.796475
0.934951 0.831601 0.805646
0.933501 0.84181 0.813016
0.00430304 0.245686 0
0.00430304 0.245686 0
0.00430304 0.245686 0
0.00430304 0.245686 0
0.00415045 0.246082 0
0.00375372 0.247089 0
0.00344854 0.24799 0
0.00325017 0.248783 0
0.00543221 0.249104 0
0.0112001 0.248737 0
0.0410468 0.245624 0
0.10724 0.238392 0
0.199832 0.226001 0
0.332311 0.205798 0
0.472831 0.182559 0
0.625498 0.154742 0
0.748135 0.132158 0.00579843
0.825422 0.117494 0.0203708
0.884627 0.112413 0.0459907
0.916564 0.121798 0.0882734
0.940322 0.146365 0.14435
0.95169 0.19382 0.22121
0.957855 0.265034 0.309789
0.956115 0.372107 0.416022
0.95256 0.479072 0.516167
0.946258 0.585885 0.607111
0.941833 0.67332 0.680415
0.940215 0.731517 0.727077
0.938766 0.776669 0.763104
0.937575 0.802121 0.783032
0.936217 0.822171 0.798505
0.93463 0.834058 0.807248
0.933211 0.843793 0.814282
0.00161746 0.328466 0
0.00161746 0.328466 0
0.00161746 0.328466 0
0.00161746 0.328466 0
0.00155642 0.329015 0
0.00140383 0.330373 0
0.00129702 0.331685 0
0.00122072 0.332891 0
0.00204471 0.333715 0
0.00421149 0.333959 0
0.0154116 0.33254 0
0.0402838 0.328603 0
0.114977 0.320195 0
0.264912 0.305058 0
0.423178 0.284657 0
0.594049 0.256291 0
0.730419 0.231785 0.00218204
0.814725 0.213077 0.00764477
0.878843 0.201663 0.0290532
0.91249 0.201221 0.0745251
0.937163 0.217029 0.134157
0.948302 0.257343 0.215167
0.954772 0.320333 0.308461
0.954192 0.417578 0.420249
0.951385 0.514092 0.523598
0.945205 0.609476 0.614176
0.94107 0.688182 0.686793
0.940002 0.74168 0.732296
0.938796 0.7832 0.767147
0.937346 0.806638 0.785916
0.935851 0.825269 0.800519
0.934264 0.836683 0.808835
0.932891 0.84596 0.815579
0 0.424338 0
0 0.424338 0
0 0.424338 0
0 0.424338 0
0 0.424964 0
0 0.42652 0
0 0.428031 0
0 0.42948 0
0 0.43061 0
0 0.431296 0
0 0.431052 0
0 0.429389 0
0.0536507 0.424613 0
0.188312 0.415152 0
0.347158 0.399283 0
0.542535 0.373724 0
0.698711 0.350042 0
0.795666 0.329152 0
0.868528 0.313176 0.0166781
0.904967 0.304616 0.0585641
0.931685 0.311116 0.117556
0.943664 0.340352 0.20238
0.951064 0.390311 0.300343
0.951553 0.471534 0.418112
0.949615 0.553033 0.525643
0.94403 0.634913 0.617746
0.940398 0.70338 0.691035
0.939742 0.751598 0.735897
0.938704 0.789197 0.770031
0.937087 0.810758 0.787976
0.9355 0.828046 0.801984
0.933928 0.838895 0.81001
0.932601 0.84773 0.816526
0 0.539971 0
0 0.539971 0
0 0.539971 0
0 0.539971 0
0 0.540566 0
0 0.542062 0
0 0.543526 0
0 0.5449 0
0 0.546075 0
0 0.546944 0
0 0.547097 0
0 0.546166 0
0.027863 0.544457 0
0.0978103 0.541588 0
0.231312 0.53283 0
0.460746 0.515145 0
0.645853 0.496437 0
0.764004 0.476158 0
0.851377 0.458351 0.0111849
0.892287 0.444221 0.0392615
0.922667 0.440589 0.0912795
0.937148 0.452796 0.1794
0.946426 0.482399 0.281971
0.947829 0.538308 0.406317
0.94696 0.597925 0.519585
0.942641 0.663127 0.616083
0.939864 0.719112 0.692058
0.939391 0.761166 0.737041
0.93843 0.7944 0.77113
0.936751 0.814313 0.788769
0.935149 0.83035 0.802563
0.933654 0.840528 0.810544
0.932357 0.848905 0.816968
0 0.641443 0
0 0.641443 0
0 0.641443 0
0 0.641443 0
0 0.641962 0
0 0.64329 0
0 0.644556 0
0 0.645777 0
0 0.646876 0
0 0.647776 0
0 0.648173 0
0 0.647776 0
0.00988785 0.647898 0
0.0347295 0.648814 0
0.141649 0.645289 0
0.372519 0.635065 0
0.570733 0.621668 0
0.719615 0.603494 0
0.82858 0.586313 0.00631724
0.877226 0.570596 0.0221561
0.913268 0.560998 0.0661784
0.930282 0.560616 0.152758
0.941588 0.573617 0.25684
0.944244 0.606836 0.387335
0.944625 0.645945 0.506828
0.941573 0.693965 0.60972
0.939559 0.736797 0.689998
0.939116 0.771801 0.736156
0.93817 0.800015 0.770977
0.936461 0.81799 0.788708
0.934859 0.832593 0.802563
0.933425 0.8421 0.810605
0.932174 0.850004 0.81706
0 0.721538 0
0 0.721538 0
0 0.721538 0
0 0.721538 0
0 0.72192 0
0 0.722866 0
0 0.723812 0
0 0.724727 0
0 0.725567 0
0 0.726284 0
0 0.72665 0
0 0.726513 0
0.0037232 0.726589 0
0.0130465 0.727001 0
0.0915694 0.725902 0
0.274571 0.72253 0
0.461997 0.714977 0
0.656062 0.701137 0
0.797253 0.688304 0.00236515
0.858595 0.676997 0.00831617
0.903304 0.667689 0.0428626
0.922881 0.661448 0.120607
0.936431 0.663493 0.221515
0.940856 0.678019 0.357443
0.942794 0.698726 0.483955
0.940963 0.728725 0.596246
0.939605 0.757397 0.683284
0.938979 0.784039 0.732174
0.937926 0.806271 0.768917
0.936217 0.821866 0.78732
0.934646 0.834775 0.801694
0.933257 0.843595 0.809964
0.932082 0.85098 0.816617
0 0.786847 0
0 0.786847 0
0 0.786847 0
0 0.786847 0
0 0.787106 0
0 0.787762 0
0 0.788418 0
0 0.78909 0
0 0.789685 0
0 0.790204 0
0 0.790524 0
0 0.79057 0
0 0.790661 0
0 0.790814 0
0.0517586 0.791394 0
0.181674 0.792645 0
0.352224 0.789212 0
0.584161 0.778729 0
0.755215 0.769375 0
0.834363 0.76173 0
0.891691 0.753536 0.0264897
0.916075 0.744533 0.092958
0.933165 0.739696 0.187823
0.939208 0.741161 0.325551
0.942321 0.748012 0.456748
0.940978 0.762966 0.578042
0.939757 0.779293 0.672145
0.938735 0.797665 0.725185
0.937469 0.81384 0.764935
0.935836 0.826658 0.784634
0.934325 0.837537 0.799969
0.933043 0.845472 0.808713
0.93193 0.852171 0.815717
0 0.829816 0
0 0.829816 0
0 0.829816 0
0 0.829816 0
0 0.830014 0
0 0.830488 0
0 0.830961 0
0 0.831449 0
0 0.83183 0
0 0.832105 0
0 0.832334 0
0 0.832502 0
0 0.832685 0
0 0.832898 0
0.0274662 0.834028 0
0.0963912 0.836561 0
0.240925 0.834653 0
0.499657 0.826062 0
0.697002 0.818875 0
0.801678 0.813794 0
0.877623 0.807904 0.0205539
0.910185 0.800778 0.0721294
0.932738 0.795254 0.156573
0.9402 0.792142 0.290639
0.943908 0.792035 0.42298
0.941955 0.796429 0.552712
0.940078 0.803159 0.654368
0.938323 0.813428 0.713619
0.93669 0.823362 0.758022
0.935241 0.832837 0.77998
0.933898 0.841199 0.796994
0.932723 0.847929 0.806531
0.931716 0.853681 0.81413
0 0.864622 0.011429
0 0.864622 0.011429
0 0.864622 0.011429
0 0.864622 0.011429
0 0.864759 0.0114748
0 0.86508 0.0115663
0 0.8654 0.0116732
0 0.865736 0.0117952
0 0.865995 0.011902
0 0.866117 0.0119783
0 0.866285 0.0120241
0 0.866499 0.0120546
0 0.866743 0.0120699
0 0.867002 0.0120699
0.0111543 0.868345 0.0121157
0.0391546 0.871305 0.0122377
0.157534 0.870634 0.0121309
0.412329 0.864469 0.0116884
0.620737 0.858961 0.0108797
0.759106 0.854414 0.00949111
0.858579 0.849622 0.0235599
0.899351 0.84445 0.0609445
0.928023 0.838987 0.133257
0.938415 0.833097 0.258305
0.943923 0.828397 0.387655
0.942031 0.825498 0.523476
0.939986 0.825254 0.631754
0.937667 0.829023 0.698451
0.935744 0.833783 0.748516
0.934462 0.84004 0.773434
0.933272 0.845914 0.792691
0.93228 0.85124 0.803357
0.931395 0.855924 0.811826
0 0.887098 0.0401312
0 0.887098 0.0401312
0 0.887098 0.0401312
0 0.887098 0.0401312
0 0.887175 0.0402686
0 0.887373 0.0406043
0 0.887602 0.0409857
0 0.887877 0.041413
0 0.88809 0.0417639
0 0.888212 0.0420233
0 0.88835 0.0422065
0 0.888518 0.042298
0 0.888747 0.0423438
0 0.889067 0.0423438
0.0069276 0.890105 0.0425116
0.0243076 0.89221 0.0429389
0.116243 0.892302 0.0425879
0.320745 0.889387 0.0410468
0.51722 0.884825 0.0381933
0.701625 0.877775 0.0333257
0.832074 0.872282 0.0400549
0.881086 0.869123 0.0643168
0.916808 0.864851 0.12192
0.932448 0.8589 0.229892
0.941543 0.853208 0.349966
0.940764 0.847929 0.48835
0.939254 0.844648 0.601877
0.936629 0.844388 0.677852
0.934585 0.845533 0.735103
0.93341 0.848798 0.764065
0.932403 0.852216 0.786389
0.93164 0.855909 0.798703
0.930968 0.859281 0.808438
0.00015259 0.905531 0.0932479
0.00015259 0.905531 0.0932479
0.00015259 0.905531 0.0932479
0.00015259 0.905531 0.0932479
0.000167849 0.905577 0.093492
0.000213626 0.905699 0.0940871
0.000259403 0.905852 0.094728
0.00030518 0.906081 0.0954147
0.000381476 0.906249 0.0959793
0.00047303 0.90634 0.096376
0.00062562 0.906447 0.0966812
0.000869764 0.906569 0.096849
0.00135805 0.906798 0.0969406
0.00218204 0.907164 0.09691
0.00746166 0.907958 0.0970932
0.0194705 0.909438 0.0975509
0.0897841 0.910048 0.0970016
0.248142 0.909392 0.0948959
0.429557 0.905394 0.090425
0.645777 0.896361 0.0823987
0.799725 0.889967 0.0830549
0.859648 0.887587 0.096849
0.903777 0.884016 0.13875
0.924041 0.878691 0.223133
0.936843 0.872908 0.326558
0.938369 0.866407 0.458747
0.938231 0.861265 0.571801
0.935531 0.858167 0.65597
0.933471 0.856641 0.719875
0.932357 0.857496 0.753201
0.931456 0.858885 0.778881
0.930892 0.861082 0.792981
0.930373 0.863249 0.804135
0.000518807 0.917861 0.18323
0.000518807 0.917861 0.18323
0.000518807 0.917861 0.18323
0.000518807 0.917861 0.18323
0.000579843 0.917906 0.183597
0.000747692 0.918029 0.184512
0.000915541 0.918166 0.185412
0.00109865 0.918318 0.186267
0.00132753 0.918425 0.186969
0.00167849 0.918471 0.187427
0.00221256 0.918547 0.187808
0.00306706 0.918669 0.188113
0.00474556 0.918883 0.188251
0.00764477 0.919249 0.188159
0.015198 0.919936 0.188144
0.0297704 0.921096 0.188251
0.0857557 0.921843 0.187564
0.204242 0.921981 0.185718
0.365805 0.917967 0.180331
0.592401 0.907713 0.169604
0.758556 0.90016 0.166079
0.833448 0.896666 0.173388
0.888014 0.893095 0.198093
0.91194 0.889418 0.249073
0.928603 0.88484 0.324681
0.934295 0.878889 0.437461
0.936751 0.873671 0.541436
0.934371 0.869535 0.632136
0.932479 0.866773 0.701915
0.931289 0.866102 0.740139
0.930404 0.866087 0.769543
0.929961 0.867063 0.785672
0.929564 0.868162 0.798459
0.0151827 0.928237 0.28426
0.0151827 0.928237 0.28426
0.0151827 0.928237 0.28426
0.0151827 0.928237 0.28426
0.0153048 0.928283 0.284672
0.0155947 0.928374 0.285695
0.0158846 0.928481 0.286702
0.0161746 0.928573 0.287678
0.0165408 0.928649 0.288457
0.0170291 0.928664 0.288945
0.0178225 0.928725 0.289342
0.0190433 0.928817 0.289586
0.0214542 0.929015 0.289647
0.0256809 0.929351 0.289418
0.0347295 0.9299 0.289204
0.0510719 0.930724 0.288991
0.0971847 0.931289 0.288014
0.188296 0.931426 0.285893
0.331441 0.927214 0.279698
0.55317 0.916396 0.267369
0.721233 0.907988 0.260456
0.80827 0.903227 0.261738
0.871687 0.899336 0.27303
0.899397 0.896773 0.299474
0.919676 0.893263 0.349844
0.928756 0.888304 0.436347
0.933776 0.883482 0.523857
0.932677 0.878889 0.612894
0.931548 0.875441 0.683543
0.930373 0.873701 0.726452
0.929519 0.872663 0.759518
0.929122 0.872663 0.777722
0.928801 0.872892 0.792218
0.0514382 0.935683 0.401968
0.0514382 0.935683 0.401968
0.0514382 0.935683 0.401968
0.0514382 0.935683 0.401968
0.051606 0.935699 0.402304
0.052018 0.935744 0.403143
0.0524453 0.935775 0.404044
0.0528572 0.935821 0.40502
0.0532998 0.935866 0.405798
0.0537881 0.935958 0.406287
0.0545663 0.936019 0.406561
0.055787 0.936065 0.4065
0.0582742 0.936187 0.406271
0.0626841 0.936477 0.405814
0.0720684 0.936828 0.405341
0.0889448 0.937301 0.404883
0.132006 0.937163 0.403342
0.214557 0.936156 0.400183
0.341451 0.931411 0.393378
0.535271 0.921019 0.381033
0.689723 0.912261 0.371984
0.784695 0.905974 0.367895
0.854459 0.901289 0.371511
0.886137 0.899031 0.386786
0.909712 0.896361 0.415839
0.92105 0.89305 0.465705
0.928527 0.889387 0.525597
0.930175 0.885237 0.60058
0.930739 0.881895 0.664546
0.929686 0.879789 0.711833
0.928878 0.878279 0.748425
0.928435 0.877668 0.768826
0.9281 0.877363 0.785077
0.106874 0.940368 0.507317
0.106874 0.940368 0.507317
0.106874 0.940368 0.507317
0.106874 0.940368 0.507317
0.107134 0.940368 0.507591
0.107759 0.940368 0.508309
0.108354 0.940352 0.509056
0.108904 0.940337 0.509896
0.109438 0.940352 0.510552
0.109972 0.940459 0.510979
0.110765 0.940505 0.511101
0.111971 0.940505 0.510811
0.114611 0.940566 0.510353
0.119417 0.940688 0.509651
0.129534 0.94078 0.508888
0.147677 0.940826 0.508064
0.188281 0.940063 0.506004
0.262791 0.938064 0.502098
0.372503 0.932937 0.494987
0.535348 0.923125 0.48304
0.671534 0.914382 0.472862
0.767498 0.907286 0.465339
0.839078 0.90219 0.463523
0.873854 0.90013 0.470283
0.900099 0.898039 0.483864
0.913512 0.895903 0.507713
0.923125 0.893263 0.544564
0.927001 0.889891 0.601038
0.929183 0.886976 0.653468
0.928786 0.884749 0.699779
0.928359 0.883009 0.736828
0.927871 0.881987 0.759899
0.92752 0.881285 0.778149
0.191241 0.940856 0.594003
0.191241 0.940856 0.594003
0.191241 0.940856 0.594003
0.191241 0.940856 0.594003
0.191653 0.940856 0.594263
0.192645 0.940856 0.594903
0.193515 0.940826 0.595483
0.194171 0.940734 0.595941
0.194827 0.940703 0.596323
