pic/松下lut/LUTs/Camp-CinemaLUT.cube
TITLE "Generated by Resolve"
#LUMIXPHOTOSTYLE VLOG
LUT_3D_SIZE 9
0.0478676 0.0478676 0.0478676
0.0478676 0.0478676 0.0478676
0.105074 0.0469825 0.0475776
0.273411 0.0382086 0.0456245
0.72192 0.00288396 0.0301671
0.931594 0.0521553 0.129137
0.957763 0.368292 0.463874
0.938857 0.745678 0.741451
0.934508 0.834958 0.808301
0.0478676 0.0478676 0.0478676
0.0478981 0.0478981 0.0478523
0.104692 0.0474556 0.0475013
0.27512 0.0386511 0.0452583
0.723949 0.00306706 0.030045
0.931945 0.0530251 0.130144
0.957656 0.370581 0.465629
0.938888 0.746548 0.742077
0.934462 0.835126 0.808392
0.0415198 0.0980392 0.0402075
0.0415961 0.0979324 0.0401923
0.0851911 0.0920424 0.0382849
0.28925 0.0567788 0.0358892
0.744671 0.00914015 0.0268559
0.935531 0.064744 0.140551
0.956024 0.398428 0.483467
0.938781 0.756054 0.749065
0.934218 0.837415 0.809979
0.00430304 0.245686 0
0.00415045 0.246082 0
0.00543221 0.249104 0
0.199832 0.226001 0
0.748135 0.132158 0.00579843
0.940322 0.146365 0.14435
0.95256 0.479072 0.516167
0.938766 0.776669 0.763104
0.933211 0.843793 0.814282
0 0.641443 0
0 0.641962 0
0 0.646876 0
0.00988785 0.647898 0
0.570733 0.621668 0
0.913268 0.560998 0.0661784
0.944625 0.645945 0.506828
0.93817 0.800015 0.770977
0.932174 0.850004 0.81706
0 0.864622 0.011429
0 0.864759 0.0114748
0 0.865995 0.011902
0 0.866743 0.0120699
0.157534 0.870634 0.0121309
0.858579 0.849622 0.0235599
0.943923 0.828397 0.387655
0.935744 0.833783 0.748516
0.931395 0.855924 0.811826
0.0151827 0.928237 0.28426
0.0153048 0.928283 0.284672
0.0165408 0.928649 0.288457
0.0214542 0.929015 0.289647
0.0971847 0.931289 0.288014
0.721233 0.907988 0.260456
0.919676 0.893263 0.349844
0.931548 0.875441 0.683543
0.928801 0.872892 0.792218
0.29279 0.938186 0.66186
0.293263 0.93817 0.662089
0.296788 0.937881 0.663417
0.301625 0.937804 0.662181
0.372244 0.934447 0.655406
0.682658 0.911284 0.626459
0.883207 0.897032 0.615228
0.92372 0.892012 0.66421
0.926802 0.886976 0.763897
0.670863 0.908339 0.760037
0.671016 0.908293 0.760067
0.67187 0.908141 0.760189
0.670558 0.908339 0.75935
0.683268 0.907118 0.756329
0.760571 0.900557 0.74699
0.868254 0.894514 0.738308
0.914855 0.891905 0.741802
0.925063 0.890944 0.757046
0.0478676 0.0478676 0.0478676
0.0478676 0.0478676 0.0478676
0.10486 0.0469825 0.0477302
0.272984 0.0381628 0.0466773
0.721538 0.00282292 0.0306249
0.931502 0.0519875 0.129198
0.957778 0.367864 0.46363
0.938857 0.74551 0.741314
0.934524 0.834943 0.808255
0.0478676 0.0478676 0.0478676
0.0479133 0.0478981 0.0478676
0.104402 0.0474403 0.0477455
0.274647 0.0385901 0.0463264
0.723507 0.00302129 0.030518
0.931853 0.0528572 0.130205
0.957671 0.370138 0.46537
0.938888 0.746365 0.741955
0.934478 0.835111 0.808362
0.0416114 0.0975204 0.0404212
0.0416876 0.0974136 0.0404212
0.085069 0.0915389 0.0384833
0.288426 0.056733 0.0368353
0.743938 0.00910964 0.0273747
0.935409 0.0644999 0.140475
0.9561 0.397803 0.483146
0.938827 0.755856 0.748928
0.934234 0.837354 0.809949
0.00433356 0.245579 7.62951e-05
0.00419623 0.245945 6.10361e-05
0.0055848 0.248844 0
0.199847 0.226001 0
0.747585 0.132403 0.00582895
0.94023 0.146319 0.144228
0.95256 0.478538 0.515694
0.938766 0.776547 0.763012
0.933211 0.843778 0.814267
0 0.641398 0
0 0.641917 0
0 0.646708 0
0.010071 0.647761 0
0.571084 0.62179 0
0.913191 0.561379 0.0660716
0.944656 0.645914 0.506371
0.93817 0.799954 0.770886
0.932174 0.849989 0.817014
0 0.864622 0.011429
0 0.864744 0.0114748
0 0.86595 0.011902
0 0.866697 0.0120699
0.158434 0.870634 0.0121462
0.858671 0.849638 0.0235904
0.943893 0.828473 0.387335
0.935744 0.833783 0.748394
0.931395 0.855924 0.81178
0.0151369 0.928237 0.284245
0.015259 0.928283 0.284642
0.0165408 0.928649 0.288411
0.0214542 0.929015 0.289601
0.0976272 0.931304 0.288029
0.72163 0.907942 0.260502
0.919676 0.893263 0.34995
0.931548 0.875456 0.683436
0.928801 0.872892 0.792187
0.292744 0.938186 0.66186
0.293202 0.93817 0.662074
0.296742 0.937896 0.663401
0.301579 0.937804 0.662135
0.372519 0.934417 0.65536
0.683146 0.911238 0.626413
0.883253 0.897032 0.615305
0.92372 0.892012 0.664271
0.926802 0.886976 0.763867
0.670848 0.908339 0.760021
0.671016 0.908293 0.760067
0.671855 0.908141 0.760189
0.670558 0.908339 0.75935
0.68333 0.907118 0.756313
0.760739 0.900526 0.74699
0.868315 0.894514 0.738323
0.914885 0.891905 0.741802
0.925048 0.890944 0.757046
0.0419471 0.0560616 0.0919814
0.0420386 0.0560769 0.0919203
0.0977798 0.0482338 0.0983597
0.270481 0.036347 0.0757458
0.718486 0.00170901 0.0415808
0.930861 0.0502785 0.133104
0.95787 0.363638 0.462577
0.939055 0.744076 0.740368
0.934554 0.834714 0.808103
0.0419471 0.0561227 0.092134
0.0420691 0.0561532 0.0919661
0.096788 0.0484016 0.0978866
0.271412 0.0366674 0.0754711
0.719982 0.00187686 0.0416266
0.931167 0.0509957 0.13402
0.957763 0.365682 0.464103
0.93904 0.744854 0.740963
0.934554 0.834882 0.808179
0.0394751 0.0879683 0.0879225
0.0394446 0.0878614 0.0879988
0.078645 0.0839094 0.0849317
0.278569 0.0540932 0.0685435
0.735805 0.00790417 0.0399481
0.93434 0.061387 0.14345
0.956558 0.391028 0.480842
0.938949 0.753765 0.747585
0.934264 0.836942 0.809735
0.00505074 0.243046 0.00674449
0.00500496 0.243214 0.00683604
0.00833143 0.244099 0.00846876
0.199329 0.223255 0.00794995
0.739498 0.133562 0.010193
0.938994 0.144839 0.146395
0.952804 0.472206 0.511925
0.938781 0.775036 0.762005
0.933288 0.843503 0.814069
0 0.640497 0
0 0.640879 0
0 0.644099 0
0.0119631 0.645533 0
0.573953 0.622126 0
0.91194 0.564218 0.0667887
0.944808 0.645274 0.502037
0.93817 0.799069 0.769802
0.932174 0.84979 0.816831
0 0.864576 0.0116274
0 0.864668 0.0116732
0 0.865553 0.0121004
0 0.8663 0.0123445
0.169772 0.870787 0.0125124
0.859525 0.849928 0.0244144
0.943755 0.829114 0.385061
0.935744 0.83386 0.746914
0.931395 0.855894 0.811353
0.0148623 0.928191 0.284688
0.0149844 0.928237 0.285069
0.016434 0.928618 0.288869
0.0213626 0.929 0.289952
0.102647 0.931289 0.288701
0.726726 0.907515 0.262272
0.919738 0.893263 0.35227
0.931548 0.875547 0.68249
0.928801 0.872938 0.79176
0.291463 0.938186 0.661585
0.291859 0.938186 0.661753
0.292988 0.938033 0.661433
0.301503 0.937758 0.66212
0.375204 0.934127 0.655055
0.688197 0.91078 0.626276
0.883803 0.89688 0.616297
0.92372 0.892012 0.665049
0.926802 0.886976 0.763729
0.670085 0.908385 0.759945
0.670207 0.90837 0.759991
0.670008 0.9084 0.759823
0.670695 0.908339 0.759396
0.684001 0.907057 0.756344
0.762631 0.900359 0.746853
0.869215 0.894423 0.738476
0.915053 0.89189 0.742123
0.925017 0.890944 0.757305
0.0433661 0.065095 0.243702
0.0440375 0.0652323 0.243549
0.0700084 0.0662394 0.243458
0.26244 0.0338903 0.245563
0.717357 0 0.173342
0.929473 0.042359 0.201633
0.958434 0.355383 0.482048
0.939055 0.742489 0.741238
0.9346 0.834333 0.808057
0.0432441 0.0652628 0.245228
0.0439002 0.0653849 0.245014
0.0695811 0.0662547 0.244388
0.26334 0.0338445 0.246296
0.71841 0 0.174273
0.929717 0.0428321 0.202899
0.958373 0.357122 0.483436
0.93901 0.743175 0.741756
0.934585 0.834501 0.808148
0.0397345 0.0726329 0.260716
0.0400854 0.0726787 0.260273
0.0618753 0.0733349 0.253742
0.267796 0.0401312 0.251301
0.728313 0.000991836 0.182666
0.932219 0.0508888 0.215854
0.957198 0.378576 0.498512
0.938933 0.751156 0.747723
0.93431 0.8365 0.809522
0.00550851 0.213672 0.207065
0.00544747 0.213855 0.207309
0.00849927 0.214633 0.209537
0.189029 0.200946 0.198276
0.721935 0.109697 0.156054
0.936904 0.128893 0.223423
0.953353 0.457099 0.526452
0.938949 0.772 0.761456
0.933455 0.842802 0.813733
0 0.629908 0.0255436
0 0.630152 0.025742
0 0.631891 0.0280003
0.0155795 0.630655 0.0323796
0.576028 0.610498 0.0385748
0.910063 0.558709 0.129763
0.945052 0.638956 0.512978
0.938399 0.796841 0.768704
0.932403 0.849073 0.816449
0 0.863294 0.0222477
0 0.863386 0.0224613
0 0.864195 0.0248264
0 0.865385 0.0274968
0.187274 0.870115 0.0323949
0.860075 0.849409 0.0511482
0.943313 0.829389 0.400397
0.935821 0.833478 0.745281
0.931441 0.855406 0.810697
0.0140841 0.927993 0.297627
0.0141451 0.928023 0.298039
0.0151369 0.928389 0.302525
0.0213474 0.928969 0.307851
0.109331 0.931121 0.310002
0.733501 0.906691 0.286488
0.919356 0.892775 0.373495
0.93167 0.875883 0.682124
0.928801 0.872984 0.790784
0.284794 0.938308 0.661692
0.285084 0.938308 0.66183
0.289067 0.938231 0.663478
0.302602 0.937758 0.665415
0.380835 0.9337 0.659236
0.695033 0.909819 0.63064
0.884489 0.896574 0.622003
0.92369 0.891951 0.669093
0.926833 0.887007 0.76347
0.665293 0.908858 0.759533
0.665446 0.908858 0.759564
0.667079 0.90866 0.759777
0.645716 0.911086 0.755184
0.686305 0.906828 0.757214
0.765606 0.900114 0.748074
0.870344 0.89427 0.739879
0.915251 0.891829 0.74377
0.925017 0.890944 0.758358
0.0454719 0.109865 0.597253
0.0458381 0.109911 0.597192
0.054612 0.111223 0.597757
0.206546 0.105745 0.592447
0.696498 0.000503548 0.553857
0.919387 0.0116579 0.509728
0.961196 0.291005 0.598199
0.939422 0.726192 0.747509
0.93518 0.829709 0.807126
0.045243 0.11014 0.599207
0.0456245 0.110185 0.5991
0.0544594 0.111437 0.599115
0.207507 0.105562 0.5935
0.697612 0.00047303 0.554971
0.91957 0.0117494 0.511391
0.961166 0.292027 0.59939
0.939391 0.726696 0.74789
0.93518 0.829831 0.807218
0.0411994 0.114046 0.620417
0.0415961 0.114046 0.619989
0.0510414 0.114488 0.614801
0.214862 0.106493 0.603113
0.707469 0.000228885 0.566003
0.921202 0.0135958 0.528603
0.960616 0.30602 0.611963
0.939178 0.733394 0.752361
0.935088 0.831479 0.808484
0.0150912 0.160235 0.628122
0.0151827 0.160372 0.627802
0.0187686 0.161303 0.622232
0.152087 0.158053 0.598077
0.694011 0.0380255 0.565667
0.926253 0.0610361 0.549493
0.956405 0.37969 0.630732
0.938979 0.754849 0.763531
0.934112 0.837827 0.812314
0 0.564599 0.486122
0 0.565011 0.486595
0 0.567361 0.489876
0.0140078 0.567803 0.495811
0.56614 0.555077 0.502983
0.902296 0.501976 0.503807
0.946258 0.594766 0.618585
0.938827 0.782666 0.7691
0.933242 0.843915 0.814466
0 0.857786 0.327153
0 0.857877 0.328267
0 0.858366 0.340917
0 0.859037 0.357229
0.204028 0.862791 0.386465
0.855467 0.839536 0.406897
0.938872 0.822995 0.533333
0.9364 0.82919 0.745403
0.932113 0.851881 0.807446
0.0128786 0.927016 0.425238
0.0129091 0.927062 0.426062
0.0131685 0.92723 0.434485
0.0178683 0.927901 0.445274
0.113222 0.930205 0.458778
0.738857 0.901732 0.448417
0.915099 0.887984 0.503578
0.931273 0.875593 0.690501
0.928969 0.872816 0.785763
0.271153 0.938506 0.682322
0.271412 0.938491 0.682551
0.274479 0.938369 0.684825
0.289296 0.937697 0.687785
0.382712 0.933059 0.686381
0.701732 0.908049 0.661631
0.88452 0.895277 0.655619
0.922988 0.891096 0.691096
0.926955 0.887175 0.762371
0.657008 0.909545 0.762676
0.65713 0.909545 0.762722
0.658595 0.909468 0.76318
0.66424 0.908812 0.763836
0.68751 0.906615 0.762646
0.768566 0.89955 0.754406
0.871778 0.893965 0.747433
0.915282 0.89163 0.75111
0.924987 0.890761 0.763806
0.0367742 0.158129 0.87454
0.0369879 0.158129 0.87454
0.0409552 0.158465 0.874342
0.129992 0.157366 0.868711
0.656413 0.0236973 0.828275
0.894636 0 0.809644
0.959579 0.125353 0.798581
0.943282 0.652598 0.788907
0.937148 0.812665 0.811566
0.0366827 0.158267 0.875135
0.0368963 0.158267 0.87512
0.0408637 0.158556 0.87483
0.130724 0.156878 0.869108
0.658 0.0234379 0.828367
0.894896 0 0.809934
0.95964 0.12575 0.799084
0.943221 0.653178 0.789166
0.937148 0.812787 0.811704
0.0346075 0.159426 0.880964
0.0347906 0.159426 0.880858
0.0391241 0.159731 0.879667
0.135546 0.154299 0.872511
0.672236 0.0211948 0.82948
0.897276 0 0.812924
0.960174 0.132815 0.80444
0.942855 0.660899 0.791989
0.936904 0.814496 0.813092
0.0165408 0.167361 0.885771
0.0166171 0.167422 0.885634
0.0191653 0.167742 0.884169
0.0992752 0.17052 0.874311
0.655344 0.0382849 0.831403
0.899626 0.00244144 0.817609
0.961547 0.179049 0.813046
0.941375 0.68983 0.797131
0.935988 0.821988 0.816236
0 0.401709 0.805081
0 0.402411 0.804898
0 0.40911 0.802853
0.00210575 0.408377 0.80209
0.465507 0.382528 0.79913
0.891936 0.318807 0.810483
0.951797 0.43154 0.804639
0.939803 0.733547 0.800351
0.935241 0.829511 0.818372
0 0.829847 0.778759
0 0.829969 0.778881
0 0.831113 0.780392
0 0.83183 0.782147
0.156847 0.834699 0.787594
0.843015 0.812406 0.77348
0.929335 0.799558 0.770672
0.937133 0.813321 0.789395
0.933532 0.841993 0.812421
0.00926223 0.920348 0.747707
0.00926223 0.920394 0.748074
0.00944533 0.920562 0.752194
0.0107576 0.92108 0.756909
0.0943313 0.923171 0.76434
0.73637 0.889509 0.739895
0.906264 0.876768 0.74313
0.92929 0.871977 0.760983
0.929061 0.87097 0.793683
0.240986 0.938201 0.772747
0.241199 0.938201 0.773022
0.243549 0.938186 0.775586
0.256809 0.937728 0.778164
0.355856 0.932845 0.777127
0.70132 0.904799 0.752697
0.882551 0.891676 0.748058
0.921035 0.888563 0.75877
0.926482 0.886595 0.780392
0.642634 0.910552 0.786511
0.64271 0.910552 0.786603
0.643946 0.910506 0.787335
0.64976 0.909773 0.788144
0.677089 0.907057 0.787045
0.768383 0.899062 0.779965
0.87219 0.893294 0.775952
0.914794 0.890974 0.778119
0.924575 0.890425 0.785168
0.0263371 0.169421 0.939132
0.0264134 0.169421 0.939132
0.027985 0.169467 0.939055
0.0657511 0.173159 0.935225
0.629236 0.0402686 0.89134
0.894957 0 0.874372
0.941619 0.0135958 0.871962
0.956756 0.403311 0.860929
0.939757 0.763531 0.836759
0.0262303 0.169421 0.939223
0.0263218 0.169421 0.939223
0.0279088 0.169482 0.939147
0.0661326 0.17322 0.935256
0.631724 0.0397498 0.891112
0.895186 0 0.874418
0.941665 0.0136416 0.871992
0.956741 0.404028 0.861021
0.939757 0.763684 0.836851
0.0246891 0.169467 0.940627
0.0247654 0.169497 0.940597
0.0264439 0.16968 0.940169
0.0685435 0.173877 0.935683
0.655619 0.0348363 0.889296
0.897658 0 0.874983
0.942428 0.0142672 0.872724
0.956451 0.413977 0.861677
0.939879 0.766278 0.837888
0.0143587 0.170901 0.942672
0.0143893 0.170901 0.942641
0.0155642 0.171099 0.942229
0.0489815 0.173892 0.938537
0.638254 0.0415961 0.891447
0.897581 0 0.875456
0.94432 0.0195621 0.874968
0.954986 0.462135 0.862028
0.939254 0.779385 0.83949
0 0.258488 0.90988
0 0.258747 0.909789
0 0.261509 0.908904
0.00291447 0.259464 0.908827
0.332143 0.239292 0.881727
0.879683 0.115373 0.872831
0.951141 0.150439 0.879988
0.949828 0.561883 0.85803
0.938506 0.792081 0.841398
0 0.77966 0.842741
0 0.779965 0.842786
0 0.782498 0.843061
0 0.782925 0.843214
0.0724193 0.780255 0.845304
0.805722 0.766552 0.832319
0.9252 0.748852 0.844663
0.939269 0.77116 0.842756
0.936156 0.819181 0.839017
0.00225834 0.911452 0.86595
0.00227359 0.911498 0.865995
0.00241093 0.911772 0.866453
0.00325017 0.912459 0.867063
0.0433967 0.914946 0.870069
0.707927 0.884062 0.84036
0.903883 0.869718 0.828077
0.927932 0.865888 0.82649
0.929488 0.865309 0.827344
0.170031 0.939208 0.864027
0.170184 0.939208 0.864073
0.172076 0.939208 0.864729
0.182528 0.939178 0.8654
0.273213 0.935866 0.863081
0.681605 0.904067 0.832013
0.882231 0.888899 0.81915
0.919799 0.886015 0.819654
0.926085 0.884901 0.819501
0.603662 0.914107 0.834974
0.603723 0.914107 0.835065
0.604791 0.914092 0.83566
0.611292 0.913375 0.835706
0.645396 0.909667 0.833005
0.758633 0.899077 0.823026
0.871672 0.892622 0.817304
0.914183 0.890288 0.817563
0.923873 0.88954 0.818921
0.00962844 0.169863 0.953506
0.00962844 0.169863 0.953506
0.00994888 0.169909 0.953506
0.017319 0.170367 0.952758
0.392767 0.113985 0.922316
0.91516 0 0.886717
0.942702 0 0.886549
0.950683 0.038819 0.887266
0.948775 0.575036 0.869551
0.00958267 0.169863 0.953506
0.00958267 0.169863 0.953506
0.0099031 0.169909 0.953506
0.0173037 0.170367 0.952758
0.396857 0.109575 0.922759
0.915373 0 0.886717
0.942733 0 0.886549
0.950683 0.0387884 0.887266
0.948775 0.574914 0.869596
0.00872816 0.169863 0.953704
0.00872816 0.169863 0.953704
0.00917067 0.169863 0.953674
0.0168154 0.170367 0.95288
0.441337 0.0875715 0.92163
0.917739 0 0.886793
0.943145 0 0.886748
0.950576 0.0397345 0.887495
0.948623 0.57792 0.869657
0.00497444 0.169619 0.953948
0.00497444 0.169619 0.953948
0.00527962 0.169619 0.953948
0.0112612 0.170016 0.953307
0.422644 0.101366 0.920439
0.919738 0 0.886793
0.943374 0 0.886809
0.951354 0.0554513 0.888289
0.946883 0.608667 0.868284
0.000198367 0.193439 0.941588
0.000198367 0.193591 0.941512
0.000198367 0.194903 0.940963
0.000198367 0.193423 0.941588
0.181231 0.161044 0.931151
0.887724 0.0199893 0.886458
0.942763 0.0206607 0.88864
0.957702 0.139727 0.893034
0.94464 0.65539 0.866224
0 0.729549 0.849271
0 0.730053 0.849317
0 0.734813 0.84976
0 0.732692 0.849622
0.0139925 0.684825 0.849912
0.760525 0.638621 0.850141
0.931289 0.606561 0.871717
0.945205 0.656077 0.86862
0.939956 0.765484 0.859556
0 0.899779 0.882918
0 0.899855 0.882918
0 0.90042 0.883085
0 0.900984 0.883207
0.00918593 0.902312 0.88513
0.567605 0.885603 0.870634
0.900893 0.860685 0.848173
0.927611 0.858183 0.846693
0.930663 0.857389 0.846281
0.0746166 0.936919 0.891386
0.0747234 0.936919 0.891417
0.0750439 0.936843 0.891371
0.0829786 0.937316 0.891859
0.142184 0.937331 0.891997
0.613291 0.908766 0.863493
0.879896 0.886717 0.842008
0.919356 0.883986 0.840009
0.926207 0.882933 0.839567
0.509346 0.923293 0.869978
0.509514 0.923293 0.869978
0.511604 0.923186 0.869947
0.520912 0.922194 0.869184
0.570626 0.917388 0.864576
0.732052 0.901076 0.848386
0.870176 0.891981 0.839338
0.914107 0.88954 0.83743
0.92369 0.888701 0.837522
0.002533 0.169238 0.95433
0.002533 0.169238 0.95433
0.00257877 0.169238 0.95433
0.00343328 0.169268 0.954101
0.154391 0.144915 0.941268
0.93402 0 0.886976
0.946029 0 0.887175
0.946151 0 0.887007
0.954253 0.0639811 0.892836
0.002533 0.169238 0.95433
0.002533 0.169238 0.95433
0.00257877 0.169238 0.95433
0.00343328 0.169268 0.954101
0.155886 0.14464 0.9411
0.934203 0 0.886992
0.946029 0 0.887175
0.946136 0 0.887007
0.954269 0.0638743 0.892851
0.00250248 0.169177 0.95433
0.00250248 0.169192 0.95433
0.00250248 0.169223 0.95433
0.0033875 0.169268 0.954299
0.169451 0.142061 0.939803
0.935973 0 0.887022
0.946029 0 0.887175
0.94612 0 0.887007
0.954376 0.0640574 0.892989
0.0018616 0.169146 0.95433
0.00189212 0.169146 0.95433
0.00201419 0.169146 0.95433
0.00247196 0.169192 0.954299
0.171191 0.139467 0.939803
0.938415 0 0.887022
0.946029 0 0.887175
0.946303 0.000457771 0.887083
0.955688 0.0782788 0.893797
0.00117494 0.172885 0.952453
0.00117494 0.172915 0.952438
0.00117494 0.173098 0.952361
0.00120546 0.172854 0.952483
0.117144 0.150317 0.943313
0.919295 0.00199893 0.886641
0.944747 0.000946059 0.88716
0.948913 0.0164187 0.888853
0.960983 0.156847 0.897414
0 0.68806 0.848539
0 0.68925 0.848539
0 0.699809 0.848722
0 0.701015 0.848646
0 0.619974 0.850568
0.689632 0.377783 0.874372
0.941329 0.347036 0.889326
0.954604 0.444694 0.884825
0.948547 0.608652 0.874937
0 0.897627 0.884764
0 0.897627 0.884764
0 0.897902 0.884794
0 0.897505 0.884733
0.000381476 0.892989 0.883925
0.355413 0.885435 0.881514
0.89781 0.850355 0.854444
0.929076 0.847623 0.85304
0.931975 0.848737 0.852628
0.0191501 0.932815 0.89482
0.0192416 0.932815 0.89482
0.0201572 0.933013 0.894865
0.0234226 0.933318 0.895033
0.0535439 0.934585 0.896376
0.448707 0.919875 0.882017
0.870665 0.88513 0.848234
0.918791 0.881987 0.845777
0.92604 0.8813 0.845335
0.354543 0.934707 0.889342
0.354833 0.934707 0.889326
0.35816 0.934462 0.889082
0.370642 0.933593 0.888258
0.438071 0.928771 0.883406
0.681041 0.905699 0.860212
0.865232 0.891752 0.846418
0.913787 0.888777 0.843809
0.923522 0.888029 0.843336
