pic/松下lut/LUTs/Natural LUMIX.cube
TITLE "Generated by Resolve"
#LUMIXPHOTOSTYLE VLOG
LUT_3D_SIZE 9
0.0152895 0.0174868 0.017319
0.124071 0.0115663 0.0143282
0.384482 0.00700389 0.0140536
0.708919 0 0.0145266
1 0 0.029221
1 0 0.0529641
1 0 0.0529641
1 0 0.0529641
1 0 0.0529641
0.0150759 0.0492256 0.0189364
0.0223545 0.0319066 0.0217594
0.324498 0.0108797 0.0169985
0.679744 0 0.014313
1 0 0.0282902
1 0 0.0529641
1 0 0.0529641
1 0 0.0529641
1 0 0.0529641
0 0.191348 0.00347906
0 0.182116 0.00688182
0.105608 0.207446 0.00311284
0.587045 0.129442 0.0037232
1 0 0.0273289
1 0 0.0529641
1 0 0.0529641
1 0 0.0529641
1 0 0.0529641
0 0.338659 0
0 0.333196 0
0 0.326482 0
0.219211 0.429404 0
0.944839 0.385748 0.00628672
1 0.243076 0.0159152
1 0 0.0232853
1 0 0.0529641
1 0 0.0529641
0 0.575845 0
0 0.572976 0
0 0.569345 0
0 0.559503 0
0.422126 0.75172 0
1 0.735393 0.00891127
1 0.692576 0.0138857
1 0.665949 0.0141909
1 0.655589 0.0143587
0 0.785122 0
0 0.783337 0
0 0.781216 0
0 0.775296 0
0.0804608 0.74493 0.0416876
0.601343 1 0
1 1 0
1 0.987686 0
1 0.983139 0
0 0.870939 0
0 0.870939 0
0 0.870939 0
0 0.870939 0
0 0.870939 0
0.269215 1 0.0632486
0.703014 1 0
0.806287 1 0
0.813001 1 0
0 0.870939 0
0 0.870939 0
0 0.870939 0
0 0.870939 0
0 0.870939 0
0.236652 0.962722 0.0549783
0.551156 1 0
0.745663 1 0
0.745663 1 0
0 0.870939 0
0 0.870939 0
0 0.870939 0
0 0.870939 0
0 0.870939 0
0.225513 0.945342 0.0512703
0.513985 1 0
0.745663 1 0
0.745663 1 0
0.011841 0.018204 0.0359045
0.110857 0.0110475 0.0331884
0.380499 0.00553903 0.0371862
0.704417 0 0.0183719
1 0 0.0290684
1 0 0.0529641
1 0 0.0529641
1 0 0.0529641
1 0 0.0529641
0.0170596 0.033753 0.0208896
0.0152895 0.0174868 0.017319
0.312871 0.01149 0.0174258
0.674937 0 0.0143587
1 0 0.0281376
1 0 0.0529641
1 0 0.0529641
1 0 0.0529641
1 0 0.0529641
0 0.184085 0.00636301
0 0.174197 0.00920119
0.104234 0.194049 0.00299077
0.583429 0.111376 0.00373846
1 0 0.0271458
1 0 0.0529641
1 0 0.0529641
1 0 0.0529641
1 0 0.0529641
0 0.334279 0
0 0.328847 0
0 0.322148 0
0.219318 0.423041 0
0.942168 0.376974 0.00598154
1 0.229252 0.0155337
1 0 0.0529641
1 0 0.0529641
1 0 0.0529641
0 0.573465 0
0 0.570642 0
0 0.566949 0
0 0.557107 0
0.421195 0.748257 0
1 0.731701 0.00906386
1 0.688579 0.0141146
1 0.661295 0.0142214
1 0.650965 0.014313
0 0.783688 0
0 0.781888 0
0 0.779843 0
0 0.773968 0
0.0780957 0.742718 0.0414282
0.60087 1 0
1 0.998169 0
1 0.985687 0
1 0.981155 0
0 0.870939 0
0 0.870939 0
0 0.870939 0
0 0.870939 0
0 0.870939 0
0.268299 1 0.0631266
0.702724 1 0
0.809125 1 0
0.815808 1 0
0 0.870939 0
0 0.870939 0
0 0.870939 0
0 0.870939 0
0 0.870939 0
0.235782 0.961257 0.0547341
0.547814 1 0
0.745663 1 0
0.745663 1 0
0 0.870939 0
0 0.870939 0
0 0.870939 0
0 0.870939 0
0 0.870939 0
0.224491 0.943832 0.0509346
0.510903 1 0
0.745663 1 0
0.745663 1 0
0 0.0214847 0.216678
0.0892195 0.0108034 0.216541
0.373465 0.00791943 0.153231
0.681605 0 0.209354
1 0 0.252308
1 0 0.250553
1 0 0.203693
1 0 0.178271
1 0 0.168627
0 0.0217746 0.200748
0 0.0212253 0.198413
0.306813 0.00907912 0.200931
0.65388 0 0.199359
1 0 0.229953
1 0 0.224079
1 0 0.172366
1 0 0.144183
1 0 0.132296
0 0.225711 0.141955
0 0.209857 0.145968
0.161669 0.167773 0.16289
0.584772 0.0854963 0.167758
1 0 0.199786
1 0 0.186877
1 0 0.127337
1 0 0.0841688
1 0 0.0765545
0 0.368215 0.0356451
0 0.360952 0.0331273
0 0.352331 0.0304112
0.257649 0.418158 0.0411994
0.936538 0.365469 0.065568
1 0.211627 0.0270237
1 0 0.0529641
1 0 0.0529641
1 0 0.0529641
0 0.570703 0
0 0.567697 0
0 0.564111 0
0 0.554009 0
0.42034 0.743984 0
1 0.72726 0.0096437
1 0.683406 0.0140383
1 0.655833 0.0143435
1 0.645197 0.0144656
0 0.781933 0
0 0.780285 0
0 0.778073 0
0 0.772183 0
0.0751812 0.740139 0.0411994
0.600336 1 0
1 0.995743 0
1 0.983246 0
1 0.978714 0
0 0.870939 0
0 0.870939 0
0 0.870939 0
0 0.870939 0
0 0.870939 0
0.26714 1 0.0629892
0.70222 1 0
0.812772 1 0
0.819501 1 0
0 0.870939 0
0 0.870939 0
0 0.870939 0
0 0.870939 0
0 0.870939 0
0.234699 0.959396 0.0543832
0.543786 1 0
0.745663 1 0
0.745663 1 0
0 0.870939 0
0 0.870939 0
0 0.870939 0
0 0.870939 0
0 0.870939 0
0.223194 0.94197 0.0505379
0.507088 1 0
0.745663 1 0
0.745663 1 0
0 0.0252995 0.46276
0 0.0223087 0.474144
0.3084 0 0.518822
0.673548 0 0.504219
1 0 0.232685
1 0 0.420768
1 0 0.433097
1 0 0.438437
1 0 0.44036
0 0.0251926 0.45597
0 0.0251774 0.454917
0.240543 0.00671397 0.512428
0.639063 0 0.503243
1 0 0.228397
1 0 0.428367
1 0 0.439643
1 0 0.444312
1 0 0.44596
0 0.237613 0.374197
0 0.210773 0.388266
0.0713817 0.124681 0.457679
0.59472 0.00364691 0.491966
1 0 0.223499
1 0 0.436805
1 0 0.446357
1 0 0.449943
1 0 0.451011
0 0.509316 0.36585
0 0.501381 0.36846
0 0.491325 0.372244
0.40734 0.419333 0.404089
0.92903 0.338293 0.422446
1 0.15288 0.454063
1 0 0.456245
1 0 0.456687
1 0 0.456626
0 0.758984 0.237949
0 0.755047 0.236576
0 0.75024 0.234867
0 0.736751 0.230137
0.512627 0.702068 0.219013
1 0.724254 0.309865
1 0.6701 0.294957
1 0.640162 0.286549
1 0.628794 0.283482
0 0.849561 0.0887617
0 0.84651 0.0867781
0 0.842557 0.0841688
0 0.832212 0.0774853
0.120928 0.716197 0.118379
0.633692 0.993835 0.0138247
1 0.986999 0.0179904
1 0.975174 0.0105287
1 0.970825 0.00762951
0 0.870939 0
0 0.870939 0
0 0.870939 0
0 0.870939 0
0 0.870939 0
0.263722 1 0.0626535
0.701106 1 0
0.822461 1 0
0.828992 1 0
0 0.870939 0
0 0.870939 0
0 0.870939 0
0 0.870939 0
0 0.870939 0
0.231418 0.954269 0.0532692
0.533074 1 0
0.745663 1 0
0.745663 1 0
0 0.870939 0
0 0.870939 0
0 0.870939 0
0 0.870939 0
0 0.870939 0
0.21973 0.937148 0.0495003
0.49688 1 0
0.745663 1 0
0.745663 1 0
0 0.0372015 0.821805
0 0.037171 0.821118
0.208179 0 0.843
0.629267 0 0.853346
1 0 0.880644
1 0 0.518883
1 0 0.50634
1 0 0.500206
1 0 0.497963
0 0.0370336 0.817807
0 0.0370031 0.817105
0.0992599 0.0106355 0.837201
0.596506 0 0.847547
1 0 0.876997
1 0 0.511437
1 0 0.498848
1 0 0.492607
1 0 0.490364
0 0.0469673 0.814847
0 0.0368048 0.811948
0 0.0367742 0.811246
0.552041 0 0.840299
1 0 0.87158
1 0 0.50222
1 0 0.48957
1 0 0.483436
1 0.000213626 0.481132
0 0.534142 0.607691
0 0.52575 0.604181
0 0.514885 0.600931
0.305592 0.37293 0.767788
0.905959 0.255512 0.770825
1 0 0.492058
1 0.00187686 0.465507
1 0.00251774 0.459968
1 0.00273136 0.457984
0 0.878553 0.66891
0 0.874281 0.669734
0 0.869184 0.670909
0 0.854582 0.674022
0.726375 0.744442 0.703304
1 0.693385 0.734798
1 0.635569 0.7393
1 0.60264 0.738247
1 0.58996 0.737881
0 1 0.553475
0 1 0.552789
0 1 0.552178
0 1 0.550088
0.257038 0.954421 0.513588
0.77467 0.938231 0.50045
1 1 0.638437
1 0.997345 0.637736
1 0.993194 0.637095
0 1 0.484565
0 1 0.483635
0 1 0.482551
0 1 0.479606
0 1 0.472648
0.442252 0.821851 0.393011
0.843259 1 0.43769
0.998749 1 0.440452
1 1 0.440909
0 1 0.457374
0 1 0.456596
0 1 0.455558
0 1 0.452522
0 1 0.445335
0.393027 0.824247 0.372045
0.653025 1 0.448127
0.880842 1 0.397879
0.880461 1 0.396139
0 1 0.447532
0 1 0.446586
0 1 0.445426
0 1 0.442512
0 1 0.435203
0.376486 0.821469 0.362661
0.622766 1 0.440772
0.877256 1 0.386648
0.877562 1 0.384634
0 0.0452125 1
0 0.0452125 1
0 0.0411383 1
0.566979 0 1
1 0 1
1 0 1
1 0 1
1 0 1
1 0 1
0 0.0451514 1
0 0.0451362 1
0 0.0451209 1
0.527504 0 1
1 0 1
1 0 1
1 0 1
1 0 1
1 0 1
0 0.0450752 1
0 0.0450599 1
0 0.0450446 1
0.47335 0 1
0.992706 0 1
1 0 1
1 0 1
1 0 1
1 0 1
0 0.467353 0.888685
0 0.445869 0.901534
0 0.419104 0.91603
0.173419 0.253544 1
0.89543 0.0405585 1
1 0 1
1 0 1
1 0 1
1 0 1
0 0.883665 0.95964
0 0.879683 0.956268
0 0.874495 0.951812
0 0.860761 0.939467
0.665782 0.719951 1
1 0.639323 1
1 0.587762 0.856123
1 0.546273 0.86659
1 0.530175 0.871656
0 1 0.920394
0 1 0.921157
0 1 0.921798
0 1 0.923919
0.0409705 1 0.923049
0.979675 1 0.947555
1 0.992004 0.969802
1 0.976532 0.969192
1 0.971069 0.967819
0 1 0.841779
0 1 0.841367
0 1 0.840772
0 1 0.839582
0 1 0.837888
0.674617 0.989334 0.732815
1 1 0.829297
1 1 0.87248
1 1 0.876585
0 1 0.828016
0 1 0.827573
0 1 0.82707
0 1 0.825528
0 1 0.821942
0.602228 1 0.71664
0.784024 0.995819 0.721508
1 1 0.764019
1 1 0.763165
0 1 0.823011
0 1 0.822538
0 1 0.821973
0 1 0.820523
0 1 0.816892
0.592218 1 0.732464
0.761288 0.977768 0.704738
0.960555 1 0.759243
1 1 0.756024
0 0.0498512 1
0 0.049836 1
0 0.0498054 1
0.505638 0 1
1 0 1
1 0 1
1 0 1
1 0 1
1 0 1
0 0.0497444 1
0 0.0497292 1
0 0.0497139 1
0.458701 0 1
0.98996 0 1
1 0 1
1 0 1
1 0 1
1 0 1
0 0.0496223 1
0 0.0496071 1
0 0.0495918 1
0.394263 0 1
0.969757 0 1
1 0 1
1 0 1
1 0 1
1 0 1
0 0.286961 1
0 0.259022 1
0 0.218601 1
0.0803845 0.0805219 1
0.911299 0 1
1 0 1
1 0 1
1 0 1
1 0 1
0 0.901991 0.991073
0 0.898009 0.987671
0 0.89276 0.983322
0 0.878508 0.97232
0.611795 0.680873 1
1 0.588327 1
1 0.511345 1
1 0.466316 1
1 0.448981 1
0 1 1
0 1 1
0 1 1
0 1 1
0 1 1
0.979004 1 1
1 0.969039 1
1 0.951797 1
1 0.945602 1
0 1 1
0 1 1
0 1 1
0 1 1
0 1 1
0.745129 1 1
1 1 1
1 1 1
1 1 1
0 1 1
0 1 1
0 1 1
0 1 1
0 1 1
0.661723 1 1
1 1 1
1 1 1
1 1 1
0 1 1
0 1 1
0 1 1
0 1 1
0 1 1
0.618433 1 1
1 1 1
1 1 1
1 1 1
0 0.0500954 1
0 0.0500954 1
0 0.0500954 1
0.468925 0 1
0.993606 0 1
1 0 1
1 0 1
1 0 1
1 0 1
0 0.0500954 1
0 0.0500954 1
0 0.0500954 1
0.417762 0 1
0.97702 0 1
1 0 1
1 0 1
1 0 1
1 0 1
0 0.0500954 1
0 0.0500954 1
0 0.0500954 1
0.348302 0 1
0.956512 0 1
1 0 1
1 0 1
1 0 1
1 0 1
0 0.160143 1
0 0.126238 1
0 0.0859083 1
0.00132753 0.0260624 1
0.896788 0 1
1 0 1
1 0 1
1 0 1
1 0 1
0 0.894392 0.992798
0 0.88986 0.99028
0 0.884535 0.987137
0 0.869383 0.979217
0.588373 0.657038 1
1 0.559152 1
1 0.477363 1
1 0.428809 1
1 0.409979 1
0 1 1
0 1 1
0 1 1
0 1 1
0 1 1
0.960555 0.99968 1
1 0.952941 1
1 0.936568 1
1 0.930571 1
0 1 1
0 1 1
0 1 1
0 1 1
0 1 1
0.675029 1 1
1 1 1
1 1 1
1 1 1
0 1 1
0 1 1
0 1 1
0 1 1
0 1 1
0.593164 1 1
1 1 1
1 1 1
1 1 1
0 1 1
0 1 1
0 1 1
0 1 1
0 1 1
0.541115 1 1
1 1 1
1 1 1
1 1 1
0 0.0500954 1
0 0.0500954 1
0 0.0500954 1
0.454475 0 1
0.988861 0 1
1 0 1
1 0 1
1 0 1
1 0 1
0 0.0500954 1
0 0.0500954 1
0 0.0500954 1
0.402075 0 1
0.972412 0 1
1 0 1
1 0 1
1 0 1
1 0 1
0 0.0500954 1
0 0.0500954 1
0 0.0500954 1
0.330251 0 1
0.951446 0 1
1 0 1
1 0 1
1 0 1
1 0 1
0 0.113069 1
0 0.0793774 1
0 0.0521859 1
0 0.0340581 1
0.891234 0 1
1 0 1
1 0 1
1 0 1
1 0 1
0 0.887877 0.989044
0 0.883497 0.986511
0 0.877989 0.983597
0 0.862333 0.976074
0.581415 0.647425 1
1 0.547707 1
1 0.463767 1
1 0.41384 1
1 0.39411 1
0 1 1
0 1 1
0 1 1
0 1 1
0 1 1
0.957031 0.995117 1
1 0.948211 1
1 0.931792 1
1 0.925704 1
0 1 1
0 1 1
0 1 1
0 1 1
0 1 1
0.665537 1 1
1 1 1
1 1 1
1 1 1
0 1 1
0 1 1
0 1 1
0 1 1
0 1 1
0.571054 1 1
1 1 1
1 1 1
1 1 1
0 1 1
0 1 1
0 1 1
0 1 1
0 1 1
0.514153 1 1
1 1 1
1 1 1
1 1 1
