pic/松下lut/LUTs/Natural LUMIX.cube
TITLE "Generated by Resolve"
#LUMIXPHOTOSTYLE VLOG
LUT_3D_SIZE 5
0.0152895 0.0174868 0.017319
0.384482 0.00700389 0.0140536
1 0 0.029221
1 0 0.0529641
1 0 0.0529641
0 0.191348 0.00347906
0.105608 0.207446 0.00311284
1 0 0.0273289
1 0 0.0529641
1 0 0.0529641
0 0.575845 0
0 0.569345 0
0.422126 0.75172 0
1 0.692576 0.0138857
1 0.655589 0.0143587
0 0.870939 0
0 0.870939 0
0 0.870939 0
0.703014 1 0
0.813001 1 0
0 0.870939 0
0 0.870939 0
0 0.870939 0
0.513985 1 0
0.745663 1 0
0 0.0214847 0.216678
0.373465 0.00791943 0.153231
1 0 0.252308
1 0 0.203693
1 0 0.168627
0 0.225711 0.141955
0.161669 0.167773 0.16289
1 0 0.199786
1 0 0.127337
1 0 0.0765545
0 0.570703 0
0 0.564111 0
0.42034 0.743984 0
1 0.683406 0.0140383
1 0.645197 0.0144656
0 0.870939 0
0 0.870939 0
0 0.870939 0
0.70222 1 0
0.819501 1 0
0 0.870939 0
0 0.870939 0
0 0.870939 0
0.507088 1 0
0.745663 1 0
0 0.0372015 0.821805
0.208179 0 0.843
1 0 0.880644
1 0 0.50634
1 0 0.497963
0 0.0469673 0.814847
0 0.0367742 0.811246
1 0 0.87158
1 0 0.48957
1 0.000213626 0.481132
0 0.878553 0.66891
0 0.869184 0.670909
0.726375 0.744442 0.703304
1 0.635569 0.7393
1 0.58996 0.737881
0 1 0.484565
0 1 0.482551
0 1 0.472648
0.843259 1 0.43769
1 1 0.440909
0 1 0.447532
0 1 0.445426
0 1 0.435203
0.622766 1 0.440772
0.877562 1 0.384634
0 0.0498512 1
0 0.0498054 1
1 0 1
1 0 1
1 0 1
0 0.0496223 1
0 0.0495918 1
0.969757 0 1
1 0 1
1 0 1
0 0.901991 0.991073
0 0.89276 0.983322
0.611795 0.680873 1
1 0.511345 1
1 0.448981 1
0 1 1
0 1 1
0 1 1
1 1 1
1 1 1
0 1 1
0 1 1
0 1 1
1 1 1
1 1 1
0 0.0500954 1
0 0.0500954 1
0.988861 0 1
1 0 1
1 0 1
0 0.0500954 1
0 0.0500954 1
0.951446 0 1
1 0 1
1 0 1
0 0.887877 0.989044
0 0.877989 0.983597
0.581415 0.647425 1
1 0.463767 1
1 0.39411 1
0 1 1
0 1 1
0 1 1
1 1 1
1 1 1
0 1 1
0 1 1
0 1 1
1 1 1
1 1 1
