pic/松下lut/LUTs/Natural LUMIX.cube
TITLE "Generated by Resolve"
#LUMIXPHOTOSTYLE VLOG
LUT_3D_SIZE 33
0.0152895 0.0174868 0.017319
0.0152895 0.0174868 0.017319
0.0152895 0.0174868 0.017319
0.0658885 0.0130312 0.0145724
0.124071 0.0115663 0.0143282
0.184466 0.0102541 0.0140993
0.248493 0.0107424 0.0157168
0.320272 0.0110933 0.0171511
0.384482 0.00700389 0.0140536
0.453193 0 0.023209
0.52958 0 0.0192416
0.6168 0 0.0151217
0.708919 0 0.0145266
0.806226 0 0.0158541
0.905577 0 0.0188754
1 0 0.0236973
1 0 0.029221
1 0 0.0357366
1 0 0.0430152
1 0 0.05037
1 0 0.0529641
1 0 0.0529641
1 0 0.0529641
1 0 0.0529641
1 0 0.0529641
1 0 0.0529641
1 0 0.0529641
1 0 0.0529641
1 0 0.0529641
1 0 0.0529641
1 0 0.0529641
1 0 0.0529641
1 0 0.0529641
0.0152895 0.0174868 0.017319
0.0152895 0.0174868 0.017319
0.0152895 0.0174868 0.017319
0.0343633 0.0169833 0.0174411
0.104204 0.0112154 0.013611
0.161852 0.010956 0.0144045
0.222583 0.00975052 0.0142672
0.302007 0.0117952 0.0175631
0.371359 0.00798047 0.0148165
0.442481 0.000579843 0.0234226
0.519585 0 0.0198367
0.608637 0 0.0153658
0.702052 0 0.0145418
0.800412 0 0.0157015
0.900816 0 0.018677
1 0 0.0234531
1 0 0.0289921
1 0 0.0354925
1 0 0.0427558
1 0 0.0501106
1 0 0.0529641
1 0 0.0529641
1 0 0.0529641
1 0 0.0529641
1 0 0.0529641
1 0 0.0529641
1 0 0.0529641
1 0 0.0529641
1 0 0.0529641
1 0 0.0529641
1 0 0.0529641
1 0 0.0529641
1 0 0.0529641
0.0152895 0.0174868 0.017319
0.0152895 0.0174868 0.017319
0.0152895 0.0174868 0.017319
0.0155489 0.0174868 0.01738
0.0842451 0.0113985 0.0134279
0.138811 0.0115206 0.0145418
0.199481 0.0099031 0.014023
0.281529 0.0121157 0.0175784
0.357183 0.00898756 0.0155947
0.431632 0.00157168 0.0236973
0.509361 0 0.0205844
0.600305 0 0.0156863
0.69485 0 0.014435
0.794507 0 0.0155642
0.895933 0 0.0184482
0.997482 0 0.023209
1 0 0.028748
1 0 0.0352331
1 0 0.0425116
1 0 0.0498665
1 0 0.0529641
1 0 0.0529641
1 0 0.0529641
1 0 0.0529641
1 0 0.0529641
1 0 0.0529641
1 0 0.0529641
1 0 0.0529641
1 0 0.0529641
1 0 0.0529641
1 0 0.0529641
1 0 0.0529641
1 0 0.0529641
0.0152895 0.0174868 0.017319
0.0152895 0.0174868 0.017319
0.0152895 0.0174868 0.017319
0.0152895 0.0174868 0.017319
0.0506294 0.0155489 0.0165103
0.116884 0.011429 0.0140536
0.17641 0.0104829 0.0141909
0.256641 0.01149 0.0165713
0.341634 0.00988785 0.0162509
0.420233 0.00242618 0.0238499
0.49897 0 0.0211643
0.591348 0 0.0160678
0.68748 0 0.0143587
0.788464 0 0.0154421
0.890135 0 0.0183413
0.99324 0 0.0229953
1 0 0.0285344
1 0 0.0350195
1 0 0.0422522
1 0 0.0496681
1 0 0.0529641
1 0 0.0529641
1 0 0.0529641
1 0 0.0529641
1 0 0.0529641
1 0 0.0529641
1 0 0.0529641
1 0 0.0529641
1 0 0.0529641
1 0 0.0529641
1 0 0.0529641
1 0 0.0529641
1 0 0.0529641
0.0150759 0.0492256 0.0189364
0.0166629 0.0438392 0.0199588
0.0172427 0.0389868 0.0201267
0.0173648 0.0344091 0.0198978
0.0223545 0.0319066 0.0217594
0.0963912 0.0216983 0.0128328
0.154421 0.0174868 0.0146639
0.226932 0.00976577 0.0143587
0.324498 0.0108797 0.0169985
0.40824 0.00337224 0.0240635
0.488106 0 0.0218204
0.582071 0 0.016434
0.679744 0 0.014313
0.7823 0 0.0153506
0.885054 0 0.0181125
0.988891 0 0.0227359
1 0 0.0282902
1 0 0.0347753
1 0 0.0420539
1 0 0.049424
1 0 0.0529641
1 0 0.0529641
1 0 0.0529641
1 0 0.0529641
1 0 0.0529641
1 0 0.0529641
1 0 0.0529641
1 0 0.0529641
1 0 0.0529641
1 0 0.0529641
1 0 0.0529641
1 0 0.0529641
1 0 0.0529641
0.0212711 0.0991073 0.0285191
0.0210422 0.0947585 0.0279545
0.0202182 0.0900282 0.0268406
0.0188144 0.084535 0.0251164
0.0162051 0.0776837 0.0222171
0.0429999 0.0842756 0.0208133
0.13109 0.0732433 0.0128786
0.212573 0.0613413 0.0132753
0.307362 0.0423133 0.0145724
0.392447 0.024155 0.0120089
0.473671 0.00445563 0.0111543
0.572824 0 0.0169528
0.672099 0 0.0144503
0.776059 0 0.0152285
0.879973 0 0.0179141
0.984543 0 0.0225071
1 0 0.0280308
1 0 0.0345159
1 0 0.0417945
1 0 0.0493477
1 0 0.0529641
1 0 0.0529641
1 0 0.0529641
1 0 0.0529641
1 0 0.0529641
1 0 0.0529641
1 0 0.0529641
1 0 0.0529641
1 0 0.0529641
1 0 0.0529641
1 0 0.0529641
1 0 0.0529641
1 0 0.0529641
0.0134279 0.129992 0.0239872
0.0150912 0.126589 0.0252079
0.0166476 0.123049 0.0263066
0.0180209 0.11928 0.0272374
0.0192721 0.115282 0.0280461
0.0361944 0.111818 0.0373083
0.0612802 0.118105 0.0179294
0.174655 0.101701 0.00801099
0.256367 0.0883497 0.00321965
0.342306 0.0717479 0.000793469
0.432395 0.0513771 0.000869764
0.551507 0.018677 0.00282292
0.658396 0 0
0.769924 0 0.0152743
0.874937 0 0.0177462
0.980148 0 0.0222477
1 0 0.0277867
1 0 0.0342565
1 0 0.0415351
1 0 0.0491646
1 0 0.0529641
1 0 0.0529641
1 0 0.0529641
1 0 0.0529641
1 0 0.0529641
1 0 0.0529641
1 0 0.0529641
1 0 0.0529641
1 0 0.0529641
1 0 0.0529641
1 0 0.0529641
1 0 0.0529641
1 0 0.0529641
0 0.159564 0.013901
0.000518807 0.156619 0.014725
0.00187686 0.153536 0.015671
0.00321965 0.150469 0.0165866
0.00456245 0.14725 0.0174716
0.00650034 0.144183 0.0187991
0.0480049 0.1458 0.0414893
0.0809339 0.159976 0.0128481
0.226612 0.138964 0.00262455
0.320424 0.125582 0.00131228
0.412177 0.107851 0.00177005
0.503395 0.0845502 0.0027924
0.610574 0.0522011 0
0.751583 0 0
0.868788 0 0.0176242
0.974945 0 0.0220798
1 0 0.0274968
1 0 0.0339361
1 0 0.0412451
1 0 0.0488441
1 0 0.0529641
1 0 0.0529641
1 0 0.0529641
1 0 0.0529641
1 0 0.0529641
1 0 0.0529641
1 0 0.0529641
1 0 0.0529641
1 0 0.0529641
1 0 0.0529641
1 0 0.0529641
1 0 0.0529641
1 0 0.0529641
0 0.191348 0.00347906
0 0.18912 0.00437934
0 0.186877 0.00515755
0 0.184619 0.00616464
0 0.182116 0.00688182
0 0.179721 0.00793469
0.00808728 0.178592 0.0173037
0.0561685 0.186542 0.0438849
0.105608 0.207446 0.00311284
0.281819 0.185382 0
0.388403 0.172824 0
0.485847 0.154482 0.00163272
0.587045 0.129442 0.0037232
0.695003 0.0923629 0.00172427
0.81384 0.0389715 0
0.958709 0 0
1 0 0.0273289
1 0 0.0335088
1 0 0.0410163
1 0 0.0484169
1 0 0.0529641
1 0 0.0529641
1 0 0.0529641
1 0 0.0529641
1 0 0.0529641
1 0 0.0529641
1 0 0.0529641
1 0 0.0529641
1 0 0.0529641
1 0 0.0529641
1 0 0.0529641
1 0 0.0529641
1 0 0.0529641
0 0.222171 0
0 0.220691 0
0 0.218997 0
0 0.217273 0
0 0.215518 0
0 0.213825 0
0 0.211994 0
0.0151217 0.212528 0.0196536
0.0645304 0.228275 0.0406195
0.130999 0.258015 0
0.338323 0.236988 0
0.461021 0.226322 0
0.568704 0.207431 0.00285344
0.675227 0.181598 0.00296025
0.784054 0.145769 0.0027924
0.894697 0.0936599 0.00289921
1 0.0151827 0.00485237
1 0 0.0331884
1 0 0.040528
1 0 0.0478981
1 0 0.0529641
1 0 0.0529641
1 0 0.0529641
1 0 0.0529641
1 0 0.0529641
1 0 0.0529641
1 0 0.0529641
1 0 0.0529641
1 0 0.0529641
1 0 0.0529641
1 0 0.0529641
1 0 0.0529641
1 0 0.0529641
0 0.252491 0
0 0.251225 0
0 0.249912 0
0 0.248585 0
0 0.247395 0
0 0.245991 0
0 0.244633 0
0 0.242924 0
0.0149233 0.247028 0.0172885
0.068925 0.269123 0.0322881
0.157824 0.310918 0
0.394308 0.293782 0
0.541192 0.28603 0.00138857
0.65597 0.268009 0.00300603
0.766766 0.242145 0.0033875
0.874449 0.208072 0.00436408
0.979889 0.162524 0.00579843
1 0.0959487 0.00668345
1 0.000183108 0.0192569
1 0 0.0471809
1 0 0.0529641
1 0 0.0529641
1 0 0.0529641
1 0 0.0529641
1 0 0.0529641
1 0 0.0529641
1 0 0.0529641
1 0 0.0529641
1 0 0.0529641
1 0 0.0529641
1 0 0.0529641
1 0 0.0529641
1 0 0.0529641
0 0.28835 0
0 0.287037 0
0 0.285634 0
0 0.284184 0
0 0.28275 0
0 0.281331 0
0 0.280095 0
0 0.278401 0
0 0.276204 0
0.0167849 0.281575 0.0152438
0.0723583 0.310872 0.0241093
0.187213 0.366705 0
0.456565 0.355261 0
0.625254 0.35053 0.0027924
0.745205 0.334493 0.00331121
0.856519 0.309651 0.00384527
0.961776 0.278019 0.0052491
1 0.238819 0.00793469
1 0.18912 0.0103914
1 0.123598 0.0125277
1 0.028336 0.0180972
1 0 0.0529641
1 0 0.0529641
1 0 0.0529641
1 0 0.0529641
1 0 0.0529641
1 0 0.0529641
1 0 0.0529641
1 0 0.0529641
1 0 0.0529641
1 0 0.0529641
1 0 0.0529641
1 0 0.0529641
0 0.338659 0
0 0.337346 0
0 0.335973 0
0 0.334569 0
0 0.333196 0
0 0.33193 0
0 0.330495 0
0 0.328756 0
0 0.326482 0
0 0.321294 0
0.0225681 0.317632 0.0149386
0.079942 0.35668 0.0220493
0.219211 0.429404 0
0.525704 0.424018 0
0.707866 0.421302 0.00166323
0.83505 0.408392 0.00503548
0.944839 0.385748 0.00628672
1 0.357397 0.00801099
1 0.324926 0.0104219
1 0.287007 0.0131685
1 0.243076 0.0159152
1 0.187961 0.015198
1 0.126238 0.0148318
1 0.0548409 0.0149233
1 0 0.0232853
1 0 0.0529641
1 0 0.0529641
1 0 0.0529641
1 0 0.0529641
1 0 0.0529641
1 0 0.0529641
1 0 0.0529641
1 0 0.0529641
0 0.393454 0
0 0.392325 0
0 0.391165 0
0 0.38999 0
0 0.3888 0
0 0.38761 0
0 0.386465 0
0 0.385092 0
0 0.383185 0
0 0.380591 0
0 0.365667 0
0.0373693 0.368063 0.0209964
0.0988785 0.420233 0.0302586
0.263554 0.506966 0
0.58706 0.503151 0
0.786221 0.502068 0
0.919387 0.492195 0.00747692
1 0.472877 0.0101015
1 0.448371 0.0127871
1 0.421225 0.0156252
1 0.392645 0.0187686
1 0.358633 0.0184787
1 0.323781 0.0173953
1 0.289921 0.0168307
1 0.258274 0.0159915
1 0.229877 0.0157015
1 0.204746 0.0154421
1 0.183459 0.0150149
1 0.165896 0.0151369
1 0.151385 0.0149691
1 0.139605 0.0149996
1 0.130312 0.0149844
1 0.122805 0.0148318
0 0.452415 0
0 0.451377 0
0 0.450355 0
0 0.449302 0
0 0.448218 0
0 0.447288 0
0 0.446311 0
0 0.445014 0
0 0.44329 0
0 0.441047 0
0 0.438224 0
0 0.417853 0
0.0576791 0.430198 0.0273442
0.123964 0.50135 0.0358434
0.314443 0.591012 0
0.642756 0.587152 0
0.854505 0.586114 0
0.995178 0.578439 0.00755322
1 0.56466 0.0112612
1 0.545419 0.0133822
1 0.523735 0.0158083
1 0.499657 0.0176394
1 0.474815 0.0184634
1 0.451835 0.019028
1 0.43125 0.0194247
1 0.413397 0.0194247
1 0.398733 0.0194247
1 0.386526 0.0192569
1 0.376761 0.0189822
1 0.369024 0.0186923
1 0.363226 0.0187228
1 0.358602 0.0184482
1 0.355062 0.0183566
0 0.514534 0
0 0.513649 0
0 0.512749 0
0 0.511894 0
0 0.510979 0
0 0.510033 0
0 0.509117 0
0 0.50808 0
0 0.506737 0
0 0.504768 0
0 0.502205 0
0 0.499031 0
0.00549325 0.475731 0.0103609
0.0834058 0.499245 0.0294652
0.154513 0.591485 0.037995
0.367681 0.672816 0
0.691341 0.668711 0
0.912108 0.666682 0
1 0.661143 0.0043183
1 0.652232 0.0114443
1 0.639673 0.0134279
1 0.623941 0.0145571
1 0.606012 0.014725
1 0.589242 0.0147097
1 0.574502 0.0151827
1 0.561898 0.0153964
1 0.551354 0.0157931
1 0.542611 0.0159304
1 0.535943 0.0162356
1 0.530541 0.0162661
1 0.526543 0.0166781
1 0.5234 0.0166476
1 0.520958 0.0166934
0 0.575845 0
0 0.575113 0
0 0.574365 0
0 0.573617 0
0 0.572976 0
0 0.572274 0
0 0.571527 0
0 0.570596 0
0 0.569345 0
0 0.567742 0
0 0.565759 0
0 0.562966 0
0 0.559503 0
0.0278935 0.536553 0.0234226
0.110948 0.572381 0.0294652
0.188434 0.681361 0.038117
0.422126 0.75172 0
0.73077 0.748547 0
0.955657 0.744762 0
1 0.741466 0
1 0.735393 0.00891127
1 0.727489 0.0133059
1 0.714794 0.0135653
1 0.702922 0.0138094
1 0.692576 0.0138857
1 0.683787 0.0140536
1 0.6766 0.0141451
1 0.670756 0.0142824
1 0.665949 0.0141909
1 0.66215 0.0142214
1 0.659464 0.0144045
1 0.657282 0.0143435
1 0.655589 0.0143587
0 0.63444 0
0 0.633814 0
0 0.633188 0
0 0.632532 0
0 0.631876 0
0 0.63122 0
0 0.630579 0
0 0.62977 0
0 0.628748 0
0 0.627482 0
0 0.625666 0
0 0.623285 0
0 0.620401 0
0 0.609766 0
0.052842 0.597833 0.0322881
0.144488 0.651225 0.0348058
0.226703 0.769833 0.0354009
0.474845 0.827466 0
0.764065 0.824537 0
0.984375 0.819348 0
1 0.816754 0
1 0.812787 0.000442512
1 0.805249 0.0061799
1 0.796292 0.00737011
1 0.788449 0.00869764
1 0.781888 0.00959792
1 0.776303 0.0102235
1 0.772061 0.0107576
1 0.768551 0.0110323
1 0.766018 0.011429
1 0.763912 0.0116121
1 0.762325 0.0116732
1 0.761135 0.0117037
0 0.689418 0
0 0.688914 0
0 0.688457 0
0 0.687892 0
0 0.687327 0
0 0.686748 0
0 0.686168 0
0 0.685481 0
0 0.68455 0
0 0.683345 0
0 0.681895 0
0 0.67982 0
0 0.677165 0
0 0.673945 0
0 0.642145 0.00184634
0.0888838 0.660945 0.0366979
0.174914 0.732845 0.0428931
0.268284 0.853697 0.0277867
0.521004 0.897734 0
0.786404 0.894728 0
0.996185 0.888258 0
1 0.885191 0
1 0.882445 0
1 0.875273 0
1 0.868986 0
1 0.863752 0
1 0.859495 0
1 0.856031 0
1 0.853468 0
1 0.851362 0
1 0.84976 0
1 0.848508 0
1 0.847562 0
0 0.740108 0
0 0.739635 0
0 0.739132 0
0 0.738628 0
0 0.738125 0
0 0.737621 0
0 0.737102 0
0 0.736492 0
0 0.735668 0
0 0.734737 0
0 0.733318 0
0 0.731472 0
0 0.729137 0
0 0.726268 0
0 0.722622 0
0.0344244 0.691691 0.0280308
0.135195 0.72813 0.0367742
0.206668 0.817563 0.0516823
0.315557 0.930312 0.0147402
0.562753 0.961181 0
0.801678 0.958816 0
0.988586 0.952941 0
1 0.948547 0
1 0.943893 0
1 0.938506 0
1 0.93402 0
1 0.930358 0
1 0.927474 0
1 0.925185 0
1 0.92343 0
1 0.922087 0
1 0.921065 0
1 0.920287 0
0 0.785122 0
0 0.78468 0
0 0.784237 0
0 0.78378 0
0 0.783337 0
0 0.782879 0
0 0.782422 0
0 0.781857 0
0 0.781216 0
0 0.780301 0
0 0.779034 0
0 0.777401 0
0 0.775296 0
0 0.772763 0
0 0.769451 0
0 0.739818 0
0.0804608 0.74493 0.0416876
0.17702 0.800137 0.0406806
0.243351 0.901976 0.0559396
0.369711 0.999252 0
0.601343 1 0
0.810544 1 0
0.968994 1 0
1 1 0
1 1 0
1 0.995926 0
1 0.992508 0
1 0.989792 0
1 0.987686 0
1 0.986053 0
1 0.984802 0
1 0.983856 0
1 0.983139 0
0 0.824002 0
0 0.823606 0
0 0.823194 0
0 0.822797 0
0 0.82237 0
0 0.821958 0
0 0.821546 0
0 0.821027 0
0 0.820356 0
0 0.819608 0
0 0.818448 0
0 0.816938 0
0 0.815 0
0 0.812696 0
0 0.809659 0
0 0.806134 0
0.0331121 0.770245 0.0289006
0.139101 0.804242 0.0416419
0.213382 0.877607 0.0509651
0.285634 0.981109 0.0512551
0.424079 1 0
0.634119 1 0
0.813443 1 0
0.943023 1 0
0.991562 1 0
0.998474 1 0
1 1 0
1 1 0
1 1 0
1 1 0
1 1 0
1 1 0
1 1 0
0 0.856519 0
0 0.856153 0
0 0.855772 0
0 0.85539 0
0 0.854994 0
0 0.854612 0
0 0.854231 0
0 0.853758 0
0 0.853132 0
0 0.852461 0
0 0.851392 0
0 0.849989 0
0 0.848219 0
0 0.845975 0
0 0.843305 0
0 0.839933 0
0 0.80267 0
0.0948043 0.816541 0.0462196
0.190539 0.869566 0.0436561
0.249546 0.956329 0.0601816
0.335302 1 0.0358282
0.477302 1 0
0.661906 1 0
0.811566 1 0
0.90956 1 0
0.915663 1 0
0.920836 1 0
0.924834 1 0
0.927916 1 0
0.930404 1 0
0.93225 1 0
0.933761 1 0
0.934752 1 0
0 0.870939 0
0 0.870939 0
0 0.870939 0
0 0.870939 0
0 0.870939 0
0 0.870939 0
0 0.870939 0
0 0.870939 0
0 0.870939 0
0 0.870939 0
0 0.870939 0
0 0.870939 0
0 0.870939 0
0 0.870939 0
0 0.870939 0
0 0.86775 0
0 0.864164 0
0.0587167 0.832044 0.0416114
0.163897 0.871305 0.0437629
0.230472 0.94081 0.0539864
0.292348 1 0.0591897
0.388296 1 0.0137636
0.528954 1 0
0.68481 1 0
0.806821 1 0
0.851362 1 0
0.856184 1 0
0.859968 1 0
0.862837 1 0
0.865171 1 0
0.866804 1 0
0.868223 1 0
0.869169 1 0
0 0.870939 0
0 0.870939 0
0 0.870939 0
0 0.870939 0
0 0.870939 0
0 0.870939 0
0 0.870939 0
0 0.870939 0
0 0.870939 0
0 0.870939 0
0 0.870939 0
0 0.870939 0
0 0.870939 0
0 0.870939 0
0 0.870939 0
0 0.870939 0
0 0.870939 0
0.0300298 0.836454 0.0287938
0.138888 0.870848 0.0462806
0.216068 0.93225 0.0485084
0.269215 1 0.0632486
0.341222 1 0.0450294
0.443091 1 0
0.576043 1 0
0.703014 1 0
0.794125 1 0
0.799161 1 0
0.803189 1 0
0.806287 1 0
0.808682 1 0
0.810452 1 0
0.81181 1 0
0.813001 1 0
0 0.870939 0
0 0.870939 0
0 0.870939 0
0 0.870939 0
0 0.870939 0
0 0.870939 0
0 0.870939 0
0 0.870939 0
0 0.870939 0
0 0.870939 0
0 0.870939 0
0 0.870939 0
0 0.870939 0
0 0.870939 0
0 0.870939 0
0 0.870939 0
0 0.870939 0
0.000854505 0.834546 0.0119173
0.115251 0.861006 0.0480812
0.203571 0.917464 0.0459449
0.257191 0.997147 0.0614328
0.320226 1 0.0551766
0.403967 1 0.013138
0.509606 1 0
0.622583 1 0
0.717678 1 0
0.750652 1 0
0.754772 1 0
0.757916 1 0
0.760449 1 0
0.762264 1 0
0.763607 1 0
0.764736 1 0
0 0.870939 0
0 0.870939 0
0 0.870939 0
0 0.870939 0
0 0.870939 0
0 0.870939 0
0 0.870939 0
0 0.870939 0
0 0.870939 0
0 0.870939 0
0 0.870939 0
0 0.870939 0
0 0.870939 0
0 0.870939 0
0 0.870939 0
0 0.870939 0
0 0.870939 0
0 0.838788 0
0.0954452 0.853803 0.0483711
0.192203 0.906416 0.0448005
0.248478 0.982483 0.0590372
0.307256 1 0.0593423
0.385641 1 0.0233463
0.483421 1 0
0.59266 1 0
0.688396 1 0
0.745663 1 0
0.745663 1 0
0.745663 1 0
0.745663 1 0
0.745663 1 0
0.745663 1 0
0.745663 1 0
0 0.870939 0
0 0.870939 0
0 0.870939 0
0 0.870939 0
0 0.870939 0
0 0.870939 0
0 0.870939 0
0 0.870939 0
0 0.870939 0
