pic/松下lut/LUTs/Retrostyle709.cube
TITLE "Generated by Resolve"
#LUMIXPHOTOSTYLE 709L
LUT_3D_SIZE 9
0 0.0355077 0.00894179
0 0.0353857 0.00881971
0.0846571 0.033753 0.007187
0.294865 0.0326085 0.00601205
0.519081 0.032639 0.00602731
0.729778 0.0333257 0.00668345
0.858656 0.0339513 0.00730907
0.945602 0.0344701 0.00781262
1 0.0348974 0.00823987
0 0.0806592 0.00917067
0 0.0805371 0.0090486
0.0853437 0.0789044 0.00741588
0.295537 0.07776 0.00624094
0.519753 0.0778058 0.0062562
0.730449 0.0784772 0.00691234
0.859312 0.079118 0.00755322
0.946258 0.0796368 0.00805676
1 0.0800641 0.00846876
0 0.16144 0.00933852
0 0.161318 0.00921645
0.0863355 0.159716 0.00759899
0.296513 0.158572 0.00643931
0.520729 0.158602 0.00645457
0.731411 0.159289 0.0071107
0.860273 0.15993 0.00775158
0.947219 0.160449 0.00825513
1 0.160876 0.00866712
0 0.304952 0.009308
0 0.304814 0.00917067
0.0877699 0.303227 0.00758373
0.297902 0.302098 0.00642405
0.522103 0.302144 0.00645457
0.732769 0.302831 0.0071107
0.861631 0.303471 0.00775158
0.948577 0.30399 0.00825513
1 0.304417 0.00868238
0 0.519173 0.0087892
0.000869764 0.51902 0.00863661
0.0894484 0.517494 0.0071107
0.299519 0.516381 0.00596628
0.52369 0.516426 0.0059968
0.734356 0.517113 0.00666819
0.863203 0.517769 0.00729381
0.950134 0.518273 0.00779736
1 0.518715 0.00822461
0 0.700191 0.00808728
0.00224308 0.700008 0.00790417
0.0905928 0.698543 0.00643931
0.300618 0.697444 0.00531014
0.524773 0.697505 0.00534066
0.735424 0.698192 0.00601205
0.864271 0.698833 0.00665293
0.951202 0.699351 0.00715648
1 0.699794 0.00758373
0 0.821118 0.00750744
0.00302129 0.820935 0.00732433
0.091249 0.819501 0.00588998
0.301259 0.818402 0.00477607
0.525383 0.818463 0.00480659
0.736034 0.81915 0.00549325
0.864881 0.819806 0.00611887
0.951797 0.820325 0.00662242
1 0.820752 0.00704967
0 0.922255 0.00697337
0.00360113 0.922072 0.00679026
0.0917525 0.920668 0.00537118
0.301732 0.91957 0.00427253
0.525856 0.919631 0.0043183
0.736492 0.920333 0.0049897
0.865339 0.920989 0.00563058
0.952255 0.921492 0.00613413
1 0.921935 0.00656138
0 1 0.00648508
0.0040589 1 0.00631724
0.0921492 1 0.00491341
0.302098 1 0.00381476
0.526223 1 0.00386053
0.736843 1 0.00453193
0.86569 1 0.00517281
0.952605 1 0.00567636
1 1 0.00610361
0 0.0362402 0.109148
0 0.0361181 0.109026
0.0855116 0.0344854 0.107378
0.29572 0.033341 0.106203
0.519936 0.0333867 0.106203
0.730632 0.0340581 0.106844
0.859495 0.034699 0.107469
0.946441 0.0352178 0.107973
1 0.0356451 0.108385
0 0.0813916 0.109361
0 0.0812695 0.109239
0.0861982 0.0796521 0.107607
0.296391 0.0785077 0.106416
0.520607 0.0785382 0.106432
0.731304 0.0792248 0.107073
0.860166 0.0798657 0.107698
0.947112 0.0803845 0.108186
1 0.0808118 0.108614
0 0.162188 0.109514
0 0.162066 0.109392
0.0872053 0.160449 0.107774
0.297368 0.159319 0.1066
0.521569 0.15935 0.1066
0.732265 0.160037 0.107256
0.861128 0.160678 0.107881
0.948074 0.161196 0.10837
1 0.161624 0.108797
0 0.305684 0.109453
0 0.305547 0.109316
0.0886244 0.303975 0.107729
0.298756 0.302846 0.106569
0.522957 0.302892 0.106569
0.733623 0.303578 0.107225
0.862486 0.304219 0.107851
0.949432 0.304738 0.108354
1 0.305165 0.108766
0 0.519921 0.108888
0.00175479 0.519768 0.108736
0.0903029 0.518242 0.107195
0.300374 0.517128 0.10605
0.524544 0.517174 0.106065
0.73521 0.517876 0.106722
0.864057 0.518517 0.107347
0.951003 0.519036 0.107851
1 0.519463 0.108278
0 0.700938 0.108141
0.0031281 0.700755 0.107958
0.0914473 0.699306 0.106493
0.301472 0.698192 0.105364
0.525628 0.698253 0.105379
0.736278 0.698955 0.106035
0.865125 0.699596 0.106661
0.952056 0.700114 0.107164
1 0.700542 0.107591
0 0.821866 0.107546
0.00390631 0.821683 0.107362
0.0921187 0.820249 0.105913
0.302113 0.81915 0.104784
0.526253 0.819211 0.104814
0.736889 0.819913 0.105486
0.865736 0.820569 0.106111
0.952667 0.821073 0.106615
1 0.821515 0.107027
0 0.923003 0.106996
0.00448615 0.92282 0.106798
0.0926223 0.921416 0.105379
0.302602 0.920333 0.104265
0.526711 0.920394 0.104295
0.737346 0.921096 0.104967
0.866194 0.921736 0.105592
0.953124 0.922255 0.106096
1 0.922698 0.106523
0.000396735 1 0.106477
0.00494392 1 0.10631
0.093019 1 0.104906
0.302968 1 0.103792
0.527077 1 0.103822
0.737713 1 0.104494
0.866545 1 0.105119
0.953475 1 0.105623
1 1 0.10605
0 0.0365301 0.195315
0 0.036408 0.195193
0.0859083 0.0347906 0.193545
0.296101 0.0336461 0.19237
0.520317 0.0336767 0.19237
0.731014 0.0343633 0.193011
0.859876 0.0350042 0.193622
0.946822 0.0355077 0.194125
1 0.0359503 0.194537
0 0.0816815 0.195529
0 0.0815595 0.195407
0.0865797 0.079942 0.193774
0.296773 0.0787976 0.192584
0.520989 0.0788434 0.192584
0.731685 0.07953 0.19324
0.860548 0.0801709 0.193851
0.947494 0.0806744 0.194354
1 0.081117 0.194766
0 0.162478 0.195682
0 0.162356 0.195544
0.0875868 0.160754 0.193927
0.297749 0.159609 0.192752
0.521965 0.159655 0.192767
0.732647 0.160342 0.193408
0.861509 0.160983 0.194034
0.948455 0.161486 0.194522
1 0.161929 0.194949
0 0.305974 0.195605
0.000259403 0.305852 0.195468
0.0890211 0.304265 0.193881
0.299138 0.303151 0.192721
0.523339 0.303197 0.192721
0.734005 0.303883 0.193378
0.862867 0.304524 0.193988
0.949813 0.305028 0.194491
1 0.30547 0.194919
0 0.520211 0.195026
0.00216678 0.520058 0.194873
0.0906996 0.518547 0.193347
0.300771 0.517433 0.192187
0.524926 0.517479 0.192203
0.735592 0.518166 0.192859
0.864454 0.518822 0.193484
0.951385 0.519326 0.193988
1 0.519768 0.194415
0 0.701228 0.194278
0.00354009 0.701045 0.194095
0.0918441 0.699596 0.19263
0.301869 0.698497 0.191485
0.526009 0.698558 0.191501
0.73666 0.699245 0.192172
0.865507 0.699901 0.192798
0.952438 0.700404 0.193286
1 0.700847 0.193713
0 0.822156 0.193668
0.00430304 0.821973 0.193484
0.0925154 0.820554 0.19205
0.30251 0.819455 0.190921
0.526635 0.819516 0.190936
0.73727 0.820218 0.191608
0.866117 0.820859 0.192233
0.953048 0.821378 0.192721
1 0.82182 0.193149
0.00030518 0.923308 0.193103
0.00488289 0.923125 0.19292
0.093019 0.921721 0.191516
0.302983 0.920638 0.190387
0.527108 0.920699 0.190417
0.737743 0.921401 0.191073
0.866575 0.922042 0.191699
0.953506 0.92256 0.192203
1 0.922988 0.19263
0.000808728 1 0.192599
0.00534066 1 0.192416
0.0934157 1 0.191028
0.303365 1 0.189914
0.527474 1 0.189929
0.738094 1 0.1906
0.866941 1 0.191226
0.953857 1 0.19173
1 1 0.192157
0 0.0367132 0.304768
0 0.0365911 0.304646
0.0861982 0.0349737 0.303014
0.296391 0.0338293 0.301823
0.520607 0.0338598 0.301823
0.731304 0.0345464 0.302464
0.860182 0.0351873 0.303075
0.947112 0.0357061 0.303578
1 0.0361334 0.30399
0 0.0818647 0.304982
0 0.0817426 0.30486
0.0868849 0.0801251 0.303227
0.297063 0.078996 0.302037
0.521279 0.0790265 0.302037
0.731975 0.0797131 0.302678
0.860838 0.080354 0.303304
0.947784 0.0808728 0.303792
1 0.0813001 0.304219
0 0.162661 0.305135
0 0.162539 0.304997
0.087892 0.160937 0.30338
0.298054 0.159792 0.302205
0.522255 0.159838 0.302205
0.732937 0.160525 0.302861
0.861799 0.161166 0.303471
0.948745 0.161685 0.303975
1 0.162112 0.304387
0 0.306157 0.305043
0.000579843 0.306035 0.304906
0.0893263 0.304463 0.303319
0.299443 0.303334 0.302159
0.523629 0.30338 0.302159
0.73431 0.304067 0.302815
0.863172 0.304707 0.303441
0.950103 0.305226 0.303929
1 0.305653 0.304356
0 0.520394 0.304463
0.00250248 0.520226 0.304295
0.0910048 0.51873 0.302785
0.30106 0.517617 0.301625
0.525231 0.517662 0.30164
0.735897 0.518364 0.302296
0.864744 0.519005 0.302922
0.951675 0.519524 0.303426
1 0.519951 0.303838
0 0.701411 0.3037
0.00386053 0.701228 0.303517
0.0921492 0.699779 0.302052
0.302159 0.69868 0.300923
0.526314 0.698741 0.300938
0.736965 0.699443 0.301595
0.865812 0.700084 0.30222
0.952728 0.700603 0.302724
1 0.70103 0.303136
3.0518e-05 0.822339 0.30309
0.00462348 0.822156 0.302907
0.0928206 0.820737 0.301472
0.3028 0.819654 0.300343
0.52694 0.819715 0.300359
0.737575 0.820401 0.30103
0.866423 0.821057 0.30164
0.953338 0.821576 0.302144
1 0.822003 0.302571
0.00062562 0.923491 0.302525
0.00520333 0.923308 0.302342
0.0933242 0.921904 0.300923
0.303288 0.920821 0.299809
0.527398 0.920882 0.29984
0.738033 0.921584 0.300496
0.86688 0.92224 0.301122
0.953796 0.922759 0.301625
1 0.923186 0.302037
0.00114443 1 0.302007
0.0056611 1 0.301839
0.0937209 1 0.300435
0.303655 1 0.299321
0.527764 1 0.299351
0.738399 1 0.300008
0.867231 1 0.300649
0.954162 1 0.301137
1 1 0.301564
0 0.0367437 0.48838
0 0.0366217 0.488258
0.0864271 0.0350042 0.486625
0.296605 0.0338598 0.485435
0.520821 0.0338903 0.485435
0.731517 0.0345769 0.486076
0.86038 0.0352178 0.486686
0.947326 0.0357366 0.48719
1 0.0361639 0.487602
0 0.0818952 0.488594
0 0.0817731 0.488457
0.0871138 0.0801556 0.486839
0.297276 0.0790112 0.485649
0.521492 0.079057 0.485649
0.732174 0.0797436 0.48629
0.861051 0.0803845 0.486915
0.947982 0.0809033 0.487404
1 0.0813306 0.487816
0 0.162676 0.488731
0 0.162554 0.488609
0.0881056 0.160967 0.486992
0.298253 0.159823 0.485817
0.522469 0.159869 0.485817
0.73315 0.160555 0.486458
0.862013 0.161196 0.487083
0.948943 0.161715 0.487572
1 0.162142 0.487999
0 0.306188 0.48864
0.000823987 0.30605 0.488502
0.0895399 0.304479 0.486931
0.299657 0.303365 0.485756
0.523842 0.30341 0.485771
0.734508 0.304097 0.486412
0.863371 0.304738 0.487037
0.950301 0.305257 0.487526
1 0.305684 0.487953
0 0.520424 0.48806
0.00277714 0.520241 0.487877
0.0912184 0.518761 0.486381
0.301274 0.517647 0.485222
0.525429 0.517693 0.485237
0.736095 0.518395 0.485893
0.864942 0.519036 0.486503
0.951873 0.519554 0.487007
1 0.519982 0.487419
0 0.701442 0.487282
0.00410468 0.701259 0.487098
0.0923629 0.699809 0.485649
0.302373 0.698711 0.484504
0.526513 0.698772 0.48452
0.737163 0.699474 0.485176
0.866011 0.700114 0.485801
0.952941 0.700633 0.48629
1 0.701076 0.486717
0.000274662 0.82237 0.486671
0.00486763 0.822187 0.486488
0.0930343 0.820768 0.485054
0.303014 0.819684 0.483925
0.527138 0.819745 0.48394
0.737774 0.820447 0.484596
0.866621 0.821088 0.485222
0.953552 0.821607 0.485725
1 0.822034 0.486137
0.000885023 0.923506 0.486091
0.00544747 0.923323 0.485908
0.0935378 0.921935 0.484504
0.303502 0.920851 0.483391
0.527611 0.920913 0.483406
0.738247 0.921614 0.484062
0.867079 0.922271 0.484688
0.954009 0.922789 0.485191
1 0.923217 0.485618
0.00141909 1 0.485557
0.00590524 1 0.485405
0.0939345 1 0.484016
0.303868 1 0.482902
0.527977 1 0.482918
0.738598 1 0.483589
0.867445 1 0.484215
0.95436 1 0.484703
1 1 0.48513
0 0.0365301 0.670893
0 0.036408 0.670771
0.0864118 0.0347906 0.669139
0.296574 0.0336461 0.667964
0.52079 0.0336919 0.667948
0.731487 0.0343786 0.668589
0.860349 0.0350195 0.6692
0.947295 0.0355383 0.669703
1 0.0359655 0.670115
0 0.0816815 0.671092
0 0.0815595 0.67097
0.0870832 0.0799573 0.669352
0.297246 0.0788128 0.668177
0.521462 0.0788586 0.668162
0.732143 0.0795453 0.668803
0.861006 0.0801862 0.669429
0.947951 0.080705 0.669917
1 0.0811322 0.670329
0 0.162478 0.671244
0 0.162341 0.671107
0.0880903 0.160754 0.669505
0.298238 0.159625 0.66833
0.522438 0.15967 0.66833
0.73312 0.160357 0.668971
0.861982 0.160998 0.669596
0.948913 0.161517 0.670085
1 0.161944 0.670497
0 0.305974 0.671153
0.000839246 0.305837 0.671
0.0895247 0.30428 0.669444
0.299626 0.303151 0.668269
0.523812 0.303212 0.668269
0.734478 0.303899 0.668925
0.86334 0.30454 0.669535
0.950271 0.305058 0.670039
1 0.305486 0.670451
0 0.520211 0.670558
0.0027924 0.520027 0.670375
0.0912032 0.518547 0.668879
0.301244 0.517449 0.667735
0.525414 0.517494 0.667735
0.736065 0.518196 0.668391
0.864912 0.518837 0.669001
0.951843 0.519356 0.669505
1 0.519783 0.669932
0 0.701228 0.669779
0.00411994 0.701045 0.669581
0.0923476 0.699611 0.668132
0.302358 0.698512 0.667002
0.526482 0.698573 0.667018
0.737133 0.699275 0.667674
0.86598 0.699916 0.668299
0.952911 0.700435 0.668788
1 0.700877 0.669215
0.000289921 0.822156 0.669154
0.00488289 0.821973 0.668971
0.093019 0.820569 0.667552
0.302983 0.819471 0.666423
0.527108 0.819547 0.666438
0.737743 0.820233 0.667094
0.86659 0.82089 0.66772
0.953521 0.821408 0.668208
1 0.821836 0.668635
0.000915541 0.923293 0.668574
0.00546273 0.923125 0.668406
0.0935225 0.921736 0.667002
0.303471 0.920653 0.665873
0.527581 0.920714 0.665904
0.738216 0.921416 0.66656
0.867048 0.922072 0.667185
0.953979 0.922591 0.667674
1 0.923018 0.668101
0.00143435 1 0.66804
0.00590524 1 0.667887
0.0939193 1 0.666499
0.303838 1 0.665385
0.527947 1 0.665415
0.738567 1 0.666072
0.867399 1 0.666697
0.95433 1 0.667201
1 1 0.667613
0 0.0363317 0.770703
0 0.0362097 0.770581
0.0863203 0.0346075 0.768948
0.296498 0.033463 0.767773
0.520699 0.0335088 0.767758
0.731395 0.0341955 0.768399
0.860258 0.0348363 0.769009
0.947204 0.0353552 0.769512
1 0.0357824 0.769924
0 0.0814984 0.770901
0 0.0813611 0.770779
0.0870069 0.0797589 0.769162
0.297169 0.0786297 0.767987
0.52137 0.0786755 0.767971
0.732052 0.0793622 0.768612
0.860914 0.0800031 0.769238
0.94786 0.0805219 0.769726
1 0.0809491 0.770138
0 0.16228 0.771054
0 0.162158 0.770916
0.088014 0.160571 0.769314
0.298146 0.159442 0.768139
0.522347 0.159487 0.768139
0.733028 0.160174 0.76878
0.861891 0.160815 0.769406
0.948821 0.161334 0.769894
1 0.161761 0.770306
0 0.305791 0.770947
0.00077821 0.305638 0.770809
0.0894331 0.304097 0.769238
0.299535 0.302968 0.768078
0.52372 0.303029 0.768078
0.734386 0.303716 0.768734
0.863249 0.304356 0.769345
0.950179 0.304875 0.769848
1 0.305303 0.77026
0 0.520012 0.770352
0.00273136 0.519844 0.770169
0.0911116 0.518364 0.768673
0.301167 0.517266 0.767529
0.525322 0.517311 0.767544
0.735973 0.518013 0.768185
0.86482 0.518654 0.768811
0.951751 0.519173 0.769314
1 0.5196 0.769726
0 0.701045 0.769574
0.00404364 0.700847 0.76939
0.0922713 0.699428 0.767941
0.302266 0.698329 0.766796
0.526406 0.69839 0.766812
0.737041 0.699092 0.767468
0.865888 0.699733 0.768093
0.952819 0.700252 0.768597
1 0.700694 0.769009
0.000228885 0.821958 0.768948
0.00480659 0.821775 0.768765
0.0929274 0.820386 0.767346
0.302907 0.819287 0.766217
0.527016 0.819364 0.766232
0.737652 0.820066 0.766888
0.866499 0.820706 0.767514
0.953429 0.821225 0.768017
1 0.821653 0.768429
0.000854505 0.923095 0.768368
0.00538643 0.922927 0.7682
0.0934462 0.921553 0.766796
0.30338 0.92047 0.765667
0.527489 0.920531 0.765698
0.738125 0.921233 0.766354
0.866957 0.921889 0.766979
0.953887 0.922408 0.767483
1 0.922835 0.767895
0.00137331 1 0.767834
0.00584421 1 0.767681
0.093843 1 0.766293
0.303761 1 0.765179
0.527855 1 0.765209
0.738476 1 0.765866
0.867323 1 0.766491
0.954238 1 0.766995
1 1 0.767407
0 0.0361486 0.856611
0 0.0360113 0.856489
0.0862135 0.0344091 0.854871
0.296376 0.0332799 0.853681
0.520592 0.0333104 0.853681
0.731273 0.0339971 0.854322
0.860151 0.034638 0.854932
0.947082 0.0351568 0.855421
1 0.035584 0.855848
0 0.0813001 0.856825
0 0.0811627 0.856687
0.0869001 0.0795758 0.85507
0.297047 0.0784314 0.853895
0.521263 0.0784772 0.853895
0.731945 0.0791638 0.854536
0.860807 0.0798047 0.855146
0.947738 0.0803235 0.85565
1 0.0807507 0.856062
0 0.162097 0.856962
0 0.161959 0.856825
0.0879072 0.160372 0.855238
0.298039 0.159243 0.854063
0.522225 0.159289 0.854063
0.732906 0.159976 0.854704
0.861769 0.160632 0.855314
0.948714 0.161135 0.855802
1 0.161578 0.856229
0 0.305592 0.85687
0.000686656 0.30544 0.856718
0.0893263 0.303899 0.855161
0.299428 0.302785 0.853986
0.523613 0.302831 0.854002
0.734279 0.303517 0.854643
0.863127 0.304173 0.855253
0.950072 0.304677 0.855756
1 0.305119 0.856168
0 0.519829 0.85626
0.00263981 0.519646 0.856077
0.0910048 0.518166 0.854597
0.301045 0.517067 0.853452
0.5252 0.517128 0.853452
0.735866 0.517815 0.854109
0.864713 0.518471 0.854719
0.951644 0.518975 0.855222
1 0.519417 0.855634
0 0.700847 0.855482
0.00395209 0.700664 0.855299
0.0921645 0.699229 0.853849
0.302159 0.698146 0.85272
0.526284 0.698207 0.852735
0.736934 0.698894 0.853376
0.865782 0.69955 0.854002
0.952697 0.700069 0.854505
1 0.700496 0.854917
0.000137331 0.821759 0.854856
0.00471504 0.821591 0.854673
0.0928206 0.820188 0.853254
0.302785 0.819104 0.852125
0.526909 0.819165 0.85214
0.737545 0.819867 0.852796
0.866392 0.820523 0.853422
0.953307 0.821027 0.853925
1 0.821469 0.854337
0.00077821 0.922896 0.854261
0.00529488 0.922728 0.854109
0.0933394 0.921355 0.852705
0.303273 0.920272 0.851575
0.527382 0.920348 0.851606
0.738003 0.92105 0.852262
0.86685 0.921706 0.852888
0.953765 0.92221 0.853391
1 0.922652 0.853803
0.00128176 1 0.853742
0.00573739 1 0.85359
0.0937362 1 0.852201
0.303655 1 0.851087
0.527749 1 0.851118
0.738369 1 0.851774
0.867201 1 0.852399
0.954131 1 0.852903
1 1 0.853315
0 0.0357977 0.98677
0 0.0356756 0.986633
0.0859998 0.0340734 0.985016
0.296162 0.032929 0.983841
0.520363 0.0329747 0.983825
0.73106 0.0336614 0.984466
0.859922 0.0343023 0.985077
0.946853 0.0348211 0.98558
1 0.0352483 0.985992
0 0.0809491 0.986969
0 0.0808118 0.986831
0.0866865 0.0792248 0.985229
0.296834 0.0780957 0.984054
0.521035 0.0781415 0.984039
0.731716 0.0788281 0.98468
0.860578 0.079469 0.985306
0.947524 0.0799878 0.985794
1 0.080415 0.986206
0 0.161746 0.987106
0 0.161608 0.986969
0.0876936 0.160037 0.985382
0.29781 0.158907 0.984207
0.522011 0.158953 0.984207
0.732692 0.15964 0.984848
0.86154 0.160281 0.985458
0.948486 0.1608 0.985962
1 0.161227 0.986374
0 0.305241 0.986999
0.000488289 0.305089 0.986862
0.0891127 0.303563 0.985306
0.299214 0.302434 0.984146
0.523384 0.302495 0.984146
0.734051 0.303181 0.984787
0.862913 0.303822 0.985412
0.949844 0.304341 0.985901
1 0.304768 0.986313
0 0.519478 0.986404
0.00244144 0.519295 0.986221
0.0907912 0.51783 0.984741
0.300832 0.516732 0.983581
0.524987 0.516777 0.983597
0.735637 0.517479 0.984253
0.864485 0.51812 0.984863
0.951415 0.518639 0.985367
1 0.519081 0.985779
0 0.700496 0.985611
0.00375372 0.700313 0.985428
0.0919509 0.698894 0.983993
0.30193 0.697795 0.982849
0.52607 0.697856 0.982864
0.736706 0.698558 0.98352
0.865553 0.699214 0.984146
0.952483 0.699718 0.984634
1 0.70016 0.985061
0 0.821408 0.984985
0.00451667 0.821241 0.984802
0.092607 0.819837 0.983398
0.302571 0.818753 0.982269
0.526696 0.81883 0.982284
0.737331 0.819532 0.98294
0.866163 0.820172 0.983566
0.953094 0.820691 0.984054
1 0.821134 0.984482
0.000595102 0.922545 0.98439
0.00509651 0.922393 0.984237
0.0931258 0.921004 0.982834
0.303059 0.919936 0.98172
0.527153 0.919997 0.981735
0.737789 0.920714 0.982406
0.866621 0.921355 0.983017
0.953552 0.921874 0.98352
1 0.922316 0.983948
0.00109865 1 0.983871
0.00553903 1 0.983719
0.0935225 1 0.982345
0.303426 1 0.981231
0.52752 1 0.981247
0.73814 1 0.981918
0.866972 1 0.982528
0.953902 1 0.983032
1 1 0.983459
