pic/松下lut/LUTs/Retrostyle709.cube
TITLE "Generated by Resolve"
#LUMIXPHOTOSTYLE 709L
LUT_3D_SIZE 33
0 0.0355077 0.00894179
0 0.0354772 0.00891127
0 0.0354467 0.00889601
0 0.0354162 0.00886549
0 0.0353857 0.00881971
0 0.0353399 0.00877394
0.00996414 0.0349126 0.00834669
0.0412146 0.0343175 0.00775158
0.0846571 0.033753 0.007187
0.13312 0.0333104 0.00674449
0.184848 0.03299 0.00640879
0.239109 0.0327459 0.00616464
0.294865 0.0326085 0.00601205
0.34966 0.0325322 0.00593576
0.40441 0.0325017 0.00590524
0.46099 0.0325475 0.00593576
0.519081 0.032639 0.00602731
0.576638 0.0327764 0.00614939
0.631724 0.0329442 0.00631724
0.682933 0.0331273 0.00650034
0.729778 0.0333257 0.00668345
0.770565 0.0335088 0.00686656
0.804501 0.0336767 0.00703441
0.833158 0.033814 0.00717174
0.858656 0.0339513 0.00730907
0.8822 0.0340887 0.0074464
0.904601 0.034226 0.00756847
0.926116 0.0343481 0.00769055
0.945602 0.0344701 0.00781262
0.963211 0.0345769 0.00791943
0.979736 0.0346838 0.00802625
0.995804 0.0347906 0.00813306
1 0.0348974 0.00823987
0 0.0466316 0.00901808
0 0.0466011 0.00898756
0 0.0465858 0.00895705
0 0.0465553 0.00892653
0 0.0465095 0.00889601
0 0.0464637 0.00885023
0.0101472 0.0460365 0.00842298
0.0413977 0.0454414 0.00781262
0.0848402 0.0448768 0.00724804
0.133288 0.0444495 0.00682078
0.185031 0.0441138 0.00648508
0.239292 0.0438849 0.00624094
0.295048 0.0437324 0.00608835
0.349844 0.0436561 0.0059968
0.404593 0.0436408 0.00598154
0.461173 0.0436713 0.00601205
0.519265 0.0437629 0.00608835
0.576822 0.0439002 0.00622568
0.631891 0.0440681 0.00637827
0.683116 0.0442512 0.00656138
0.729961 0.0444495 0.00675975
0.770748 0.0446326 0.00694286
0.804685 0.0448005 0.00709544
0.833341 0.0449531 0.00724804
0.858824 0.0450904 0.00738537
0.882368 0.0452277 0.00750744
0.904784 0.0453498 0.00764477
0.926284 0.0454871 0.00776684
0.945769 0.0456092 0.00788891
0.963378 0.045716 0.00799573
0.979919 0.0458228 0.00810254
0.995987 0.0459297 0.00820935
1 0.0460365 0.00831617
0 0.0576638 0.00906386
0 0.0576333 0.0090486
0 0.0576028 0.00901808
0 0.0575723 0.00898756
0 0.0575418 0.00895705
0 0.057496 0.00889601
0.0103151 0.0570687 0.00848402
0.0415656 0.0564736 0.00787366
0.085008 0.0559091 0.00730907
0.133471 0.0554818 0.00686656
0.185199 0.0551461 0.00654612
0.23946 0.0549172 0.00630198
0.295216 0.0547646 0.00614939
0.350011 0.0546883 0.00605783
0.404746 0.0546731 0.00604257
0.461341 0.0547036 0.00607309
0.519432 0.0547951 0.00614939
0.576989 0.0549325 0.00628672
0.632059 0.0551003 0.00643931
0.683268 0.0552834 0.00662242
0.730129 0.0554818 0.00682078
0.770916 0.0556649 0.00700389
0.804852 0.0558328 0.00715648
0.833509 0.0559854 0.00730907
0.858991 0.0561227 0.0074464
0.882536 0.05626 0.00756847
0.904952 0.0563821 0.00770581
0.926452 0.0565194 0.00782788
0.945937 0.0566262 0.00794995
0.963546 0.0567483 0.00805676
0.980087 0.0568551 0.00816358
0.996139 0.0569467 0.00827039
1 0.0570687 0.0083772
0 0.0688029 0.0091249
0 0.0687877 0.00909438
0 0.0687572 0.00906386
0 0.0687266 0.00903334
0 0.0686961 0.00900282
0 0.0686351 0.00895705
0.0104829 0.0682231 0.00852979
0.0417334 0.0676127 0.00791943
0.0851759 0.0670634 0.00737011
0.133623 0.0666209 0.0069276
0.185367 0.0663005 0.0065919
0.239612 0.0660563 0.00634775
0.295369 0.065919 0.00619516
0.350164 0.0658427 0.00611887
0.404913 0.0658274 0.00608835
0.461494 0.0658579 0.00611887
0.519585 0.0659495 0.00621042
0.577142 0.0660868 0.00633249
0.632227 0.0662547 0.00650034
0.683436 0.0664378 0.00668345
0.730282 0.0666361 0.00686656
0.771069 0.0668193 0.00704967
0.805005 0.0669871 0.00721752
0.833661 0.0671397 0.00735485
0.859159 0.067277 0.00749218
0.882689 0.0673991 0.00762951
0.905104 0.0675364 0.00775158
0.926604 0.0676585 0.00788891
0.94609 0.0677806 0.00799573
0.963699 0.0678874 0.00810254
0.98024 0.0679942 0.00820935
0.996307 0.068101 0.00831617
1 0.0682078 0.00842298
0 0.0806592 0.00917067
0 0.0806287 0.00914015
0 0.0805982 0.00910964
0 0.0805676 0.00907912
0 0.0805371 0.0090486
0 0.0804913 0.00900282
0.0106661 0.0800641 0.00857557
0.0419013 0.079469 0.00796521
0.0853437 0.0789044 0.00741588
0.133791 0.0784772 0.00697337
0.185519 0.0781415 0.00663767
0.23978 0.0779126 0.00639353
0.295537 0.07776 0.00624094
0.350332 0.0776837 0.00616464
0.405081 0.0776684 0.00613413
0.461662 0.0777142 0.0061799
0.519753 0.0778058 0.0062562
0.57731 0.0779278 0.00639353
0.63238 0.0780957 0.00654612
0.683604 0.078294 0.00672923
0.730449 0.0784772 0.00691234
0.771237 0.0786603 0.00709544
0.805173 0.0788281 0.00726329
0.833829 0.0789807 0.00741588
0.859312 0.079118 0.00755322
0.882856 0.0792554 0.00767529
0.905272 0.0793927 0.00781262
0.926772 0.0795148 0.00793469
0.946258 0.0796368 0.00805676
0.963867 0.0797436 0.00816358
0.980407 0.0798505 0.00827039
0.99646 0.0799573 0.00836194
1 0.0800641 0.00846876
0 0.0937362 0.00921645
0 0.0937057 0.00918593
0 0.0936751 0.00915541
0 0.0936446 0.0091249
0 0.0936141 0.00909438
0 0.0935683 0.00903334
0.0108492 0.0931563 0.00862135
0.0420844 0.092546 0.00801099
0.0855268 0.0919966 0.00746166
0.133974 0.0915541 0.00701915
0.185702 0.0912337 0.00668345
0.239948 0.0910048 0.00643931
0.295705 0.0908522 0.00628672
0.3505 0.0907759 0.00621042
0.405249 0.0907607 0.0061799
0.46183 0.0907912 0.00622568
0.519921 0.0908827 0.00630198
0.577478 0.0910201 0.00643931
0.632563 0.0911879 0.0065919
0.683772 0.091371 0.00677501
0.730617 0.0915694 0.00697337
0.771405 0.0917525 0.00714122
0.805341 0.0919203 0.00730907
0.833997 0.0920729 0.00746166
0.85948 0.0922103 0.00759899
0.883024 0.0923476 0.00772107
0.90544 0.0924697 0.0078584
0.92694 0.092607 0.00798047
0.946426 0.0927138 0.00810254
0.964034 0.0928359 0.00820935
0.980575 0.0929427 0.00831617
0.996643 0.0930495 0.00840772
1 0.0931563 0.00851453
0 0.111147 0.00926223
0 0.111116 0.00923171
0 0.111086 0.00920119
0 0.111055 0.00917067
0 0.111025 0.00914015
0 0.110979 0.00907912
0.0110781 0.110552 0.00866712
0.0423133 0.109957 0.00807202
0.0857404 0.109407 0.00750744
0.134188 0.108965 0.00706493
0.185916 0.108644 0.00674449
0.240177 0.108415 0.00650034
0.295933 0.108263 0.00634775
0.350729 0.108186 0.0062562
0.405463 0.108171 0.00624094
0.462058 0.108202 0.00627146
0.52015 0.108293 0.00636301
0.577707 0.108431 0.00648508
0.632776 0.108598 0.00665293
0.683986 0.108782 0.00683604
0.730831 0.10898 0.00701915
0.771618 0.109163 0.00720226
0.805554 0.109331 0.00737011
0.834211 0.109483 0.00750744
0.859709 0.109621 0.00764477
0.883238 0.109758 0.0077821
0.905653 0.10988 0.00790417
0.927153 0.110018 0.00802625
0.946639 0.11014 0.00814832
0.964248 0.110246 0.00825513
0.980789 0.110353 0.00836194
0.996857 0.11046 0.00846876
1 0.110567 0.00857557
0 0.135012 0.009308
0 0.134981 0.00927749
0 0.134951 0.00924697
0 0.13492 0.00921645
0 0.13489 0.00918593
0 0.134844 0.00914015
0.0113832 0.134432 0.0087129
0.0426032 0.133837 0.0081178
0.0860304 0.133272 0.00755322
0.134478 0.132845 0.00712596
0.186206 0.132509 0.00679026
0.240467 0.13228 0.00654612
0.296208 0.132128 0.00639353
0.351003 0.132052 0.00631724
0.405753 0.132036 0.00628672
0.462333 0.132082 0.00633249
0.520424 0.132174 0.00640879
0.577981 0.132311 0.00654612
0.633051 0.132479 0.00669871
0.684276 0.132662 0.00688182
0.731121 0.13286 0.00708019
0.771908 0.133043 0.00726329
0.805844 0.133211 0.00741588
0.834501 0.133349 0.00756847
0.859983 0.133501 0.00770581
0.883528 0.133623 0.00782788
0.905928 0.133761 0.00796521
0.927443 0.133883 0.00808728
0.946929 0.134005 0.00820935
0.964538 0.134112 0.00831617
0.981064 0.134218 0.00842298
0.997131 0.134325 0.00852979
1 0.134432 0.00863661
0 0.16144 0.00933852
0 0.161425 0.009308
0 0.161395 0.00927749
0 0.161364 0.00924697
0 0.161318 0.00921645
0 0.161273 0.00917067
0.0117037 0.160861 0.00874342
0.0429084 0.160266 0.00814832
0.0863355 0.159716 0.00759899
0.134783 0.159274 0.00715648
0.186511 0.158953 0.00683604
0.240757 0.158724 0.0065919
0.296513 0.158572 0.00643931
0.351308 0.158495 0.00636301
0.406058 0.15848 0.00633249
0.462638 0.158511 0.00636301
0.520729 0.158602 0.00645457
0.578286 0.15874 0.00657664
0.633356 0.158907 0.00674449
0.684565 0.159106 0.0069276
0.731411 0.159289 0.0071107
0.772198 0.159487 0.00729381
0.806134 0.15964 0.00746166
0.834791 0.159792 0.00761425
0.860273 0.15993 0.00775158
0.883818 0.160067 0.00787366
0.906233 0.160204 0.00801099
0.927733 0.160327 0.00813306
0.947219 0.160449 0.00825513
0.964828 0.160555 0.00836194
0.981369 0.160662 0.00846876
0.997421 0.160769 0.00856031
1 0.160876 0.00866712
0 0.189197 0.00936904
0 0.189166 0.00933852
0 0.189136 0.009308
0 0.189105 0.00927749
0 0.189075 0.00923171
0 0.189014 0.00918593
0.0120241 0.188602 0.00877394
0.0432288 0.188006 0.00817884
0.0866407 0.187457 0.00762951
0.135088 0.18703 0.007187
0.186816 0.186709 0.0068513
0.241062 0.186465 0.00662242
0.296803 0.186328 0.00646983
0.351598 0.186252 0.00637827
0.406348 0.186236 0.00636301
0.462928 0.186267 0.00639353
0.521019 0.186358 0.00648508
0.578576 0.186496 0.00660716
0.633646 0.186664 0.00677501
0.684855 0.186847 0.00695811
0.731701 0.187045 0.00714122
0.772488 0.187228 0.00732433
0.806424 0.187396 0.00749218
0.835081 0.187549 0.00764477
0.860563 0.187686 0.00776684
0.884108 0.187823 0.00790417
0.906523 0.187945 0.00802625
0.928023 0.188083 0.00816358
0.947509 0.188205 0.00827039
0.965118 0.188312 0.00839246
0.981659 0.188418 0.00848402
0.997711 0.188525 0.00859083
1 0.188632 0.00869764
0 0.219989 0.00936904
0 0.219959 0.00933852
0 0.219928 0.009308
0 0.219898 0.00927749
0 0.219867 0.00924697
0 0.219806 0.00918593
0.0123445 0.219394 0.00877394
0.0435492 0.218814 0.00819409
0.0869612 0.218265 0.00762951
0.135409 0.217823 0.00720226
0.187121 0.217502 0.00686656
0.241367 0.217273 0.00662242
0.297124 0.217121 0.00646983
0.351904 0.217044 0.00639353
0.406653 0.217029 0.00637827
0.463233 0.217075 0.00640879
0.521324 0.217166 0.00650034
0.578882 0.217304 0.00662242
0.633951 0.217472 0.00679026
0.685161 0.217655 0.00697337
0.732006 0.217853 0.00715648
0.772793 0.218036 0.00733959
0.806729 0.218204 0.00750744
0.835386 0.218357 0.00764477
0.860868 0.218494 0.0077821
0.884413 0.218616 0.00791943
0.906828 0.218753 0.0080415
0.928328 0.218875 0.00817884
0.947814 0.218997 0.00828565
0.965423 0.21912 0.00840772
0.981964 0.219226 0.00849927
0.998016 0.219318 0.00860609
1 0.21944 0.0087129
0 0.257481 0.00935378
0 0.25745 0.00932326
0 0.25742 0.00929274
0 0.257389 0.00926223
0 0.257343 0.00921645
7.62951e-05 0.257298 0.00917067
0.0127413 0.256886 0.00875868
0.0439155 0.256306 0.00817884
0.0873274 0.255756 0.00762951
0.13576 0.255329 0.007187
0.187488 0.255009 0.00686656
0.241733 0.254765 0.00662242
0.297475 0.254627 0.00646983
0.35227 0.254551 0.00639353
0.407004 0.254536 0.00636301
0.463584 0.254566 0.00640879
0.521675 0.254658 0.00648508
0.579232 0.254795 0.00662242
0.634302 0.254963 0.00677501
0.685512 0.255146 0.00695811
0.732357 0.255344 0.00715648
0.773144 0.255528 0.00733959
0.80708 0.255695 0.00750744
0.835737 0.255848 0.00764477
0.861219 0.255985 0.0077821
0.884764 0.256123 0.00791943
0.907164 0.25626 0.0080415
0.928679 0.256382 0.00816358
0.948165 0.256504 0.00828565
0.965774 0.256611 0.00839246
0.9823 0.256718 0.00849927
0.998367 0.256825 0.00860609
1 0.256931 0.0087129
0 0.304952 0.009308
0 0.304921 0.00927749
0 0.304891 0.00924697
0 0.304845 0.00920119
0 0.304814 0.00917067
0.000564584 0.304753 0.00910964
0.0131991 0.304356 0.0087129
0.044358 0.303777 0.00813306
0.0877699 0.303227 0.00758373
0.136202 0.3028 0.00715648
0.187915 0.30248 0.00682078
0.242161 0.302251 0.0065919
0.297902 0.302098 0.00642405
0.352697 0.302022 0.00634775
0.407431 0.302007 0.00633249
0.464012 0.302052 0.00636301
0.522103 0.302144 0.00645457
0.579644 0.302281 0.00657664
0.634714 0.302449 0.00674449
0.685924 0.302632 0.0069276
0.732769 0.302831 0.0071107
0.773556 0.303014 0.00730907
0.807492 0.303181 0.00746166
0.836149 0.303334 0.00761425
0.861631 0.303471 0.00775158
0.885176 0.303609 0.00787366
0.907591 0.303731 0.00801099
0.929091 0.303868 0.00813306
0.948577 0.30399 0.00825513
0.966186 0.304097 0.00836194
0.982712 0.304204 0.00846876
0.998779 0.304311 0.00857557
1 0.304417 0.00868238
0 0.35787 0.00921645
0 0.357839 0.00918593
0 0.357809 0.00915541
0 0.357778 0.0091249
0 0.357733 0.00907912
0.00108339 0.357671 0.00901808
0.0136721 0.35729 0.00863661
0.044831 0.35671 0.00805676
0.0882277 0.356161 0.00750744
0.136645 0.355734 0.00708019
0.188357 0.355413 0.00674449
0.242603 0.355184 0.0065156
0.298344 0.355032 0.00636301
0.353124 0.354955 0.00627146
0.407874 0.35494 0.0062562
0.464439 0.354986 0.00628672
0.52253 0.355077 0.00637827
0.580087 0.355215 0.0065156
0.635157 0.355383 0.00666819
0.686366 0.355566 0.0068513
0.733211 0.355764 0.00704967
0.773983 0.355947 0.00723278
0.807919 0.356115 0.00740063
0.836576 0.356268 0.00753796
0.862058 0.356405 0.00767529
0.885603 0.356542 0.00781262
0.908019 0.35668 0.00793469
0.929519 0.356802 0.00805676
0.949004 0.356924 0.00817884
0.966613 0.357031 0.00828565
0.983139 0.357137 0.00839246
0.999207 0.357244 0.00849927
1 0.357351 0.00860609
0 0.410864 0.00910964
0 0.410834 0.00907912
0 0.410788 0.00903334
0 0.410758 0.00900282
0 0.410712 0.00895705
0.00158694 0.410651 0.00889601
0.0141146 0.410269 0.00851453
0.0452583 0.409705 0.00794995
0.0886549 0.409155 0.00740063
0.137072 0.408728 0.00697337
0.188785 0.408408 0.00663767
0.243015 0.408179 0.00640879
0.298756 0.408042 0.0062562
0.353536 0.407965 0.0061799
0.40827 0.40795 0.00614939
0.464851 0.407996 0.00619516
0.522942 0.408087 0.00627146
0.580484 0.408225 0.00640879
0.635554 0.408392 0.00657664
0.686763 0.408576 0.00675975
0.733608 0.408774 0.00694286
0.774395 0.408957 0.00712596
0.808316 0.409125 0.00729381
0.836988 0.409277 0.0074464
0.86247 0.409415 0.00758373
0.886 0.409552 0.00770581
0.908415 0.409674 0.00784314
0.929915 0.409812 0.00796521
0.949401 0.409934 0.00808728
0.96701 0.41004 0.00819409
0.983551 0.410147 0.00830091
0.999603 0.410254 0.00840772
1 0.410361 0.00851453
0 0.46453 0.00895705
0 0.4645 0.00892653
0 0.464454 0.00889601
0 0.464424 0.00885023
0.000411994 0.464378 0.00881971
0.00205997 0.464302 0.00874342
0.0145418 0.463951 0.0083772
0.0456703 0.463371 0.00781262
0.0890516 0.462837 0.00726329
0.137469 0.462409 0.00683604
0.189181 0.462089 0.0065156
0.243412 0.46186 0.00627146
0.299153 0.461723 0.00611887
0.353933 0.461646 0.00604257
0.408667 0.461631 0.00602731
0.465232 0.461677 0.00605783
0.523323 0.461769 0.00614939
0.580865 0.461906 0.00628672
0.635935 0.462074 0.00643931
0.687144 0.462257 0.00662242
0.733989 0.462455 0.00682078
0.774777 0.462638 0.00700389
0.808698 0.462806 0.00717174
0.837354 0.462959 0.00730907
0.862852 0.463096 0.0074464
0.886381 0.463233 0.00758373
0.908797 0.463355 0.00770581
0.930297 0.463493 0.00784314
0.949783 0.463615 0.00794995
0.967391 0.463722 0.00807202
0.983917 0.463828 0.00817884
0.999985 0.463935 0.00827039
1 0.464042 0.0083772
0 0.519173 0.0087892
0 0.519142 0.00875868
0 0.519112 0.00872816
0 0.519066 0.00868238
0.000869764 0.51902 0.00863661
0.00251774 0.518944 0.00856031
0.0149538 0.518593 0.00820935
0.046067 0.518029 0.00764477
0.0894484 0.517494 0.0071107
0.13785 0.517067 0.00668345
0.189548 0.516747 0.00634775
0.243793 0.516518 0.00611887
0.299519 0.516381 0.00596628
0.354299 0.516304 0.00588998
0.409033 0.516289 0.00587472
0.465614 0.516335 0.00590524
0.52369 0.516426 0.0059968
0.581231 0.516564 0.00613413
0.636301 0.516732 0.00628672
0.68751 0.51693 0.00646983
0.734356 0.517113 0.00666819
0.775143 0.517311 0.0068513
0.809064 0.517479 0.00701915
0.83772 0.517632 0.00715648
0.863203 0.517769 0.00729381
0.886748 0.517891 0.00743114
0.909148 0.518029 0.00755322
0.930663 0.518151 0.00769055
0.950134 0.518273 0.00779736
0.967742 0.518395 0.00791943
0.984283 0.518502 0.00802625
1 0.518593 0.0081178
1 0.518715 0.00822461
0 0.571756 0.00860609
0 0.571725 0.00857557
0 0.571694 0.00852979
0.000106813 0.571649 0.00849927
0.00129702 0.571588 0.00843824
0.00291447 0.571527 0.0083772
0.0153353 0.571191 0.00802625
0.0464332 0.570626 0.00746166
0.0897993 0.570092 0.0069276
0.138201 0.569665 0.00650034
0.189899 0.569345 0.0061799
0.244129 0.569116 0.00595102
0.299855 0.568978 0.00579843
0.354635 0.568902 0.00572213
0.409369 0.568887 0.00570687
0.46595 0.568933 0.00573739
0.524025 0.569024 0.00582895
0.581567 0.569162 0.00596628
0.636637 0.569329 0.00611887
0.687846 0.569528 0.00630198
0.734691 0.569711 0.00650034
0.775464 0.569909 0.00668345
0.8094 0.570077 0.0068513
0.838056 0.57023 0.00698863
0.863539 0.570367 0.00712596
0.887068 0.570489 0.00726329
0.909483 0.570626 0.00738537
0.930983 0.570764 0.0075227
0.950469 0.570871 0.00764477
0.968078 0.570993 0.00775158
0.984604 0.571099 0.0078584
1 0.571206 0.00794995
1 0.571313 0.00805676
0 0.619898 0.00842298
0 0.619867 0.00839246
0 0.619821 0.00834669
0.00047303 0.619776 0.00830091
0.00167849 0.61973 0.00825513
0.00326543 0.619669 0.00819409
0.0156558 0.619333 0.0078584
0.0467384 0.618769 0.00729381
0.0901045 0.618235 0.00675975
0.138506 0.617823 0.00633249
0.190204 0.617502 0.00601205
0.244419 0.617273 0.00578317
0.30016 0.617121 0.00563058
0.354925 0.61706 0.00555428
0.409659 0.617044 0.00553903
0.466239 0.61709 0.00556954
0.524315 0.617182 0.0056611
0.581857 0.617319 0.00578317
0.636927 0.617487 0.00595102
0.688121 0.61767 0.00613413
0.734966 0.617868 0.00633249
0.775753 0.618067 0.0065156
0.809689 0.618235 0.00668345
0.838346 0.618372 0.00682078
0.863828 0.618524 0.00695811
0.887358 0.618647 0.00709544
0.909773 0.618784 0.00721752
0.931273 0.618906 0.00735485
0.950759 0.619028 0.00747692
0.968368 0.61915 0.00758373
0.984894 0.619257 0.00769055
1 0.619348 0.0077821
1 0.619471 0.00788891
0 0.662531 0.00825513
0 0.662486 0.00820935
0 0.662455 0.00817884
0.00077821 0.662409 0.00813306
0.00198367 0.662348 0.00807202
0.00357061 0.662287 0.00801099
0.0159457 0.661967 0.00767529
0.047013 0.661402 0.00712596
0.0903639 0.660868 0.0065919
0.138766 0.660456 0.00616464
0.190448 0.660136 0.00584421
0.244678 0.659907 0.00561532
0.300404 0.65977 0.00546273
0.355184 0.659693 0.00538643
0.409918 0.659693 0.00537118
0.466484 0.659724 0.00540169
0.524559 0.659815 0.00549325
0.582101 0.659968 0.00563058
0.637171 0.660136 0.00579843
0.688365 0.660319 0.00598154
0.73521 0.660517 0.00616464
0.775998 0.6607 0.00634775
0.809918 0.660868 0.0065156
0.838575 0.661021 0.00666819
0.864057 0.661158 0.00680552
0.887602 0.661295 0.0069276
0.910002 0.661433 0.00706493
0.931517 0.661555 0.007187
0.950988 0.661677 0.00730907
0.968597 0.661784 0.00741588
0.985138 0.661891 0.0075227
1 0.661997 0.00762951
1 0.662104 0.00773632
0 0.700191 0.00808728
0 0.70016 0.00805676
0 0.700114 0.00801099
0.00106813 0.700069 0.00794995
0.00224308 0.700008 0.00790417
0.00381476 0.699962 0.00784314
0.0161746 0.699626 0.0075227
0.0472419 0.699077 0.00697337
0.0905928 0.698543 0.00643931
0.138979 0.698131 0.00601205
0.190677 0.69781 0.00569161
0.244892 0.697581 0.00546273
0.300618 0.697444 0.00531014
0.355398 0.697368 0.00523384
0.410117 0.697368 0.00521859
0.466682 0.697398 0.0052491
0.524773 0.697505 0.00534066
0.582315 0.697643 0.00547799
0.637369 0.69781 0.00564584
0.688579 0.697993 0.00582895
0.735424 0.698192 0.00601205
0.776196 0.698375 0.00621042
0.810132 0.698543 0.00636301
0.838788 0.698695 0.0065156
0.864271 0.698833 0.00665293
0.8878 0.69897 0.00679026
0.910216 0.699107 0.00691234
0.931716 0.699229 0.00703441
0.951202 0.699351 0.00715648
0.968811 0.699458 0.00726329
0.985336 0.699565 0.00737011
1 0.699672 0.00747692
1 0.699794 0.00758373
0 0.73373 0.00793469
0 0.7337 0.00790417
0.000106813 0.733654 0.0078584
0.00131228 0.733593 0.00779736
0.00247196 0.733547 0.00775158
0.00402838 0.733486 0.00769055
0.0163882 0.733166 0.00737011
0.0474403 0.732616 0.00682078
0.0907759 0.732097 0.00628672
0.139162 0.73167 0.00585946
0.19086 0.731365 0.00553903
0.245075 0.731136 0.00531014
0.300801 0.730983 0.00517281
0.355581 0.730922 0.00509651
0.4103 0.730907 0.00508125
0.466865 0.730953 0.00511177
0.524941 0.731044 0.00520333
0.582483 0.731182 0.00534066
0.637552 0.73135 0.00550851
0.688762 0.731548 0.00569161
0.735592 0.731746 0.00587472
0.776379 0.731929 0.00605783
0.8103 0.732097 0.00622568
0.838956 0.73225 0.00637827
0.864439 0.732387 0.0065156
0.887984 0.732525 0.00663767
0.910384 0.732647 0.00677501
0.931884 0.732784 0.00689708
0.95137 0.732906 0.00701915
0.968978 0.733013 0.00712596
0.985519 0.73312 0.00723278
1 0.733227 0.00733959
1 0.733333 0.0074464
0 0.764584 0.00779736
0 0.764553 0.00775158
0.000320439 0.764508 0.00770581
0.00151064 0.764446 0.00764477
0.00267033 0.764401 0.00759899
0.00422675 0.76434 0.00755322
0.0165713 0.764035 0.00723278
0.0476081 0.763485 0.00668345
0.0909438 0.762951 0.00614939
0.13933 0.762539 0.00572213
0.191028 0.762219 0.00541695
0.245243 0.76199 0.00517281
0.300969 0.761852 0.00503548
0.355734 0.761776 0.00495918
0.410468 0.761776 0.00494392
0.467033 0.761807 0.00497444
0.525109 0.761913 0.005066
0.58265 0.762051 0.00520333
0.637705 0.762219 0.00537118
0.688914 0.762402 0.00555428
0.735759 0.7626 0.00573739
0.776532 0.762798 0.00593576
0.810468 0.762966 0.00608835
0.839124 0.763104 0.00624094
0.864607 0.763256 0.00637827
0.888136 0.763378 0.0065156
0.910536 0.763516 0.00663767
0.932052 0.763638 0.00675975
0.951522 0.76376 0.00688182
0.969131 0.763882 0.00698863
0.985672 0.763989 0.00709544
1 0.764096 0.00720226
1 0.764202 0.00730907
0 0.79353 0.00764477
0 0.793484 0.00761425
0.000518807 0.793439 0.00756847
0.00170901 0.793378 0.00750744
0.00285344 0.793332 0.00746166
0.00440986 0.793286 0.00741588
0.0167391 0.792966 0.00709544
0.047776 0.792432 0.00654612
0.0911116 0.791897 0.00601205
0.139483 0.791485 0.00560006
0.19118 0.791165 0.00527962
0.245396 0.790936 0.00505074
0.301122 0.790799 0.00489815
0.355886 0.790738 0.00482185
0.410605 0.790722 0.00480659
0.46717 0.790768 0.00485237
0.525246 0.79086 0.00494392
0.582788 0.790997 0.005066
0.637858 0.791165 0.00523384
0.689052 0.791363 0.00541695
0.735897 0.791547 0.00561532
0.776684 0.791745 0.00579843
0.810605 0.791913 0.00596628
0.839261 0.792065 0.00611887
0.864744 0.792203 0.0062562
0.888273 0.79234 0.00637827
0.910689 0.792462 0.0065156
0.932189 0.792599 0.00663767
0.951675 0.792721 0.00675975
0.969284 0.792828 0.00686656
0.985809 0.792935 0.00697337
1 0.793042 0.00708019
1 0.793149 0.007187
0 0.821118 0.00750744
0 0.821073 0.00747692
0.000701915 0.821027 0.00741588
0.00187686 0.820966 0.00737011
0.00302129 0.820935 0.00732433
0.00457771 0.820874 0.00727855
0.0168917 0.820569 0.00695811
0.0479133 0.82002 0.00640879
0.091249 0.819501 0.00588998
0.139635 0.819089 0.00546273
0.191318 0.818769 0.00514229
0.245533 0.81854 0.00491341
0.301259 0.818402 0.00477607
0.356023 0.818326 0.00469978
0.410742 0.818326 0.00468452
0.467308 0.818372 0.00471504
0.525383 0.818463 0.00480659
0.582925 0.818601 0.00494392
0.637995 0.818769 0.00511177
0.689189 0.818967 0.00529488
0.736034 0.81915 0.00549325
0.776806 0.819348 0.00567636
0.810742 0.819516 0.00582895
0.839399 0.819669 0.00598154
0.864881 0.819806 0.00611887
0.888411 0.819944 0.0062562
0.910811 0.820066 0.00637827
0.932326 0.820203 0.0065156
0.951797 0.820325 0.00662242
0.969406 0.820432 0.00674449
0.985946 0.820539 0.00683604
1 0.820645 0.00694286
1 0.820752 0.00704967
0 0.847822 0.00737011
0 0.847776 0.00733959
0.000885023 0.847715 0.00727855
0.00204471 0.847669 0.00723278
0.00317388 0.847639 0.007187
0.0047303 0.847578 0.00714122
0.0170291 0.847272 0.00683604
0.0480659 0.846723 0.00628672
0.0913863 0.846204 0.00575265
0.139773 0.845792 0.00534066
0.19144 0.845472 0.00502022
0.245655 0.845258 0.00479133
0.301381 0.845106 0.00463874
0.356146 0.845045 0.00456245
0.41088 0.845029 0.00454719
0.467445 0.845075 0.00459297
0.525521 0.845167 0.00468452
0.583062 0.845304 0.00482185
0.638117 0.845487 0.00497444
0.689311 0.84567 0.00517281
0.736156 0.845869 0.00535592
0.776928 0.846052 0.00553903
0.810864 0.84622 0.00570687
0.839521 0.846372 0.00585946
0.865003 0.84651 0.0059968
0.888533 0.846647 0.00611887
0.910948 0.846784 0.0062562
0.932448 0.846906 0.00637827
0.951919 0.847028 0.00650034
0.969528 0.847135 0.00660716
0.986068 0.847242 0.00671397
1 0.847349 0.00682078
1 0.847456 0.0069276
