pic/松下lut/LUTs/Retrostyle709.cube
TITLE "Generated by Resolve"
#LUMIXPHOTOSTYLE 709L
LUT_3D_SIZE 5
0 0.0355077 0.00894179
0.0846571 0.033753 0.007187
0.519081 0.032639 0.00602731
0.858656 0.0339513 0.00730907
1 0.0348974 0.00823987
0 0.16144 0.00933852
0.0863355 0.159716 0.00759899
0.520729 0.158602 0.00645457
0.860273 0.15993 0.00775158
1 0.160876 0.00866712
0 0.519173 0.0087892
0.0894484 0.517494 0.0071107
0.52369 0.516426 0.0059968
0.863203 0.517769 0.00729381
1 0.518715 0.00822461
0 0.821118 0.00750744
0.091249 0.819501 0.00588998
0.525383 0.818463 0.00480659
0.864881 0.819806 0.00611887
1 0.820752 0.00704967
0 1 0.00648508
0.0921492 1 0.00491341
0.526223 1 0.00386053
0.86569 1 0.00517281
1 1 0.00610361
0 0.0365301 0.195315
0.0859083 0.0347906 0.193545
0.520317 0.0336767 0.19237
0.859876 0.0350042 0.193622
1 0.0359503 0.194537
0 0.162478 0.195682
0.0875868 0.160754 0.193927
0.521965 0.159655 0.192767
0.861509 0.160983 0.194034
1 0.161929 0.194949
0 0.520211 0.195026
0.0906996 0.518547 0.193347
0.524926 0.517479 0.192203
0.864454 0.518822 0.193484
1 0.519768 0.194415
0 0.822156 0.193668
0.0925154 0.820554 0.19205
0.526635 0.819516 0.190936
0.866117 0.820859 0.192233
1 0.82182 0.193149
0.000808728 1 0.192599
0.0934157 1 0.191028
0.527474 1 0.189929
0.866941 1 0.191226
1 1 0.192157
0 0.0367437 0.48838
0.0864271 0.0350042 0.486625
0.520821 0.0338903 0.485435
0.86038 0.0352178 0.486686
1 0.0361639 0.487602
0 0.162676 0.488731
0.0881056 0.160967 0.486992
0.522469 0.159869 0.485817
0.862013 0.161196 0.487083
1 0.162142 0.487999
0 0.520424 0.48806
0.0912184 0.518761 0.486381
0.525429 0.517693 0.485237
0.864942 0.519036 0.486503
1 0.519982 0.487419
0.000274662 0.82237 0.486671
0.0930343 0.820768 0.485054
0.527138 0.819745 0.48394
0.866621 0.821088 0.485222
1 0.822034 0.486137
0.00141909 1 0.485557
0.0939345 1 0.484016
0.527977 1 0.482918
0.867445 1 0.484215
1 1 0.48513
0 0.0363317 0.770703
0.0863203 0.0346075 0.768948
0.520699 0.0335088 0.767758
0.860258 0.0348363 0.769009
1 0.0357824 0.769924
0 0.16228 0.771054
0.088014 0.160571 0.769314
0.522347 0.159487 0.768139
0.861891 0.160815 0.769406
1 0.161761 0.770306
0 0.520012 0.770352
0.0911116 0.518364 0.768673
0.525322 0.517311 0.767544
0.86482 0.518654 0.768811
1 0.5196 0.769726
0.000228885 0.821958 0.768948
0.0929274 0.820386 0.767346
0.527016 0.819364 0.766232
0.866499 0.820706 0.767514
1 0.821653 0.768429
0.00137331 1 0.767834
0.093843 1 0.766293
0.527855 1 0.765209
0.867323 1 0.766491
1 1 0.767407
0 0.0357977 0.98677
0.0859998 0.0340734 0.985016
0.520363 0.0329747 0.983825
0.859922 0.0343023 0.985077
1 0.0352483 0.985992
0 0.161746 0.987106
0.0876936 0.160037 0.985382
0.522011 0.158953 0.984207
0.86154 0.160281 0.985458
1 0.161227 0.986374
0 0.519478 0.986404
0.0907912 0.51783 0.984741
0.524987 0.516777 0.983597
0.864485 0.51812 0.984863
1 0.519081 0.985779
0 0.821408 0.984985
0.092607 0.819837 0.983398
0.526696 0.81883 0.982284
0.866163 0.820172 0.983566
1 0.821134 0.984482
0.00109865 1 0.983871
0.0935225 1 0.982345
0.52752 1 0.981247
0.866972 1 0.982528
1 1 0.983459
