pic/松下lut/LUTs/Style For Camping.cube
TITLE "Generated by Resolve"
#LUMIXPHOTOSTYLE VLOG
LUT_3D_SIZE 5
0.112535 0.0950179 0.0858015
0.250278 0.135058 0.0897536
0.785992 0.251026 0.0982528
0.867277 0.254322 0.098497
0.867277 0.254322 0.098497
0.112245 0.161898 0.0586557
0.150149 0.142458 0.0459602
0.771313 0.250614 0.0975052
0.867277 0.254322 0.098497
0.867277 0.254322 0.098497
0.173648 0.536995 0.165072
0.172396 0.530892 0.163821
0.683436 0.650019 0.261601
0.866438 0.453727 0.182956
0.867079 0.428763 0.172015
0.207828 0.729763 0.174929
0.207828 0.729763 0.174929
0.207828 0.729763 0.174929
0.916411 0.853407 0.308537
0.917464 0.844694 0.299977
0.207828 0.729763 0.174929
0.207828 0.729763 0.174929
0.207828 0.729763 0.174929
0.900404 0.876326 0.322576
0.915709 0.857954 0.302419
0.0882277 0.0801099 0.128649
0.23772 0.123873 0.136553
0.792966 0.252766 0.114778
0.872389 0.254215 0.105653
0.871778 0.255329 0.102083
0.117571 0.16759 0.138735
0.131579 0.136385 0.115801
0.773999 0.251347 0.103975
0.872038 0.252522 0.0998398
0.86804 0.25594 0.102037
0.172641 0.532128 0.164065
0.171389 0.525948 0.162829
0.676356 0.643275 0.259144
0.866163 0.447257 0.180072
0.867231 0.421515 0.168429
0.207828 0.729763 0.174929
0.207828 0.729763 0.174929
0.207828 0.729763 0.174929
0.916014 0.852064 0.308522
0.917784 0.843061 0.299596
0.207828 0.729763 0.174929
0.207828 0.729763 0.174929
0.207828 0.729763 0.174929
0.89955 0.877638 0.323186
0.915709 0.857954 0.302419
0.151308 0.304417 0.626383
0.163439 0.301045 0.624811
0.821103 0.38349 0.61561
0.930358 0.368414 0.526848
0.930022 0.368215 0.520912
0.147982 0.30161 0.61944
0.149035 0.302586 0.617761
0.806302 0.386831 0.610773
0.929717 0.36791 0.515129
0.929397 0.36759 0.509331
0.371298 0.659907 0.706569
0.369696 0.654032 0.706889
0.578332 0.632547 0.676555
0.920073 0.422187 0.422873
0.922057 0.401968 0.409537
0.229862 0.745525 0.344717
0.228901 0.745327 0.341146
0.225193 0.744106 0.323537
0.91107 0.857847 0.398932
0.925277 0.842741 0.387991
0.218891 0.740902 0.287587
0.21857 0.740642 0.285298
0.217777 0.739254 0.276127
0.88751 0.888609 0.390921
0.925872 0.858808 0.378958
0.22739 0.375692 0.833692
0.22739 0.375692 0.833524
0.726268 0.371908 0.87216
0.926406 0.415427 0.875669
0.926406 0.415427 0.87512
0.22739 0.375692 0.832624
0.22739 0.375692 0.832441
0.686503 0.369528 0.865858
0.926406 0.415427 0.874586
0.926406 0.415427 0.874037
0.34435 0.586923 0.870558
0.341436 0.57792 0.868681
0.426261 0.519051 0.847089
0.923629 0.465309 0.869108
0.925841 0.44773 0.867399
0.444617 0.864332 0.882109
0.444617 0.863142 0.881926
0.444617 0.857069 0.88098
0.89131 0.894789 0.908263
0.922805 0.889052 0.909041
0.44062 0.86424 0.877424
0.44007 0.86392 0.877089
0.437415 0.862394 0.875364
0.848402 0.9187 0.900481
0.922469 0.922942 0.905791
0.22739 0.375692 0.834821
0.22739 0.375692 0.834821
0.708263 0.370718 0.872206
0.926406 0.415427 0.879637
0.926406 0.415427 0.879637
0.22739 0.375692 0.834821
0.22739 0.375692 0.834821
0.664546 0.368124 0.865705
0.926406 0.415427 0.879637
0.926406 0.415427 0.879637
0.334966 0.564309 0.871275
0.328862 0.553185 0.866545
0.395315 0.496239 0.850599
0.925246 0.450721 0.878874
0.928008 0.441154 0.878401
0.444617 0.861402 0.901152
0.444617 0.860212 0.901152
0.444282 0.853834 0.901778
0.887938 0.892103 0.933196
0.923125 0.883192 0.931914
0.444617 0.866545 0.901152
0.444617 0.866545 0.901152
0.444617 0.866545 0.901152
0.848173 0.920806 0.930617
0.924056 0.924041 0.934386
