pic/松下lut/LUTs/Style For Camping.cube
TITLE "Generated by Resolve"
#LUMIXPHOTOSTYLE VLOG
LUT_3D_SIZE 9
0.112535 0.0950179 0.0858015
0.13576 0.0965744 0.0848859
0.250278 0.135058 0.0897536
0.530617 0.210056 0.0972305
0.785992 0.251026 0.0982528
0.867277 0.254322 0.098497
0.867277 0.254322 0.098497
0.867277 0.254322 0.098497
0.867277 0.254322 0.098497
0.100679 0.0852064 0.0654459
0.111254 0.0936904 0.0823682
0.214176 0.121065 0.0871901
0.510643 0.208225 0.0986648
0.779812 0.251011 0.0978103
0.867277 0.254322 0.098497
0.867277 0.254322 0.098497
0.867277 0.254322 0.098497
0.867277 0.254322 0.098497
0.112245 0.161898 0.0586557
0.109697 0.149813 0.047013
0.150149 0.142458 0.0459602
0.442283 0.203464 0.0818494
0.771313 0.250614 0.0975052
0.867277 0.254322 0.098497
0.867277 0.254322 0.098497
0.867277 0.254322 0.098497
0.867277 0.254322 0.098497
0.124712 0.325292 0.130938
0.124468 0.320577 0.129686
0.124178 0.314717 0.128145
0.407736 0.392447 0.16347
0.698558 0.321904 0.124819
0.868894 0.283589 0.098558
0.868238 0.254643 0.0973526
0.867277 0.254322 0.098497
0.867277 0.254322 0.098497
0.173648 0.536995 0.165072
0.173083 0.534249 0.164508
0.172396 0.530892 0.163821
0.170504 0.521675 0.161959
0.683436 0.650019 0.261601
0.844404 0.506844 0.213321
0.866438 0.453727 0.182956
0.866697 0.435569 0.175036
0.867079 0.428763 0.172015
0.208484 0.692668 0.18114
0.208179 0.691478 0.180545
0.207813 0.690013 0.179812
0.206836 0.686107 0.177874
0.268589 0.665583 0.172885
0.856199 0.804791 0.307561
0.920348 0.756024 0.282521
0.919661 0.746288 0.282292
0.919402 0.742718 0.282124
0.207828 0.729763 0.174929
0.207828 0.729763 0.174929
0.207828 0.729763 0.174929
0.207828 0.729763 0.174929
0.207828 0.729763 0.174929
0.669902 0.830991 0.255863
0.916411 0.853407 0.308537
0.917082 0.846479 0.300542
0.917464 0.844694 0.299977
0.207828 0.729763 0.174929
0.207828 0.729763 0.174929
0.207828 0.729763 0.174929
0.207828 0.729763 0.174929
0.207828 0.729763 0.174929
0.531518 0.784466 0.206851
0.904692 0.870893 0.318837
0.915709 0.857954 0.302419
0.915709 0.857954 0.302419
0.207828 0.729763 0.174929
0.207828 0.729763 0.174929
0.207828 0.729763 0.174929
0.207828 0.729763 0.174929
0.207828 0.729763 0.174929
0.457877 0.759503 0.184771
0.900404 0.876326 0.322576
0.915709 0.857954 0.302419
0.915709 0.857954 0.302419
0.112184 0.0945296 0.087068
0.129244 0.0957961 0.0864729
0.245426 0.132692 0.089601
0.528206 0.209964 0.0979782
0.785183 0.251087 0.0982528
0.867277 0.254322 0.098497
0.867277 0.254322 0.098497
0.867277 0.254322 0.098497
0.867277 0.254322 0.098497
0.109468 0.0931258 0.081117
0.112535 0.0950179 0.0858015
0.208255 0.119448 0.0872969
0.507347 0.208011 0.0989395
0.778759 0.250996 0.0977188
0.867277 0.254322 0.098497
0.867277 0.254322 0.098497
0.867277 0.254322 0.098497
0.867277 0.254322 0.098497
0.110262 0.151995 0.0490272
0.107332 0.140993 0.0390326
0.143694 0.13193 0.0406653
0.441764 0.199145 0.0805676
0.770108 0.250538 0.0975204
0.867277 0.254322 0.098497
0.867277 0.254322 0.098497
0.867277 0.254322 0.098497
0.867277 0.254322 0.098497
0.124514 0.321538 0.129946
0.124285 0.316762 0.128679
0.123995 0.310857 0.127138
0.403372 0.386572 0.161425
0.697383 0.319341 0.123568
0.867323 0.280797 0.0977188
0.867277 0.254322 0.098497
0.867277 0.254322 0.098497
0.867277 0.254322 0.098497
0.17319 0.534813 0.164614
0.172625 0.532036 0.164034
0.171939 0.528679 0.163363
0.170047 0.519417 0.161532
0.680018 0.64686 0.260426
0.843565 0.504402 0.212406
0.8663 0.450858 0.181674
0.866911 0.432639 0.1738
0.867155 0.425528 0.170428
0.20824 0.691707 0.180652
0.20795 0.690532 0.180072
0.207584 0.689082 0.179339
0.206607 0.685161 0.177417
0.266957 0.664179 0.172549
0.855299 0.803632 0.30721
0.920256 0.754498 0.282521
0.919554 0.744732 0.282216
0.91928 0.741146 0.282048
0.207828 0.729763 0.174929
0.207828 0.729763 0.174929
0.207828 0.729763 0.174929
0.207828 0.729763 0.174929
0.207828 0.729763 0.174929
0.666178 0.82919 0.254505
0.916243 0.852796 0.308522
0.917266 0.845685 0.300298
0.917601 0.843946 0.299779
0.207828 0.729763 0.174929
0.207828 0.729763 0.174929
0.207828 0.729763 0.174929
0.207828 0.729763 0.174929
0.207828 0.729763 0.174929
0.525841 0.782742 0.205035
0.904326 0.871351 0.319173
0.915709 0.857954 0.302419
0.915709 0.857954 0.302419
0.207828 0.729763 0.174929
0.207828 0.729763 0.174929
0.207828 0.729763 0.174929
0.207828 0.729763 0.174929
0.207828 0.729763 0.174929
0.451164 0.757198 0.182773
0.900023 0.876921 0.32285
0.915709 0.857954 0.302419
0.915709 0.857954 0.302419
0.0882277 0.0801099 0.128649
0.0961166 0.0803693 0.128771
0.23772 0.123873 0.136553
0.524178 0.201785 0.125261
0.792966 0.252766 0.114778
0.873472 0.253376 0.112383
0.872389 0.254215 0.105653
0.871916 0.254917 0.102998
0.871778 0.255329 0.102083
0.0868086 0.0743572 0.118502
0.0865949 0.0731823 0.116747
0.194461 0.105409 0.127611
0.498878 0.197131 0.118853
0.785458 0.252644 0.110216
0.872938 0.254673 0.108141
0.871839 0.255177 0.102434
0.871916 0.253727 0.100603
0.872023 0.252857 0.100038
0.117571 0.16759 0.138735
0.111131 0.151888 0.131044
0.131579 0.136385 0.115801
0.478126 0.201144 0.106462
0.773999 0.251347 0.103975
0.872053 0.254536 0.103838
0.872038 0.252522 0.0998398
0.869062 0.2551 0.101518
0.86804 0.25594 0.102037
0.123552 0.320836 0.140948
0.12314 0.31548 0.139864
0.122637 0.308797 0.138674
0.39855 0.380972 0.168643
0.696651 0.316854 0.128344
0.867582 0.278447 0.0978866
0.867277 0.254322 0.098497
0.867277 0.254322 0.098497
0.867277 0.254322 0.098497
0.172641 0.532128 0.164065
0.172076 0.529351 0.1635
0.171389 0.525948 0.162829
0.169497 0.51667 0.161135
0.676356 0.643275 0.259144
0.842512 0.501396 0.211292
0.866163 0.447257 0.180072
0.867094 0.428885 0.172076
0.867231 0.421515 0.168429
0.20795 0.690562 0.180087
0.20766 0.689372 0.179492
0.207294 0.687922 0.178775
0.206317 0.684001 0.176822
0.264958 0.662455 0.172122
0.854185 0.802213 0.306767
0.920134 0.752667 0.282536
0.919417 0.742809 0.282124
0.919142 0.739193 0.281971
0.207828 0.729763 0.174929
0.207828 0.729763 0.174929
0.207828 0.729763 0.174929
0.207828 0.729763 0.174929
0.207828 0.729763 0.174929
0.661555 0.826963 0.252827
0.916014 0.852064 0.308522
0.917464 0.844724 0.299992
0.917784 0.843061 0.299596
0.207828 0.729763 0.174929
0.207828 0.729763 0.174929
0.207828 0.729763 0.174929
0.207828 0.729763 0.174929
0.207828 0.729763 0.174929
0.518364 0.780285 0.202747
0.903868 0.871916 0.31957
0.915709 0.857954 0.302419
0.915709 0.857954 0.302419
0.207828 0.729763 0.174929
0.207828 0.729763 0.174929
0.207828 0.729763 0.174929
0.207828 0.729763 0.174929
0.207828 0.729763 0.174929
0.442832 0.75433 0.180301
0.89955 0.877638 0.323186
0.915709 0.857954 0.302419
0.915709 0.857954 0.302419
0.113527 0.227619 0.383261
0.11545 0.227405 0.381918
0.168154 0.216709 0.378332
0.560418 0.283284 0.38146
0.798428 0.292912 0.293309
0.911833 0.272221 0.190265
0.910048 0.270588 0.181643
0.909026 0.27216 0.180148
0.90866 0.27274 0.179599
0.11368 0.226612 0.376699
0.113695 0.226459 0.375647
0.147448 0.215076 0.373037
0.530144 0.271748 0.373297
0.791012 0.294057 0.289494
0.910872 0.269306 0.182864
0.908797 0.272526 0.179812
0.907759 0.274144 0.178286
0.907439 0.274937 0.177951
0.112474 0.212726 0.38381
0.11104 0.211994 0.392203
0.120592 0.217762 0.406104
0.486915 0.253208 0.360418
0.781994 0.295521 0.285206
0.909377 0.271641 0.180652
0.907332 0.275257 0.177844
0.906523 0.277714 0.177066
0.906218 0.27863 0.176776
0.256809 0.429297 0.471199
0.255818 0.424994 0.471687
0.254185 0.417487 0.46865
0.326665 0.382071 0.418891
0.72079 0.306386 0.22504
0.904677 0.282277 0.157504
0.903975 0.285374 0.17464
0.903105 0.287984 0.173816
0.9028 0.288914 0.17351
0.187945 0.534478 0.251377
0.187396 0.532006 0.250843
0.186694 0.528862 0.250202
0.184619 0.520058 0.248173
0.654887 0.62739 0.296284
0.84184 0.498466 0.241901
0.871443 0.441978 0.204562
0.872343 0.421164 0.194476
0.872618 0.411093 0.188373
0.208865 0.686091 0.192798
0.208896 0.684962 0.192248
0.208927 0.683589 0.191592
0.208988 0.679866 0.189929
0.257694 0.659953 0.185229
0.850294 0.797513 0.317205
0.920073 0.746303 0.290059
0.919158 0.7364 0.287419
0.918685 0.732479 0.286015
0.207828 0.729763 0.174929
0.207828 0.729763 0.174929
0.207828 0.729763 0.174929
0.207828 0.729763 0.174929
0.207828 0.729763 0.174929
0.648966 0.820905 0.248234
0.914946 0.850233 0.308553
0.917906 0.842313 0.299443
0.918196 0.840665 0.299107
0.207828 0.729763 0.174929
0.207828 0.729763 0.174929
0.207828 0.729763 0.174929
0.207828 0.729763 0.174929
0.207828 0.729763 0.174929
0.496757 0.772869 0.196338
0.902617 0.873442 0.320668
0.915709 0.857954 0.302419
0.915709 0.857954 0.302419
0.207828 0.729763 0.174929
0.207828 0.729763 0.174929
0.207828 0.729763 0.174929
0.207828 0.729763 0.174929
0.207828 0.729763 0.174929
0.420279 0.746563 0.173571
0.898283 0.879591 0.324117
0.915709 0.857954 0.302419
0.915709 0.857954 0.302419
0.151308 0.304417 0.626383
0.151171 0.304311 0.625879
0.163439 0.301045 0.624811
0.362036 0.309789 0.582406
0.821103 0.38349 0.61561
0.930877 0.368673 0.535882
0.930358 0.368414 0.526848
0.930114 0.368277 0.522484
0.930022 0.368215 0.520912
0.150423 0.303716 0.623056
0.150286 0.303593 0.622553
0.15552 0.30454 0.619821
0.327718 0.30605 0.57641
0.814817 0.38529 0.613764
0.930571 0.368505 0.53051
0.930053 0.368246 0.521492
0.929824 0.368017 0.51725
0.929747 0.367941 0.515709
0.147982 0.30161 0.61944
0.149203 0.302708 0.618463
0.149035 0.302586 0.617761
0.295247 0.300221 0.576974
0.806302 0.386831 0.610773
0.93019 0.368322 0.523903
0.929717 0.36791 0.515129
0.929488 0.367681 0.510872
0.929397 0.36759 0.509331
0.153735 0.32401 0.598932
0.150317 0.320012 0.597681
0.145968 0.314961 0.596078
0.192065 0.313542 0.605631
0.755917 0.362783 0.591562
0.923873 0.367407 0.50486
0.928771 0.366979 0.497841
0.92874 0.365911 0.495277
0.92874 0.365454 0.494423
0.371298 0.659907 0.706569
0.370581 0.657298 0.706722
0.369696 0.654032 0.706889
0.366827 0.643397 0.705943
0.578332 0.632547 0.676555
0.8822 0.492515 0.491981
0.920073 0.422187 0.422873
0.921599 0.405783 0.411856
0.922057 0.401968 0.409537
0.321187 0.735943 0.548959
0.321569 0.735363 0.550103
0.322011 0.73463 0.551461
0.323217 0.732616 0.555138
0.353155 0.711543 0.535332
0.826978 0.820294 0.551171
0.915282 0.748898 0.445869
0.911879 0.735668 0.440574
0.910613 0.730785 0.438636
0.229862 0.745525 0.344717
0.229419 0.745434 0.343084
0.228901 0.745327 0.341146
0.227787 0.744991 0.336065
0.225193 0.744106 0.323537
0.567315 0.790845 0.30695
0.91107 0.857847 0.398932
0.925628 0.844404 0.389303
0.925277 0.842741 0.387991
0.220386 0.742184 0.298741
0.220249 0.742077 0.297765
0.220081 0.741924 0.296529
0.219654 0.741558 0.293248
0.21857 0.740642 0.285206
0.380285 0.737102 0.238529
0.896284 0.885542 0.392462
0.925856 0.859983 0.382269
0.925856 0.859831 0.381811
0.218891 0.740902 0.287587
0.218738 0.740795 0.286534
0.21857 0.740642 0.285298
0.218128 0.740261 0.281941
0.217777 0.739254 0.276127
0.345571 0.73283 0.232822
0.88751 0.888609 0.390921
0.925811 0.859037 0.379431
0.925872 0.858808 0.378958
0.174426 0.332464 0.771786
0.174228 0.33225 0.771603
0.175174 0.331548 0.771237
0.278737 0.332921 0.772457
0.759808 0.351965 0.817441
0.930266 0.400473 0.815152
0.930648 0.398474 0.812741
0.930831 0.397482 0.811551
0.930892 0.397101 0.811109
0.173251 0.331197 0.770733
0.173053 0.330983 0.77055
0.172824 0.330724 0.770352
0.254154 0.333761 0.774014
0.746624 0.347662 0.815167
0.93051 0.399298 0.813718
0.930861 0.397238 0.811276
0.931044 0.396246 0.810086
0.931105 0.395911 0.809674
0.171801 0.329641 0.769451
0.171618 0.329427 0.769268
0.171389 0.329168 0.76907
0.234287 0.331334 0.7738
0.728359 0.343984 0.812634
0.928512 0.397513 0.811734
0.931136 0.395773 0.809506
0.931319 0.394751 0.808301
0.93138 0.3944 0.807889
0.167086 0.352117 0.765454
0.167056 0.349462 0.765805
0.167025 0.34612 0.766262
0.192767 0.338842 0.764233
0.66659 0.336461 0.80209
0.921736 0.392859 0.806577
0.931853 0.391699 0.804669
0.932021 0.390845 0.803494
0.932097 0.390555 0.803052
0.339223 0.608194 0.832532
0.336583 0.604257 0.831037
0.333394 0.599481 0.829221
0.324605 0.586587 0.824063
0.439033 0.52903 0.787182
0.880018 0.483497 0.788525
0.935424 0.456611 0.767254
0.93669 0.450706 0.768032
0.936904 0.448478 0.768093
0.411444 0.804639 0.831525
0.410895 0.803525 0.83093
0.410193 0.802152 0.830213
0.408301 0.79852 0.82829
0.435111 0.786221 0.826383
0.79826 0.818799 0.84329
0.924895 0.761837 0.814572
0.924849 0.745754 0.809934
0.924865 0.739574 0.807996
0.409857 0.859525 0.813062
0.409751 0.859419 0.812787
0.409583 0.859281 0.81236
0.409125 0.858076 0.811124
0.407904 0.852735 0.807935
0.567193 0.850278 0.785031
0.894804 0.899794 0.81117
0.924254 0.893919 0.798321
0.923888 0.892149 0.798062
0.405951 0.855985 0.802396
0.405814 0.855863 0.802014
0.405661 0.855726 0.801572
0.405234 0.855344 0.800427
0.404211 0.854444 0.797467
0.4972 0.840055 0.758694
0.858778 0.913802 0.780377
0.924681 0.920104 0.775952
0.925124 0.919921 0.775174
0.404517 0.854688 0.798398
0.404395 0.854597 0.798016
0.404242 0.854459 0.797528
0.4038 0.854093 0.796155
0.402777 0.853239 0.792981
0.491218 0.839094 0.757671
0.844526 0.910903 0.773541
0.919615 0.920104 0.770352
0.925048 0.919921 0.769772
0.22739 0.375692 0.833692
0.22739 0.375692 0.833616
0.22739 0.375692 0.833524
0.281621 0.371283 0.832853
0.726268 0.371908 0.87216
0.925353 0.415427 0.876478
0.926406 0.415427 0.875669
0.926406 0.415427 0.875273
0.926406 0.415427 0.87512
0.22739 0.375692 0.833219
0.22739 0.375692 0.833127
0.22739 0.375692 0.833036
0.26685 0.369314 0.829618
0.709529 0.370779 0.869688
0.923186 0.415427 0.87599
0.926406 0.415427 0.875181
0.926406 0.415427 0.874784
0.926406 0.415427 0.874632
0.22739 0.375692 0.832624
0.22739 0.375692 0.832547
0.22739 0.375692 0.832441
0.25803 0.37203 0.829389
0.686503 0.369528 0.865858
0.920501 0.415427 0.875395
0.926406 0.415427 0.874586
0.926406 0.415427 0.874174
0.926406 0.415427 0.874037
0.223911 0.370504 0.827008
0.224247 0.367758 0.826932
0.223362 0.363226 0.826841
0.242878 0.377935 0.826963
0.6177 0.36408 0.855161
0.910918 0.413962 0.873762
0.926406 0.415427 0.872953
0.926406 0.415427 0.872557
0.926406 0.415427 0.872419
0.34435 0.586923 0.870558
0.343069 0.582925 0.869734
0.341436 0.57792 0.868681
0.334646 0.563729 0.862867
0.426261 0.519051 0.847089
0.862562 0.489601 0.876066
0.923629 0.465309 0.869108
0.925093 0.452003 0.867964
0.925841 0.44773 0.867399
0.432654 0.807843 0.895232
0.432731 0.807187 0.895521
0.432761 0.806149 0.895689
0.432441 0.80235 0.895338
0.448447 0.78938 0.893309
0.786374 0.805829 0.904585
0.925719 0.77966 0.906691
0.925078 0.767224 0.90483
0.924865 0.762661 0.904158
0.444617 0.864332 0.882109
0.444617 0.863798 0.882033
0.444617 0.863142 0.881926
0.444617 0.861372 0.881651
0.444617 0.857069 0.88098
0.620264 0.869413 0.894682
0.89131 0.894789 0.908263
0.922637 0.890913 0.909377
0.922805 0.889052 0.909041
0.443229 0.865736 0.879118
0.443 0.865599 0.878981
0.44271 0.865446 0.878782
0.441932 0.864988 0.878279
0.44007 0.86392 0.877073
0.538949 0.866178 0.878157
0.864424 0.920256 0.904463
0.919463 0.920043 0.908721
0.923552 0.919066 0.907835
0.44062 0.86424 0.877424
0.440391 0.864103 0.877287
0.44007 0.86392 0.877089
0.439323 0.863493 0.876585
0.437415 0.862394 0.875364
0.527581 0.864027 0.875746
0.848402 0.9187 0.900481
0.91339 0.922652 0.906386
0.922469 0.922942 0.905791
0.22739 0.375692 0.834821
0.22739 0.375692 0.834821
0.22739 0.375692 0.834821
0.269108 0.369284 0.831998
0.713436 0.370947 0.872862
0.923613 0.415427 0.879637
0.926406 0.415427 0.879637
0.926406 0.415427 0.879637
0.926406 0.415427 0.879637
0.22739 0.375692 0.834821
0.22739 0.375692 0.834821
0.22739 0.375692 0.834821
0.26096 0.371725 0.831662
0.695399 0.370092 0.870527
0.921431 0.415427 0.879637
0.926406 0.415427 0.879637
0.926406 0.415427 0.879637
0.926406 0.415427 0.879637
0.22739 0.375692 0.834821
0.22739 0.375692 0.834821
0.22739 0.375692 0.834821
0.256107 0.369818 0.832639
0.670604 0.36849 0.866651
0.91873 0.415427 0.879637
0.926406 0.415427 0.879637
0.926406 0.415427 0.879637
0.926406 0.415427 0.879637
0.226001 0.372061 0.832593
0.227161 0.378943 0.834363
0.227436 0.3785 0.834852
0.234623 0.375647 0.834775
0.600977 0.364614 0.858457
0.908141 0.413321 0.879622
0.926406 0.415427 0.879637
0.926406 0.415427 0.879637
0.926406 0.415427 0.879637
0.338018 0.570626 0.873762
0.335927 0.566293 0.872053
0.333364 0.560967 0.869963
0.32285 0.542931 0.862028
0.401953 0.501808 0.851987
0.859342 0.475532 0.884428
0.924727 0.455222 0.87924
0.926711 0.444022 0.878309
0.927352 0.442161 0.878386
0.432593 0.804135 0.909636
0.432502 0.802991 0.909621
0.43238 0.801587 0.90959
0.43183 0.797559 0.909377
0.439612 0.785061 0.907897
0.778195 0.800443 0.919844
0.922499 0.774609 0.923552
0.923323 0.76173 0.922393
0.923293 0.757107 0.922057
0.444617 0.862181 0.901137
0.444617 0.861646 0.901045
0.444617 0.86099 0.900954
0.444617 0.859205 0.900694
0.444419 0.854734 0.900435
0.618173 0.869337 0.918242
0.889189 0.893339 0.930419
0.922911 0.886885 0.929107
0.923064 0.884901 0.928756
0.444617 0.866545 0.898711
0.444617 0.866545 0.898634
0.444617 0.866545 0.898528
0.444617 0.866545 0.898268
0.444617 0.866545 0.897642
0.537408 0.86479 0.901183
0.86244 0.917708 0.927062
0.917845 0.918181 0.929625
0.924056 0.917357 0.928817
0.444617 0.866545 0.897826
0.444617 0.866545 0.897749
0.444617 0.866545 0.897658
0.444617 0.866545 0.897398
0.444617 0.866545 0.896757
0.527382 0.862943 0.898451
0.850278 0.920806 0.924727
0.912367 0.923415 0.928344
0.924056 0.924041 0.927642
0.22739 0.375692 0.834821
0.22739 0.375692 0.834821
0.22739 0.375692 0.834821
0.266224 0.369543 0.831662
0.708263 0.370718 0.872206
0.922988 0.415427 0.879637
0.926406 0.415427 0.879637
0.926406 0.415427 0.879637
0.926406 0.415427 0.879637
0.22739 0.375692 0.834821
0.22739 0.375692 0.834821
0.22739 0.375692 0.834821
0.258869 0.372259 0.8318
0.68957 0.369726 0.869612
0.92079 0.415427 0.879637
0.926406 0.415427 0.879637
0.926406 0.415427 0.879637
0.926406 0.415427 0.879637
0.22739 0.375692 0.834821
0.22739 0.375692 0.834821
0.22739 0.375692 0.834821
0.256428 0.368673 0.832639
0.664546 0.368124 0.865705
0.91809 0.415427 0.879637
0.926406 0.415427 0.879637
0.926406 0.415427 0.879637
0.926406 0.415427 0.879637
0.22742 0.380224 0.834852
0.227451 0.378012 0.834852
0.22739 0.375799 0.834821
0.231754 0.375662 0.834791
0.594507 0.365148 0.857847
0.907103 0.413062 0.879622
0.926406 0.415427 0.879637
0.926406 0.415427 0.879637
0.926406 0.415427 0.879637
0.334966 0.564309 0.871275
0.332753 0.559838 0.86949
0.328862 0.553185 0.866545
0.317708 0.534432 0.858213
0.395315 0.496239 0.850599
0.858091 0.469947 0.883864
0.925246 0.450721 0.878874
0.927214 0.442496 0.87837
0.928008 0.441154 0.878401
0.432456 0.802472 0.909606
0.432364 0.801328 0.90959
0.432242 0.799893 0.90956
0.431418 0.795666 0.909178
0.436072 0.783581 0.907835
0.774334 0.797421 0.919356
0.921508 0.771252 0.923323
0.923293 0.758038 0.922118
0.923217 0.753277 0.921752
0.444617 0.861402 0.901152
0.444617 0.860868 0.901152
0.444617 0.860212 0.901152
0.444617 0.858412 0.901152
0.444282 0.853834 0.901778
0.615228 0.867781 0.919936
0.887938 0.892103 0.933196
0.923049 0.885313 0.932219
0.923125 0.883192 0.931914
0.444617 0.866545 0.901152
0.444617 0.866545 0.901152
0.444617 0.866545 0.901152
0.444617 0.866545 0.901152
0.444617 0.866545 0.901152
0.535592 0.8645 0.905394
0.860487 0.916732 0.93225
0.917006 0.917311 0.935317
0.924041 0.916579 0.934691
0.444617 0.866545 0.901152
0.444617 0.866545 0.901152
0.444617 0.866545 0.901152
0.444617 0.866545 0.901152
0.444617 0.866545 0.901152
0.525933 0.862623 0.903517
0.848173 0.920806 0.930617
0.91136 0.923293 0.934798
0.924056 0.924041 0.934386
