pic/松下lut/LUTs/Style For Camping.cube
TITLE "Generated by Resolve"
#LUMIXPHOTOSTYLE VLOG
LUT_3D_SIZE 33
0.112535 0.0950179 0.0858015
0.112535 0.0950179 0.0858015
0.112535 0.0950179 0.0858015
0.116121 0.0947585 0.0854505
0.13576 0.0965744 0.0848859
0.158526 0.103777 0.0865644
0.180636 0.11165 0.0877394
0.21207 0.120485 0.0872358
0.250278 0.135058 0.0897536
0.302892 0.154116 0.0933242
0.377127 0.176135 0.0981308
0.454704 0.200381 0.0993668
0.530617 0.210056 0.0972305
0.605203 0.223987 0.09514
0.66891 0.234501 0.0931563
0.732738 0.245701 0.0959182
0.785992 0.251026 0.0982528
0.82649 0.255329 0.100893
0.864683 0.262348 0.10132
0.860319 0.254719 0.0991684
0.867277 0.254322 0.098497
0.867277 0.254322 0.098497
0.867277 0.254322 0.098497
0.867277 0.254322 0.098497
0.867277 0.254322 0.098497
0.867277 0.254322 0.098497
0.867277 0.254322 0.098497
0.867277 0.254322 0.098497
0.867277 0.254322 0.098497
0.867277 0.254322 0.098497
0.867277 0.254322 0.098497
0.867277 0.254322 0.098497
0.867277 0.254322 0.098497
0.112535 0.0950179 0.0858015
0.112535 0.0950179 0.0858015
0.112535 0.0950179 0.0858015
0.114137 0.0949569 0.0857252
0.124804 0.0953078 0.0850996
0.150942 0.100801 0.0859541
0.171374 0.108614 0.0874952
0.202869 0.117968 0.0874189
0.241581 0.131594 0.0890669
0.292515 0.150729 0.0925917
0.367605 0.173541 0.0979629
0.446906 0.198657 0.0991836
0.525933 0.209552 0.0975967
0.60029 0.223209 0.0952468
0.666026 0.234012 0.093492
0.73019 0.245319 0.0957198
0.784772 0.251118 0.0982376
0.824964 0.254963 0.100893
0.863783 0.262287 0.101366
0.859754 0.254749 0.0992142
0.867277 0.254322 0.098497
0.867277 0.254322 0.098497
0.867277 0.254322 0.098497
0.867277 0.254322 0.098497
0.867277 0.254322 0.098497
0.867277 0.254322 0.098497
0.867277 0.254322 0.098497
0.867277 0.254322 0.098497
0.867277 0.254322 0.098497
0.867277 0.254322 0.098497
0.867277 0.254322 0.098497
0.867277 0.254322 0.098497
0.867277 0.254322 0.098497
0.112535 0.0950179 0.0858015
0.112535 0.0950179 0.0858015
0.112535 0.0950179 0.0858015
0.112551 0.0950179 0.0858015
0.11812 0.0946975 0.0852522
0.142489 0.0979171 0.0850996
0.163241 0.105638 0.0869917
0.193225 0.115282 0.0876173
0.232578 0.127977 0.0883497
0.281926 0.14725 0.0918288
0.357351 0.170977 0.097673
0.438911 0.196887 0.0990311
0.521096 0.208957 0.0979171
0.5953 0.222416 0.0953384
0.66305 0.233509 0.0938582
0.727352 0.244785 0.0953994
0.783185 0.251087 0.098085
0.823484 0.254658 0.100679
0.862882 0.262211 0.101396
0.859159 0.25481 0.0992905
0.867277 0.254322 0.098497
0.867277 0.254322 0.098497
0.867277 0.254322 0.098497
0.867277 0.254322 0.098497
0.867277 0.254322 0.098497
0.867277 0.254322 0.098497
0.867277 0.254322 0.098497
0.867277 0.254322 0.098497
0.867277 0.254322 0.098497
0.867277 0.254322 0.098497
0.867277 0.254322 0.098497
0.867277 0.254322 0.098497
0.867277 0.254322 0.098497
0.112535 0.0950179 0.0858015
0.112535 0.0950179 0.0858015
0.112535 0.0950179 0.0858015
0.112535 0.0950179 0.0858015
0.115419 0.0948501 0.0855879
0.131777 0.0960555 0.0849317
0.155886 0.102754 0.0863508
0.182879 0.112291 0.0877241
0.223514 0.124239 0.0875257
0.272725 0.143816 0.091249
0.346868 0.168124 0.0972915
0.4309 0.194232 0.0987869
0.515938 0.208606 0.0982986
0.590265 0.221637 0.0954604
0.659922 0.232975 0.0941329
0.724422 0.244205 0.0949874
0.781521 0.251057 0.0979324
0.821942 0.254322 0.10042
0.861967 0.262135 0.101442
0.858579 0.254826 0.0993362
0.867277 0.254322 0.098497
0.867277 0.254322 0.098497
0.867277 0.254322 0.098497
0.867277 0.254322 0.098497
0.867277 0.254322 0.098497
0.867277 0.254322 0.098497
0.867277 0.254322 0.098497
0.867277 0.254322 0.098497
0.867277 0.254322 0.098497
0.867277 0.254322 0.098497
0.867277 0.254322 0.098497
0.867277 0.254322 0.098497
0.867277 0.254322 0.098497
0.100679 0.0852064 0.0654459
0.103471 0.0877089 0.0703593
0.106249 0.0902113 0.0752575
0.108949 0.0926375 0.0800031
0.111254 0.0936904 0.0823682
0.119387 0.0938125 0.0825055
0.146822 0.0990616 0.0846113
0.172869 0.109148 0.0875715
0.214176 0.121065 0.0871901
0.263401 0.140307 0.0906386
0.336522 0.164828 0.0964828
0.422675 0.191485 0.0985122
0.510643 0.208225 0.0986648
0.584894 0.220722 0.095613
0.656779 0.232425 0.0943923
0.721386 0.24361 0.0945907
0.779812 0.251011 0.0978103
0.820401 0.253971 0.10016
0.861036 0.262089 0.101503
0.857969 0.254887 0.0994125
0.867277 0.254322 0.098497
0.867277 0.254322 0.098497
0.867277 0.254322 0.098497
0.867277 0.254322 0.098497
0.867277 0.254322 0.098497
0.867277 0.254322 0.098497
0.867277 0.254322 0.098497
0.867277 0.254322 0.098497
0.867277 0.254322 0.098497
0.867277 0.254322 0.098497
0.867277 0.254322 0.098497
0.867277 0.254322 0.098497
0.867277 0.254322 0.098497
0.087541 0.0783246 0.00959792
0.0865644 0.0747692 0.00901808
0.0856031 0.0712596 0.0084535
0.0846113 0.0677195 0.00788891
0.0881208 0.0716564 0.0217136
0.0963149 0.0758984 0.0362707
0.122103 0.0847334 0.0541238
0.151064 0.0965286 0.0717174
0.194278 0.113161 0.0772259
0.246845 0.133486 0.0844587
0.324056 0.160769 0.0941787
0.414343 0.188647 0.0983291
0.505318 0.207874 0.0990921
0.579431 0.219776 0.0957809
0.65362 0.231846 0.0946365
0.718379 0.24303 0.0941939
0.778119 0.250965 0.0976577
0.81883 0.25359 0.0998703
0.860105 0.262058 0.101549
0.85864 0.255329 0.0994583
0.867277 0.254322 0.098497
0.867277 0.254322 0.098497
0.867277 0.254322 0.098497
0.867277 0.254322 0.098497
0.867277 0.254322 0.098497
0.867277 0.254322 0.098497
0.867277 0.254322 0.098497
0.867277 0.254322 0.098497
0.867277 0.254322 0.098497
0.867277 0.254322 0.098497
0.867277 0.254322 0.098497
0.867277 0.254322 0.098497
0.867277 0.254322 0.098497
0.0945907 0.100023 0.0140383
0.0937514 0.0975357 0.0135653
0.0928817 0.0950027 0.0130922
0.0919814 0.0923629 0.0125887
0.0910811 0.0896162 0.0120089
0.0921798 0.0865492 0.0112612
0.102861 0.0838636 0.0140383
0.133135 0.0894331 0.0289311
0.169253 0.100023 0.0404364
0.218952 0.1196 0.0565347
0.292607 0.148241 0.0744182
0.395071 0.178058 0.088304
0.497887 0.207156 0.0986648
0.573907 0.218799 0.0959029
0.650446 0.231281 0.0949111
0.715328 0.242435 0.0937972
0.77644 0.250935 0.0975357
0.817258 0.253208 0.0995804
0.85919 0.262013 0.101595
0.859495 0.255802 0.0994736
0.867277 0.254322 0.098497
0.867277 0.254322 0.098497
0.867277 0.254322 0.098497
0.867277 0.254322 0.098497
0.867277 0.254322 0.098497
0.867277 0.254322 0.098497
0.867277 0.254322 0.098497
0.867277 0.254322 0.098497
0.867277 0.254322 0.098497
0.867277 0.254322 0.098497
0.867277 0.254322 0.098497
0.867277 0.254322 0.098497
0.867277 0.254322 0.098497
0.102678 0.12636 0.0294347
0.101839 0.123629 0.0276646
0.100984 0.120851 0.025864
0.10013 0.118013 0.0240177
0.0992447 0.115068 0.0221256
0.0983902 0.112245 0.0204318
0.102785 0.108339 0.0186007
0.124895 0.106859 0.0274205
0.161975 0.113848 0.0452583
0.204685 0.125643 0.0537881
0.267765 0.146532 0.0691539
0.371267 0.175616 0.0758984
0.480674 0.204929 0.0835431
0.563195 0.214343 0.088777
0.646403 0.230564 0.0948043
0.711849 0.241779 0.093431
0.774289 0.250843 0.0974746
0.815351 0.252766 0.0992599
0.858045 0.261921 0.10161
0.860502 0.256367 0.0994888
0.867277 0.254322 0.098497
0.867277 0.254322 0.098497
0.867277 0.254322 0.098497
0.867277 0.254322 0.098497
0.867277 0.254322 0.098497
0.867277 0.254322 0.098497
0.867277 0.254322 0.098497
0.867277 0.254322 0.098497
0.867277 0.254322 0.098497
0.867277 0.254322 0.098497
0.867277 0.254322 0.098497
0.867277 0.254322 0.098497
0.867277 0.254322 0.098497
0.112245 0.161898 0.0586557
0.111727 0.158297 0.0549783
0.111116 0.155245 0.052018
0.110414 0.152575 0.0495766
0.109697 0.149813 0.047013
0.108965 0.147036 0.0444495
0.109712 0.143755 0.0410468
0.111666 0.139178 0.0379034
0.150149 0.142458 0.0459602
0.213245 0.155016 0.074464
0.258518 0.165698 0.0744182
0.346258 0.183154 0.0813001
0.442283 0.203464 0.0818494
0.541573 0.217243 0.082826
0.647089 0.229267 0.0810559
0.707622 0.240665 0.0919966
0.771313 0.250614 0.0975052
0.813123 0.252628 0.0992142
0.856504 0.261707 0.101488
0.861814 0.257145 0.0995499
0.867277 0.254322 0.098497
0.867277 0.254322 0.098497
0.867277 0.254322 0.098497
0.867277 0.254322 0.098497
0.867277 0.254322 0.098497
0.867277 0.254322 0.098497
0.867277 0.254322 0.098497
0.867277 0.254322 0.098497
0.867277 0.254322 0.098497
0.867277 0.254322 0.098497
0.867277 0.254322 0.098497
0.867277 0.254322 0.098497
0.867277 0.254322 0.098497
0.116716 0.205768 0.0886244
0.116701 0.203571 0.0878309
0.116686 0.201373 0.0870527
0.116655 0.199115 0.086244
0.11664 0.196811 0.08542
0.116625 0.194491 0.084596
0.116472 0.192111 0.0834669
0.119783 0.187884 0.0805676
0.129839 0.185245 0.0682841
0.201511 0.197009 0.0813458
0.268696 0.206729 0.0918898
0.338659 0.210742 0.0901503
0.423667 0.220615 0.0919051
0.501808 0.228275 0.0874952
0.608469 0.240269 0.0861524
0.700084 0.244343 0.0864576
0.768627 0.248875 0.0873732
0.810132 0.252445 0.0991531
0.854444 0.261433 0.10135
0.863554 0.258122 0.0995499
0.867277 0.254322 0.098497
0.867277 0.254322 0.098497
0.867277 0.254322 0.098497
0.867277 0.254322 0.098497
0.867277 0.254322 0.098497
0.867277 0.254322 0.098497
0.867277 0.254322 0.098497
0.867277 0.254322 0.098497
0.867277 0.254322 0.098497
0.867277 0.254322 0.098497
0.867277 0.254322 0.098497
0.867277 0.254322 0.098497
0.867277 0.254322 0.098497
0.117144 0.245731 0.102571
0.117052 0.244236 0.102007
0.116976 0.242695 0.101427
0.116899 0.241154 0.100847
0.116808 0.239567 0.100252
0.116732 0.23798 0.0996567
0.11667 0.236255 0.0990463
0.116655 0.234028 0.0982834
0.124269 0.227131 0.0947433
0.145449 0.222004 0.0826886
0.255375 0.254597 0.105959
0.361028 0.26247 0.113344
0.416434 0.256703 0.11046
0.488975 0.261982 0.108171
0.573281 0.262013 0.0993668
0.669902 0.256062 0.087602
0.756085 0.262684 0.0919814
0.810117 0.257084 0.0912642
0.852293 0.260243 0.0977035
0.865812 0.259251 0.0997177
0.867277 0.254322 0.098497
0.867277 0.254322 0.098497
0.867277 0.254322 0.098497
0.867277 0.254322 0.098497
0.867277 0.254322 0.098497
0.867277 0.254322 0.098497
0.867277 0.254322 0.098497
0.867277 0.254322 0.098497
0.867277 0.254322 0.098497
0.867277 0.254322 0.098497
0.867277 0.254322 0.098497
0.867277 0.254322 0.098497
0.867277 0.254322 0.098497
0.121828 0.279286 0.117769
0.121645 0.278126 0.11722
0.121447 0.276936 0.11664
0.121263 0.275746 0.116075
0.121065 0.27451 0.11548
0.120867 0.273274 0.114885
0.120668 0.272038 0.114275
0.120439 0.270527 0.113558
0.120165 0.268666 0.112703
0.130526 0.26183 0.106828
0.1664 0.261128 0.0971237
0.325414 0.320699 0.137346
0.417426 0.32163 0.139239
0.480735 0.309422 0.138994
0.554711 0.301991 0.124224
0.63621 0.29778 0.114427
0.726421 0.286229 0.103761
0.797406 0.278645 0.0970932
0.843305 0.271733 0.0953536
0.876554 0.273075 0.0962844
0.871092 0.257145 0.0945754
0.867277 0.254322 0.098497
0.867277 0.254322 0.098497
0.867277 0.254322 0.098497
0.867277 0.254322 0.098497
0.867277 0.254322 0.098497
0.867277 0.254322 0.098497
0.867277 0.254322 0.098497
0.867277 0.254322 0.098497
0.867277 0.254322 0.098497
0.867277 0.254322 0.098497
0.867277 0.254322 0.098497
0.867277 0.254322 0.098497
0.124712 0.325292 0.130938
0.124651 0.324117 0.130632
0.12459 0.322957 0.130312
0.124529 0.321782 0.130007
0.124468 0.320577 0.129686
0.124407 0.319387 0.129381
0.124346 0.318181 0.129061
0.124269 0.316701 0.128679
0.124178 0.314717 0.128145
0.125277 0.311803 0.127352
0.144289 0.304143 0.122057
0.218677 0.316838 0.117189
0.407736 0.392447 0.16347
0.49218 0.382452 0.168887
0.546151 0.350439 0.154604
0.619089 0.336355 0.136782
0.698558 0.321904 0.124819
0.773083 0.310521 0.113237
0.826719 0.295323 0.101503
0.870741 0.29131 0.101396
0.868894 0.283589 0.098558
0.871687 0.276844 0.0963912
0.870726 0.27013 0.0961471
0.871244 0.260471 0.0949416
0.868238 0.254643 0.0973526
0.867277 0.254322 0.098497
0.867277 0.254322 0.098497
0.867277 0.254322 0.098497
0.867277 0.254322 0.098497
0.867277 0.254322 0.098497
0.867277 0.254322 0.098497
0.867277 0.254322 0.098497
0.867277 0.254322 0.098497
0.137179 0.376425 0.142061
0.136843 0.375311 0.141817
0.136522 0.374243 0.141604
0.136187 0.373114 0.141375
0.135836 0.371954 0.141131
0.1355 0.37084 0.140902
0.135164 0.369711 0.140673
0.134752 0.368322 0.140383
0.134203 0.366476 0.140017
0.133455 0.364034 0.139498
0.136126 0.359121 0.138415
0.156222 0.344747 0.126711
0.258198 0.371435 0.132631
0.488762 0.468009 0.192828
0.561349 0.434501 0.186053
0.615244 0.412024 0.179904
0.678721 0.376959 0.156619
0.751766 0.366293 0.149477
0.809903 0.337545 0.126757
0.854536 0.323018 0.11577
0.874372 0.312413 0.107027
0.87126 0.305684 0.10544
0.872618 0.299901 0.103349
0.872724 0.293294 0.101366
0.870848 0.286717 0.0994736
0.868299 0.280873 0.0977493
0.869841 0.277989 0.0967422
0.871168 0.276341 0.0963607
0.869169 0.274388 0.0962539
0.869368 0.272801 0.0962234
0.870069 0.27155 0.0961929
0.870588 0.270558 0.0961624
0.870848 0.26978 0.0961471
0.150301 0.427115 0.150301
0.150072 0.426215 0.150164
0.149859 0.425315 0.150027
0.14963 0.424399 0.149905
0.149401 0.423453 0.149752
0.149172 0.422507 0.149615
0.148943 0.421592 0.149493
0.148669 0.420432 0.14931
0.148302 0.418936 0.149096
0.147799 0.416938 0.148806
0.147158 0.414328 0.148425
0.156039 0.41146 0.14847
0.174289 0.394018 0.129351
0.319387 0.440589 0.152819
0.563333 0.529885 0.212573
0.624613 0.486915 0.200763
0.673106 0.448554 0.188647
0.732631 0.430747 0.18819
0.785626 0.407858 0.167147
0.83592 0.378683 0.152163
0.874388 0.35375 0.125856
0.870832 0.342901 0.120104
0.870848 0.334844 0.116457
0.869535 0.32755 0.11313
0.869001 0.321202 0.110201
0.870878 0.315847 0.107836
0.870375 0.312779 0.107225
0.869902 0.31043 0.106859
0.870314 0.308751 0.106371
0.87071 0.307454 0.105974
0.871031 0.306447 0.105669
0.87126 0.305684 0.10544
0.871412 0.305119 0.105211
0.162875 0.483223 0.157336
0.162799 0.48275 0.157305
0.162661 0.482063 0.157229
0.162493 0.481209 0.157137
0.162325 0.4804 0.157061
0.162173 0.479591 0.15697
0.16199 0.478752 0.156878
0.161807 0.477775 0.156786
0.161532 0.476432 0.156649
0.161166 0.474678 0.156451
0.160708 0.472374 0.156207
0.160098 0.469368 0.155901
0.1776 0.464103 0.154284
0.210391 0.444846 0.133394
0.403815 0.518593 0.181888
0.626169 0.586984 0.23624
0.687175 0.544549 0.223209
0.721035 0.514412 0.215717
0.776425 0.477821 0.203311
0.816526 0.456291 0.191379
0.856504 0.424323 0.172427
0.868147 0.404822 0.159747
0.868894 0.39202 0.151843
0.868955 0.383246 0.144701
0.869596 0.375723 0.138491
0.870024 0.369467 0.133715
0.870192 0.364446 0.130709
0.870298 0.360433 0.128344
0.870344 0.357336 0.126802
0.870344 0.354925 0.125673
0.870359 0.353048 0.124788
0.870375 0.351659 0.124147
0.870359 0.350561 0.123613
0.173648 0.536995 0.165072
0.17351 0.536324 0.164935
0.173373 0.535653 0.164797
0.17322 0.534936 0.164645
0.173083 0.534249 0.164508
0.17293 0.533532 0.164355
0.172793 0.532845 0.164202
0.172625 0.532021 0.164034
0.172396 0.530892 0.163821
0.172091 0.529397 0.163516
0.171695 0.527443 0.163119
0.171176 0.524926 0.162615
0.170504 0.521675 0.161959
0.204013 0.516899 0.158816
0.245945 0.489097 0.140459
0.497383 0.59173 0.209339
0.683436 0.650019 0.261601
0.752453 0.608026 0.245472
0.781689 0.566094 0.234501
0.814054 0.538231 0.230396
0.844404 0.506844 0.213321
0.869612 0.480751 0.195117
0.868559 0.470558 0.190585
0.867002 0.461326 0.186374
0.866438 0.453727 0.182956
0.866178 0.447547 0.180194
0.866209 0.442542 0.177996
0.866484 0.438636 0.176349
0.866697 0.435569 0.175036
0.866865 0.433158 0.174014
0.867002 0.431342 0.173236
0.867063 0.429908 0.17258
0.867079 0.428763 0.172015
0.188769 0.588861 0.173449
0.188495 0.588327 0.173404
0.18822 0.587777 0.173373
0.187945 0.587243 0.173327
0.187671 0.586709 0.173281
0.187396 0.58616 0.173236
0.187137 0.585626 0.173205
0.186816 0.584985 0.173144
0.186358 0.584085 0.173083
0.185794 0.582956 0.172992
0.185153 0.581598 0.172885
0.184436 0.579965 0.172763
0.18349 0.577859 0.17261
0.184619 0.574273 0.172335
0.225971 0.563668 0.16463
0.304891 0.553979 0.157321
0.565774 0.656687 0.234333
0.742885 0.697643 0.277897
0.802655 0.661891 0.259556
0.830579 0.629923 0.249714
0.850507 0.593729 0.240879
0.86978 0.56408 0.229755
0.873289 0.552834 0.22327
0.872496 0.544228 0.219989
0.872374 0.535744 0.21677
0.872282 0.528557 0.214038
0.87219 0.523033 0.211948
0.872038 0.519203 0.210483
0.871931 0.516213 0.209339
0.871839 0.513863 0.208438
0.871778 0.512093 0.207752
0.871733 0.51075 0.207233
0.871687 0.509728 0.206851
0.199634 0.626459 0.173602
0.199603 0.626108 0.173632
0.199573 0.625772 0.173663
0.199527 0.625422 0.173693
0.199496 0.625071 0.173724
0.199466 0.624704 0.17377
0.199435 0.624353 0.1738
0.199405 0.623926 0.173831
0.199344 0.623362 0.173892
0.199283 0.622614 0.173953
0.199191 0.621622 0.17406
0.199084 0.620371 0.174166
0.198978 0.618814 0.174273
0.198825 0.616846 0.174426
0.211566 0.612009 0.168948
0.250599 0.604898 0.159182
0.408988 0.631724 0.1841
0.656794 0.715389 0.257984
0.793545 0.740612 0.293614
0.833173 0.710704 0.282765
0.864271 0.682719 0.266621
0.882307 0.653971 0.257939
0.890883 0.634455 0.250721
0.888548 0.625803 0.247761
0.886503 0.618311 0.245197
0.884794 0.612161 0.243122
0.883421 0.60734 0.241627
0.882322 0.60354 0.240421
0.881468 0.600549 0.23949
0.880796 0.598215 0.238758
0.880278 0.59646 0.238209
0.879911 0.595163 0.237812
0.879683 0.594247 0.237552
0.202747 0.661234 0.172091
0.202701 0.660822 0.172091
0.202655 0.660395 0.172091
0.202625 0.659953 0.172091
0.202579 0.65951 0.172091
0.202533 0.659083 0.172091
0.202487 0.65864 0.172091
0.202426 0.658122 0.172091
0.202365 0.65742 0.172091
0.202274 0.656489 0.172091
0.202152 0.655299 0.172091
0.202029 0.653971 0.172091
0.201892 0.65243 0.172091
0.201709 0.650477 0.172091
0.201495 0.648081 0.172107
0.237415 0.639628 0.174044
0.273472 0.634668 0.15845
0.520531 0.698756 0.213962
0.734005 0.770687 0.282582
0.829358 0.778515 0.304509
0.866377 0.747982 0.294926
0.892088 0.729656 0.27425
0.911192 0.713939 0.27599
0.911284 0.705043 0.27393
0.909468 0.699336 0.272404
0.907973 0.694606 0.271138
0.906767 0.690715 0.270085
0.905745 0.68716 0.268986
0.904982 0.684413 0.268147
0.904356 0.682231 0.267475
0.903914 0.680629 0.266987
0.903548 0.679347 0.26659
0.903288 0.678431 0.2663
0.208484 0.692668 0.18114
0.208408 0.692363 0.180987
0.208331 0.692073 0.180835
0.208255 0.691768 0.180682
0.208179 0.691478 0.180545
0.208103 0.691157 0.180377
0.208026 0.690867 0.18024
0.207935 0.690501 0.180056
0.207813 0.690013 0.179812
0.20766 0.689387 0.179507
0.207446 0.688563 0.179095
0.207187 0.68748 0.178561
0.206836 0.686107 0.177874
0.206409 0.684382 0.17702
0.205875 0.682231 0.175952
0.215717 0.677287 0.172473
0.268589 0.665583 0.172885
0.342092 0.670909 0.163439
0.619287 0.75906 0.250355
0.788251 0.811566 0.301015
0.856199 0.804791 0.307561
0.886046 0.781491 0.299153
0.908064 0.76733 0.281407
0.920592 0.759915 0.282506
0.920348 0.756024 0.282521
0.92015 0.752773 0.282536
0.919951 0.750118 0.28246
0.919799 0.747997 0.282368
0.919661 0.746288 0.282292
0.919585 0.745022 0.282216
0.919509 0.74403 0.282185
0.919448 0.743282 0.282139
0.919402 0.742718 0.282124
0.209644 0.713466 0.180316
0.20972 0.713344 0.180591
0.209812 0.713237 0.180819
0.209888 0.71313 0.181064
0.209979 0.713008 0.181323
0.210071 0.712902 0.181598
0.210147 0.712779 0.181827
0.210254 0.712642 0.182162
0.210391 0.712459 0.182544
0.210559 0.7122 0.183062
0.210788 0.711864 0.183719
0.211063 0.711421 0.184527
0.211444 0.710872 0.185611
0.211902 0.710155 0.186984
0.212482 0.709285 0.188663
0.212329 0.707317 0.188678
0.248142 0.696406 0.17731
0.283986 0.691981 0.164584
0.462135 0.72697 0.190997
0.712398 0.808392 0.276417
0.833875 0.841794 0.30518
0.884901 0.823926 0.306554
0.901961 0.80177 0.29514
0.919951 0.795636 0.289143
0.92195 0.792645 0.287343
0.92195 0.79028 0.286336
0.921935 0.788342 0.285496
0.92195 0.786831 0.284855
0.92195 0.785657 0.284398
0.921904 0.784848 0.28423
0.921889 0.784222 0.284092
0.921859 0.783749 0.283986
0.921843 0.783368 0.283909
0.207828 0.724514 0.174929
0.207828 0.724376 0.174929
0.207828 0.724239 0.174929
0.207828 0.724102 0.174929
0.207828 0.723964 0.174929
0.207828 0.723827 0.174929
0.207828 0.72369 0.174929
0.207828 0.723537 0.174929
0.207828 0.723308 0.174929
0.207828 0.723018 0.174929
0.207828 0.722637 0.174929
0.207828 0.722148 0.174929
0.207828 0.721523 0.174929
0.207828 0.720729 0.174929
0.207828 0.719738 0.174929
0.207828 0.718563 0.174929
0.227955 0.71754 0.17821
0.279622 0.712871 0.179049
0.328527 0.709743 0.1608
0.613718 0.786618 0.237293
0.785977 0.842481 0.292119
0.87126 0.859892 0.316976
0.896269 0.833616 0.307225
0.914076 0.820508 0.297719
0.921233 0.817578 0.295064
0.921508 0.815839 0.294881
0.921752 0.81442 0.294743
0.921935 0.813291 0.294606
0.922011 0.812329 0.294392
0.922072 0.811597 0.294209
0.922133 0.811032 0.294087
0.922164 0.810605 0.29398
0.922194 0.810285 0.293904
0.207828 0.729763 0.174929
0.207828 0.729763 0.174929
0.207828 0.729763 0.174929
0.207828 0.729763 0.174929
0.207828 0.729763 0.174929
0.207828 0.729763 0.174929
0.207828 0.729763 0.174929
0.207828 0.729763 0.174929
0.207828 0.729763 0.174929
0.207828 0.729763 0.174929
0.207828 0.729763 0.174929
0.207828 0.729763 0.174929
0.207828 0.729763 0.174929
0.207828 0.729763 0.174929
0.207828 0.729763 0.174929
0.207828 0.728618 0.174929
0.207828 0.727275 0.174929
0.261082 0.728435 0.178302
0.295705 0.720775 0.162219
0.489494 0.762264 0.194415
0.725551 0.839414 0.272923
0.842725 0.868544 0.309514
0.890776 0.866499 0.32253
0.907118 0.845289 0.309895
0.920012 0.836332 0.299733
0.919097 0.83473 0.297902
0.919249 0.833356 0.297627
0.919387 0.832258 0.297414
0.919478 0.831418 0.297246
0.919554 0.830747 0.297108
0.919631 0.830243 0.297017
0.919676 0.829862 0.296941
0.919707 0.829572 0.296895
0.207828 0.729763 0.174929
0.207828 0.729763 0.174929
0.207828 0.729763 0.174929
0.207828 0.729763 0.174929
0.207828 0.729763 0.174929
0.207828 0.729763 0.174929
0.207828 0.729763 0.174929
0.207828 0.729763 0.174929
0.207828 0.729763 0.174929
0.207828 0.729763 0.174929
0.207828 0.729763 0.174929
0.207828 0.729763 0.174929
0.207828 0.729763 0.174929
0.207828 0.729763 0.174929
0.207828 0.729763 0.174929
0.207828 0.729763 0.174929
0.207828 0.729763 0.174929
0.248798 0.730709 0.176898
0.289036 0.728237 0.169177
0.402625 0.74197 0.169787
0.669902 0.830991 0.255863
0.809354 0.869947 0.29955
0.882063 0.884886 0.324529
0.903899 0.867002 0.319615
0.916411 0.853407 0.308537
0.916381 0.849729 0.301595
0.916655 0.848386 0.301167
0.916899 0.847318 0.300816
0.917082 0.846479 0.300542
0.91722 0.845838 0.300343
0.917342 0.845335 0.300175
0.917418 0.844984 0.300069
0.917464 0.844694 0.299977
0.207828 0.729763 0.174929
0.207828 0.729763 0.174929
0.207828 0.729763 0.174929
0.207828 0.729763 0.174929
0.207828 0.729763 0.174929
0.207828 0.729763 0.174929
0.207828 0.729763 0.174929
0.207828 0.729763 0.174929
0.207828 0.729763 0.174929
0.207828 0.729763 0.174929
0.207828 0.729763 0.174929
0.207828 0.729763 0.174929
0.207828 0.729763 0.174929
0.207828 0.729763 0.174929
0.207828 0.729763 0.174929
0.207828 0.729763 0.174929
0.207828 0.729763 0.174929
0.238605 0.728771 0.176684
0.280644 0.729656 0.173449
0.352636 0.730434 0.160754
0.629877 0.816861 0.241077
0.786206 0.865904 0.29247
0.871855 0.889479 0.321965
0.899855 0.877165 0.322972
0.912978 0.862425 0.312108
0.916533 0.858381 0.304479
0.915709 0.857206 0.302419
0.915724 0.856641 0.302434
0.915724 0.856184 0.302434
0.915724 0.855833 0.302434
0.915724 0.855573 0.302434
0.915755 0.855375 0.302449
0.915755 0.855222 0.302449
0.207828 0.729763 0.174929
0.207828 0.729763 0.174929
0.207828 0.729763 0.174929
0.207828 0.729763 0.174929
0.207828 0.729763 0.174929
0.207828 0.729763 0.174929
0.207828 0.729763 0.174929
0.207828 0.729763 0.174929
0.207828 0.729763 0.174929
0.207828 0.729763 0.174929
0.207828 0.729763 0.174929
0.207828 0.729763 0.174929
0.207828 0.729763 0.174929
0.207828 0.729763 0.174929
0.207828 0.729763 0.174929
0.207828 0.729763 0.174929
0.207828 0.729763 0.174929
0.225071 0.729793 0.175082
0.275853 0.728893 0.178714
0.32752 0.727016 0.159274
0.594217 0.804242 0.227726
0.765316 0.860517 0.286198
0.860365 0.887205 0.317449
0.896544 0.882277 0.325383
0.909209 0.8654 0.314885
