pic/松下lut/LUTs/T-Natural.cube
TITLE "Generated by Resolve"
#LUMIXPHOTOSTYLE VLOG
LUT_3D_SIZE 5
0.0156252 0.0156252 0.0156252
0.212497 0 0
1 0 0
1 0 0
1 0 0
0 0.211231 0.0492103
0.150698 0.146609 0.0157168
0.972747 0 0
1 0 0
1 0 0
0 0.997314 0.20032
0 0.990158 0.175128
0.80058 0.773922 0.0166781
1 0.726741 0
1 0.77435 0
0 1 0.241794
0.00117494 1 0.207767
0.778912 1 0.0586404
0.999222 0.971969 0.0168002
1 0.970413 0.0157015
0 1 0.241947
0.0205386 1 0.202075
0.785519 1 0.0580453
0.998291 0.979004 0.0179446
1 0.97705 0.016846
0.0138857 0.0192111 0.18175
0.207965 0 0.126589
1 0 0.000320439
1 0 0
1 0 0.00949111
0 0.20499 0.176928
0.147814 0.147448 0.137743
0.973144 0 1.5259e-05
1 0 0
1 0 0.0407874
0 0.997238 0.298573
0 0.988235 0.270069
0.7935 0.768688 0.0981918
1 0.715755 0.062623
1 0.762997 0.0903334
0 1 0.396902
0 1 0.334081
0.754345 1 0.146853
1 0.973388 0.0885328
1 0.97113 0.0869001
0 1 0.443809
0.00482185 1 0.346273
0.753216 1 0.147616
0.999176 0.981964 0.082887
1 0.979202 0.0780652
0.00759899 0.0348058 0.866224
0.221378 0 0.83711
1 0 0.65745
1 0 0.638437
1 0 0.685634
0 0.211032 0.859861
0.137545 0.158953 0.823743
0.967254 0 0.652567
1 0 0.66067
1 0 0.72784
0 0.999298 0.969451
0 0.988052 0.936629
0.774609 0.77084 0.747875
1 0.708797 0.713848
1 0.750927 0.752514
0 1 1
0 1 0.985718
0.715373 1 0.789837
0.993271 0.984146 0.705699
1 0.980331 0.701183
0 1 1
0 1 0.995132
0.706386 1 0.785168
0.988388 0.997375 0.686748
1 0.992782 0.67454
0.00634775 0.0377661 0.99707
0.235142 0 0.954971
1 0 0.79968
1 0 0.772045
1 0 0.773434
0 0.223667 1
0.144289 0.170581 0.995315
0.976074 0 0.834928
1 0 0.808392
1 0 0.822904
0 1 1
0 0.992035 1
0.776913 0.780285 0.992462
1 0.713344 0.94609
1 0.749279 0.952819
0 1 1
0 1 1
0.700221 1 1
0.988937 0.988785 0.985794
1 0.984176 0.982437
0 1 1
0 1 1
0.684703 1 1
0.982406 1 0.984283
1 0.999588 0.978958
0.00634775 0.0378424 0.998779
0.253422 0 0.952712
1 0 0.799588
1 0 0.773556
1 0 0.773434
0 0.24622 1
0.162402 0.187823 0.997574
0.996628 0 0.837034
1 0 0.814466
1 0.00932326 0.82742
0 1 1
0.00062562 0.998901 1
0.790845 0.794598 0.998199
1 0.72723 0.954482
1 0.756329 0.958419
0 1 1
0 1 1
0.70132 1 1
0.988663 0.988876 0.999695
1 0.983993 0.997345
0 1 1
0 1 1
0.680568 1 1
0.981323 1 1
1 1 0.999451
