pic/松下lut/LUTs/T-Natural.cube
TITLE "Generated by Resolve"
#LUMIXPHOTOSTYLE VLOG
LUT_3D_SIZE 33
0.0156252 0.0156252 0.0156252
0.0156252 0.0156252 0.0156252
0.0156252 0.0156252 0.0156252
0.0295872 0.0113527 0.0129397
0.0492561 0.00552377 0.00924697
0.0705272 0.000335698 0.00517281
0.10074 0 0.000732433
0.146273 0 0
0.212497 0 0
0.298726 0 0
0.404059 0 0
0.525673 0 0
0.658183 0 0
0.806821 0 0
0.924224 0 0
0.980865 0 0
1 0 0
1 0 0
1 0 0
1 0 0
1 0 0
1 0 0
1 0 0
1 0 0
1 0 0
1 0 0
1 0 0
1 0 0
1 0 0
1 0 0
1 0 0
1 0 0
1 0 0
0.0156252 0.0156252 0.0156252
0.0156252 0.0156252 0.0156252
0.0156252 0.0156252 0.0156252
0.0289464 0.0115358 0.0130617
0.0489815 0.00561532 0.009308
0.0708629 0.000259403 0.00511177
0.102541 0 0.000656138
0.150805 0 0
0.223438 0 0
0.325963 0 0
0.45623 0 0
0.584512 0 0
0.71014 0 0
0.829221 0 0
0.934356 0 0
0.982651 0 0
1 0 0
1 0 0
1 0 0
1 0 0
1 0 0
1 0 0
1 0 0
1 0 0
1 0 0
1 0 0
1 0 0
1 0 0
1 0 0
1 0 0
1 0 0
1 0 0
1 0 0
0.0156252 0.0156252 0.0156252
0.0156252 0.0156252 0.0156252
0.0156252 0.0156252 0.0156252
0.027924 0.011841 0.0132601
0.0489204 0.00563058 0.009308
0.0732128 0 0.00466926
0.116197 0 0.000167849
0.17612 0 0
0.254582 0 0
0.35108 0 0
0.461936 0 0
0.581735 0 0
0.702083 0 0
0.818418 0 0
0.922545 0 0
0.978195 0 0
1 0 0
1 0 0
1 0 0
1 0 0
1 0 0
1 0 0
1 0 0
1 0 0
1 0 0
1 0 0
1 0 0
1 0 0
1 0 0
1 0 0
1 0 0
1 0 0
1 0 0
0.0145876 0.0215457 0.016556
0.0143435 0.0229648 0.0167849
0.0139925 0.024918 0.0170901
0.0243992 0.0242618 0.0155947
0.046128 0.0190127 0.0115969
0.0686046 0.013138 0.00749218
0.100557 0.00460822 0.00228885
0.147631 0 0
0.214664 0 0
0.300633 0 0
0.401801 0 0
0.516075 0 0
0.634699 0 0
0.752117 0 0
0.861341 0 0
0.958541 0 0
0.988724 0 0
1 0 0
1 0 0
1 0 0
1 0 0
1 0 0
1 0 0
1 0 0
1 0 0
1 0 0
1 0 0
1 0 0
1 0 0
1 0 0
1 0 0
1 0 0
1 0 0
0.00955215 0.052079 0.0218357
0.00924697 0.0539712 0.0221714
0.00920119 0.0542763 0.0222324
0.0213321 0.0474556 0.01944
0.0414435 0.0406043 0.0155642
0.0623941 0.034165 0.0116579
0.0911421 0.0252079 0.00611887
0.13579 0.0108034 0.000518807
0.198459 0.000854505 0
0.280705 0 0
0.37966 0 0
0.491188 0 0
0.609461 0 0
0.727871 0 0
0.839551 0 0
0.939284 0 0
0.982651 0 0
1 0 0
1 0 0
1 0 0
1 0 0
1 0 0
1 0 0
1 0 0
1 0 0
1 0 0
1 0 0
1 0 0
1 0 0
1 0 0
1 0 0
1 0 0
1 0 0
0.00520333 0.0796674 0.026566
0.00515755 0.0799573 0.0266117
0.00537118 0.078645 0.0263828
0.0171359 0.070161 0.0234073
0.0366827 0.062623 0.0195163
0.0571298 0.0559701 0.0156405
0.0846876 0.0470588 0.0102998
0.128222 0.0324865 0.00259403
0.189685 0.0125277 0
0.271366 0.000762951 0
0.369421 0 0
0.481682 0 0
0.601434 0 0
0.721492 0 0
0.835172 0 0
0.937102 0 0
0.982696 0 0
1 0 0
1 0 0
1 0 0
1 0 0
1 0 0
1 0 0
1 0 0
1 0 0
1 0 0
1 0 0
1 0 0
1 0 0
1 0 0
1 0 0
1 0 0
1 0 0
0.00105287 0.112505 0.0322576
0.00106813 0.112032 0.0321813
0.0011902 0.109957 0.0318151
0.0105745 0.0989548 0.028687
0.0302586 0.0908827 0.0245975
0.0502327 0.0842145 0.0207675
0.0771038 0.0753338 0.01561
0.11957 0.0610513 0.00743114
0.180407 0.0409094 6.10361e-05
0.262425 0.0155032 0
0.361456 0.000640879 0
0.475212 0 0
0.596994 0 0
0.719799 0 0
0.835264 0 0
0.937728 0 0
0.983566 0 0
1 0 0
1 0 0
1 0 0
1 0 0
1 0 0
1 0 0
1 0 0
1 0 0
1 0 0
1 0 0
1 0 0
1 0 0
1 0 0
1 0 0
1 0 0
1 0 0
0 0.1552 0.0395209
0 0.154345 0.0393835
0 0.152071 0.0390021
0.00328069 0.140612 0.0363165
0.0200961 0.132174 0.032166
0.0395056 0.125856 0.0285344
0.065919 0.117556 0.0234836
0.106432 0.103761 0.0156863
0.167422 0.0834363 0.00393683
0.249485 0.0569009 0
0.34934 0.0253758 0
0.464317 0 0
0.58706 0 0
0.710704 0 0
0.826719 0 0
0.929915 0 0
0.980545 0 0
0.999725 0 0
1 0 0
1 0 0
1 0 0
1 0 0
1 0 0
1 0 0
1 0 0
1 0 0
1 0 0
1 0 0
1 0 0
1 0 0
1 0 0
1 0 0
1 0 0
0 0.211231 0.0492103
0 0.211231 0.0492103
0 0.20943 0.0488899
0.000106813 0.198032 0.0467384
0.00801099 0.189975 0.0426032
0.0257572 0.185657 0.0394141
0.0515145 0.17882 0.0346227
0.0905928 0.16614 0.0272068
0.150698 0.146609 0.0157168
0.231235 0.120546 0.00257877
0.330175 0.0888228 0
0.445319 0.0522316 0
0.568292 0.0181888 0
0.692226 0.00241093 0
0.809689 0 0
0.913161 0 0
0.972747 0 0
0.99823 0 0
1 0 0
1 0 0
1 0 0
1 0 0
1 0 0
1 0 0
1 0 0
1 0 0
1 0 0
1 0 0
1 0 0
1 0 0
1 0 0
1 0 0
1 0 0
0 0.28629 0.0619974
0 0.288075 0.0623026
0 0.287846 0.0622721
0 0.275624 0.0601663
0.000381476 0.268864 0.0565805
0.0102846 0.265629 0.0535439
0.0341192 0.260563 0.0493324
0.0726024 0.248585 0.0419318
0.130694 0.229572 0.03093
0.209506 0.203632 0.0157168
0.307317 0.171908 0.000991836
0.421851 0.134874 0
0.544366 0.0961471 0
0.668956 0.0571756 0
0.787427 0.0208743 0
0.891814 0 0
0.962509 0.000244144 0
0.994751 0.00015259 0
1 0 0
1 0 0
1 0 0
1 0 0
1 0 0
1 0 0
1 0 0
1 0.00233463 0
1 0.0068513 0
1 0.0114748 0
1 0.0160067 0
1 0.0205386 0
1 0.0274205 0
1 0.040238 0
1 0.0525216 0
0 0.381674 0.0783093
0 0.385397 0.0789502
0 0.385931 0.0790417
0 0.372488 0.0767376
0 0.366567 0.0736095
0.000366217 0.364385 0.0708171
0.0141909 0.35996 0.0669108
0.0516976 0.348913 0.0599222
0.107668 0.330312 0.0491188
0.184512 0.304936 0.0344549
0.281559 0.273381 0.0159152
0.395056 0.236744 0.00128176
0.517143 0.197879 0
0.642252 0.159258 0
0.761059 0.122896 0
0.866957 0.09131 0
0.949844 0.0656138 0
0.988281 0.0478523 0
1 0.0378729 0
1 0.0324865 0
1 0.0299229 0
1 0.0332952 0
1 0.0416571 0
1 0.051606 0
1 0.0628977 0
1 0.0744793 0
1 0.0872358 0
1 0.100542 0
1 0.113848 0
1 0.127169 0
1 0.140185 0
1 0.152941 0
1 0.165438 0
0 0.494484 0.097673
0 0.499031 0.0984512
0 0.500175 0.0986496
0 0.485954 0.0962081
0 0.481514 0.0936141
0 0.479591 0.0909285
0.000747692 0.476265 0.0872816
0.0283665 0.466255 0.0806592
0.0823072 0.448066 0.070222
0.157946 0.422782 0.0557717
0.253559 0.391516 0.0374456
0.36585 0.355062 0.0159609
0.487266 0.316182 0.0009308
0.611902 0.276493 0
0.730846 0.24004 0
0.838148 0.207797 0
0.926833 0.182177 0
0.976791 0.16347 0
0.99826 0.151446 0
1 0.145281 0
1 0.145205 0
1 0.149996 0
1 0.15819 0
1 0.168536 0
1 0.180545 0
1 0.192859 0
1 0.206073 0
1 0.219715 0
1 0.232761 0
1 0.24596 0
1 0.259342 0
1 0.272419 0
1 0.285206 0
0 0.617853 0.118975
0 0.623026 0.11986
0 0.624552 0.120119
0 0.609644 0.117586
0 0.606378 0.115434
0 0.605386 0.112795
0 0.602487 0.109255
0.00668345 0.592874 0.102953
0.0567636 0.575174 0.0928817
0.13135 0.550301 0.0784466
0.225498 0.519036 0.0603189
0.336339 0.482383 0.0392004
0.457176 0.443854 0.0162203
0.581765 0.404089 0.000671397
0.700923 0.366735 0
0.808865 0.334295 0
0.898756 0.307958 0
0.962951 0.288518 0
0.992447 0.276265 0
1 0.269932 0
1 0.269108 0
1 0.273487 0
1 0.281712 0
1 0.29163 0
1 0.303319 0
1 0.315923 0
1 0.328222 0
1 0.341314 0
1 0.354177 0
1 0.366735 0
1 0.378973 0
1 0.390906 0
1 0.403403 0
0 0.745769 0.14078
0 0.751278 0.141726
0 0.753109 0.142031
0 0.738109 0.139467
0 0.735622 0.137835
0 0.735027 0.135256
0 0.73225 0.131777
0.000488289 0.723278 0.125811
0.0319829 0.706081 0.11574
0.104997 0.6813 0.101686
0.19762 0.650477 0.0838636
0.307469 0.613809 0.0627146
0.427527 0.574823 0.0399481
0.551583 0.535302 0.0162203
0.671168 0.497475 0.00122072
0.779522 0.464286 0
0.87042 0.437598 0
0.944259 0.417426 0
0.981842 0.403662 0
0.998337 0.39646 0
1 0.394751 0
1 0.397971 0
1 0.405112 0
1 0.414374 0
1 0.425101 0
1 0.43679 0
1 0.447913 0
1 0.45951 0
1 0.471336 0
1 0.482643 0
1 0.494469 0
1 0.504814 0
1 0.51487 0
0 0.871962 0.162493
0 0.877562 0.163455
0 0.879332 0.16376
0 0.864897 0.161273
0 0.862318 0.159625
0 0.86125 0.157137
0 0.858701 0.153735
0 0.849424 0.147631
0.0127565 0.832746 0.137881
0.0810407 0.808087 0.124025
0.172366 0.777417 0.106386
0.281102 0.741085 0.08542
0.400687 0.701732 0.0624704
0.524193 0.661875 0.0390021
0.643412 0.623774 0.0164034
0.751965 0.589944 0.00173953
0.843687 0.562112 0
0.917845 0.541619 0
0.969055 0.526375 0
0.992584 0.517708 0
1 0.514916 0
1 0.516854 0
1 0.522347 0
1 0.530831 0
1 0.540291 0
1 0.55021 0
1 0.559686 0
1 0.569177 0
1 0.579019 0
1 0.589441 0
1 0.599008 0
1 0.608286 0
1 0.616724 0
0 0.98085 0.18265
0 0.981628 0.183505
0 0.981872 0.18378
0 0.979858 0.181582
0 0.977295 0.179919
0 0.972992 0.177371
0 0.967742 0.173816
0 0.959014 0.167788
0 0.944274 0.157946
0.0605936 0.922438 0.144289
0.151156 0.893645 0.126802
0.258762 0.857603 0.105959
0.377829 0.818296 0.0831159
0.500389 0.778073 0.0597086
0.619242 0.739666 0.0370947
0.727611 0.705425 0.0164492
0.820508 0.677256 0.00263981
0.894179 0.654948 0
0.953063 0.638682 0
0.983139 0.628885 0
0.997421 0.624613 0
1 0.625071 0
1 0.629084 0
1 0.634836 0
1 0.641474 0
1 0.648859 0
1 0.656519 0
1 0.664439 0
1 0.672923 0
1 0.680476 0
1 0.687953 0
1 0.694865 0
1 0.701305 0
0 0.997314 0.20032
0 0.998032 0.201068
0 0.99823 0.201282
0 0.996231 0.199176
0 0.995636 0.197375
0 0.9953 0.194568
0 0.994888 0.190982
0 0.993393 0.184985
0 0.990158 0.175128
0.0445106 0.980484 0.161303
0.1346 0.964752 0.143847
0.241733 0.944015 0.123262
0.359564 0.91313 0.100694
0.481559 0.875242 0.0772412
0.600092 0.836805 0.0546426
0.708293 0.802899 0.0342107
0.80058 0.773922 0.0166781
0.874205 0.750622 0.0039826
0.934386 0.733303 4.57771e-05
0.973098 0.722362 0
0.991806 0.716564 0
0.999573 0.71516 0
1 0.717083 0
1 0.721294 0
1 0.726741 0
1 0.733013 0
1 0.739528 0
1 0.746059 0
1 0.752239 0
1 0.75819 0
1 0.763729 0
1 0.769467 0
1 0.77435 0
0 1 0.214664
0 1 0.215198
0 1 0.215305
0 1 0.213687
0 1 0.211612
0 1 0.208759
0 1 0.204929
0 1 0.198657
0 1 0.188846
0.0331121 1 0.175189
0.123064 1 0.15787
0.229633 0.992645 0.13724
0.34696 0.972686 0.114656
0.468284 0.949203 0.0914626
0.586114 0.919417 0.0690471
0.692973 0.884901 0.0485847
0.785534 0.855192 0.03093
0.858503 0.83151 0.0166323
0.918288 0.813321 0.00561532
0.96144 0.801266 0.000976577
0.984955 0.794614 0
0.996582 0.791806 0
1 0.792203 0
1 0.794675 0
1 0.798764 0
1 0.803937 0
1 0.808103 0
1 0.8121 0
1 0.816205 0
1 0.820584 0
1 0.825315 0
1 0.829328 0
1 0.832792 0
0 1 0.225589
0 1 0.225971
0 1 0.226001
0 1 0.224598
0 1 0.222324
0 1 0.219196
0 1 0.215259
0 1 0.208942
0 1 0.198932
0.0273289 1 0.185214
0.116289 1 0.167895
0.222538 1 0.147539
0.339132 1 0.125185
0.460014 0.988647 0.102235
0.576181 0.97084 0.0801404
0.682002 0.948669 0.0598306
0.774029 0.92018 0.042237
0.846555 0.896223 0.0279698
0.906401 0.877943 0.0166323
0.950439 0.865019 0.00854505
0.978744 0.856825 0.00358587
0.992309 0.852781 0.000671397
0.999802 0.851926 0
1 0.853101 0.000198367
1 0.855192 0.000381476
1 0.857816 0.000564584
1 0.860639 0.000732433
1 0.86363 0.000869764
1 0.866789 0.000900282
1 0.869841 0.00105287
1 0.87274 0.00120546
1 0.875639 0.00134279
1 0.878233 0.00148013
0 1 0.233249
0 1 0.233433
0 1 0.233417
0 1 0.232547
0 1 0.229755
0 1 0.226642
0 1 0.222553
0 1 0.215793
0 1 0.20589
0.0267643 1 0.19202
0.114672 1 0.174655
0.221088 1 0.15433
0.337087 1 0.132219
0.456687 1 0.109377
0.571817 0.995117 0.0875105
0.676616 0.981521 0.0675822
0.767117 0.966094 0.0503853
0.839139 0.944091 0.0362707
0.898177 0.925505 0.0250248
0.942138 0.912245 0.0166323
0.971695 0.903456 0.0111391
0.988113 0.898314 0.00755322
0.99678 0.896223 0.00561532
1 0.895964 0.00462348
1 0.897063 0.0043946
1 0.898619 0.00444038
1 0.900511 0.00460822
1 0.902296 0.00476081
1 0.904082 0.00486763
1 0.90605 0.00518807
1 0.907958 0.00552377
1 0.909636 0.00581369
1 0.911055 0.00605783
0 1 0.237751
0 1 0.237842
0 1 0.237797
0 1 0.237217
0 1 0.234012
0 1 0.230686
0 1 0.22652
0 1 0.219623
0 1 0.209567
0.0280156 1 0.195697
0.117906 1 0.17847
0.224125 1 0.158129
0.338964 1 0.136248
0.457725 1 0.113802
0.571481 1 0.092256
0.675471 0.997299 0.0724193
0.76492 0.988022 0.055375
0.835599 0.974365 0.0415045
0.893568 0.958556 0.0304417
0.936706 0.945312 0.0223545
0.966812 0.936355 0.016846
0.985336 0.930694 0.0131685
0.994415 0.927779 0.0109407
0.999619 0.926528 0.00981155
0.999954 0.926863 0.00952163
1 0.927733 0.0093843
1 0.928634 0.00935378
1 0.929549 0.0093843
1 0.930282 0.00939956
1 0.931426 0.00955215
1 0.932525 0.00973526
1 0.933516 0.0099031
1 0.934234 0.0100252
0 1 0.240055
0 1 0.240085
0 1 0.24004
0 1 0.239689
0 1 0.236072
0 1 0.232578
0 1 0.228138
0 1 0.221225
0 1 0.210666
0.0325017 1 0.196872
0.124392 1 0.179507
0.230991 1 0.159426
0.345708 1 0.137835
0.463447 1 0.11548
0.576226 1 0.0942245
0.678233 1 0.0749218
0.765408 0.998581 0.05832
0.83537 0.990417 0.0446326
0.892668 0.979507 0.0337682
0.934478 0.967163 0.0258793
0.963989 0.958175 0.020325
0.983078 0.952407 0.0168154
0.992844 0.949157 0.0145876
0.998672 0.947723 0.0134127
0.999741 0.947311 0.0128634
1 0.947372 0.0126497
1 0.947555 0.0125734
1 0.947997 0.0125277
1 0.948211 0.0123903
1 0.948592 0.0123598
1 0.94902 0.0124208
1 0.949569 0.0125124
1 0.949935 0.0125582
0 1 0.240986
0 1 0.241001
0 1 0.240986
0 1 0.240116
0 1 0.23653
0 1 0.232959
0 1 0.22826
0 1 0.221195
0 1 0.210315
0.0419318 1 0.196201
0.134203 1 0.178851
0.241367 1 0.158892
0.356252 1 0.13727
0.472862 1 0.115175
0.583825 1 0.094377
0.684611 1 0.0754864
0.76936 1 0.0593423
0.838148 0.997864 0.0459297
0.893843 0.991241 0.0354772
0.934173 0.980529 0.0277256
0.962875 0.971771 0.022446
0.981598 0.96611 0.0189212
0.991928 0.962753 0.016846
0.99765 0.96083 0.0156405
0.999466 0.960159 0.0150607
1 0.959915 0.014786
1 0.959747 0.0146487
1 0.959655 0.0145113
1 0.959533 0.0142367
1 0.959625 0.0140841
1 0.959808 0.0141146
1 0.95996 0.0141299
1 0.960067 0.0141451
0 1 0.241337
0 1 0.241337
0 1 0.241321
0 1 0.239902
0 1 0.236255
0 1 0.232532
0 1 0.227695
0 1 0.220157
0 1 0.209216
0.0519722 1 0.194781
0.145449 1 0.177264
0.253376 1 0.157
0.367224 1 0.135729
0.482765 1 0.114076
0.592172 1 0.0936294
0.691951 1 0.0749981
0.77435 1 0.059205
0.841764 1 0.0463111
0.895155 0.996933 0.0361791
0.934707 0.98819 0.0286564
0.9626 0.979751 0.0235447
0.980896 0.974121 0.0200961
0.99144 0.97055 0.0180667
0.99707 0.968734 0.016846
0.999283 0.967803 0.0162661
1 0.967361 0.0159762
1 0.967117 0.0158083
1 0.966934 0.015671
1 0.966674 0.0153811
1 0.966506 0.0151675
1 0.966598 0.0151827
1 0.966674 0.0151827
1 0.966674 0.0151827
0 1 0.241794
0 1 0.241779
0 1 0.241764
0 1 0.239567
0 1 0.235828
0 1 0.232013
0 1 0.227024
0 1 0.218997
0.00117494 1 0.207767
0.0628367 1 0.19292
0.157183 1 0.175265
0.264546 1 0.155322
0.378653 1 0.133898
0.493584 1 0.112367
0.601495 1 0.0922255
0.698222 1 0.0741894
0.778912 1 0.0586404
0.845472 1 0.0459144
0.897536 0.999146 0.0360876
0.935866 0.991928 0.0289769
0.962951 0.983642 0.0239719
0.980819 0.978119 0.0205539
0.991363 0.974701 0.0184482
0.996918 0.972839 0.017258
0.999222 0.971969 0.0168002
1 0.971481 0.0164492
1 0.97116 0.0161898
1 0.970871 0.016022
1 0.970565 0.0158389
1 0.970413 0.0157015
1 0.970428 0.0157015
1 0.970428 0.0157015
1 0.970413 0.0157015
0 1 0.241947
0 1 0.241947
0 1 0.241947
0 1 0.23917
0 1 0.235538
0 1 0.231617
0 1 0.226123
0 1 0.217945
0.00669871 1 0.206348
0.0721752 1 0.191409
0.167452 1 0.173632
0.275105 1 0.153536
0.388067 1 0.132296
0.501335 1 0.111162
0.608316 1 0.0911116
0.70399 1 0.0733196
0.782895 1 0.0581674
0.848371 1 0.0455329
0.899001 0.999374 0.0361334
0.936751 0.993942 0.0290227
0.963439 0.985916 0.0241093
0.980819 0.980636 0.0208286
0.991241 0.977371 0.0187991
0.99675 0.975433 0.0176089
0.999161 0.974624 0.0171206
1 0.974121 0.0167849
1 0.97377 0.0165255
1 0.973449 0.0162966
1 0.973129 0.0161135
1 0.972869 0.0159762
1 0.972869 0.0159762
1 0.972869 0.0159762
1 0.972854 0.0159762
0 1 0.241947
0 1 0.241947
0 1 0.241947
0 1 0.238651
0 1 0.234974
0 1 0.230884
0 1 0.225132
0 1 0.216922
0.0110018 1 0.205173
0.0795453 1 0.190341
0.176043 1 0.17229
0.283299 1 0.152163
0.3953 1 0.131182
0.507713 1 0.110216
0.613794 1 0.0902724
0.707652 1 0.0727855
0.785611 1 0.0577859
0.850477 1 0.0454261
0.900328 0.999557 0.0360876
0.937285 0.995209 0.0291142
0.963592 0.987518 0.0242313
0.980819 0.982345 0.0209964
0.991165 0.979156 0.019089
0.996582 0.977157 0.0179141
0.999069 0.976349 0.0173342
1 0.97583 0.0170138
1 0.975479 0.0168154
1 0.975143 0.0165103
1 0.974823 0.0162966
1 0.974533 0.016144
1 0.974533 0.016144
1 0.974517 0.0161288
1 0.974502 0.0161288
0 1 0.241947
0 1 0.241947
0 1 0.241947
0 1 0.238148
0 1 0.234394
0 1 0.230152
0 1 0.224308
0 1 0.216007
0.0149233 1 0.203906
