pic/松下lut/LUTs/T-Natural.cube
TITLE "Generated by Resolve"
#LUMIXPHOTOSTYLE VLOG
LUT_3D_SIZE 9
0.0156252 0.0156252 0.0156252
0.0492561 0.00552377 0.00924697
0.212497 0 0
0.658183 0 0
1 0 0
1 0 0
1 0 0
1 0 0
1 0 0
0.00955215 0.052079 0.0218357
0.0414435 0.0406043 0.0155642
0.198459 0.000854505 0
0.609461 0 0
0.982651 0 0
1 0 0
1 0 0
1 0 0
1 0 0
0 0.211231 0.0492103
0.00801099 0.189975 0.0426032
0.150698 0.146609 0.0157168
0.568292 0.0181888 0
0.972747 0 0
1 0 0
1 0 0
1 0 0
1 0 0
0 0.617853 0.118975
0 0.606378 0.115434
0.0567636 0.575174 0.0928817
0.457176 0.443854 0.0162203
0.898756 0.307958 0
1 0.269108 0
1 0.303319 0
1 0.354177 0
1 0.403403 0
0 0.997314 0.20032
0 0.995636 0.197375
0 0.990158 0.175128
0.359564 0.91313 0.100694
0.80058 0.773922 0.0166781
0.991806 0.716564 0
1 0.726741 0
1 0.752239 0
1 0.77435 0
0 1 0.237751
0 1 0.234012
0 1 0.209567
0.338964 1 0.136248
0.76492 0.988022 0.055375
0.966812 0.936355 0.016846
0.999954 0.926863 0.00952163
1 0.930282 0.00939956
1 0.934234 0.0100252
0 1 0.241794
0 1 0.235828
0.00117494 1 0.207767
0.378653 1 0.133898
0.778912 1 0.0586404
0.962951 0.983642 0.0239719
0.999222 0.971969 0.0168002
1 0.970565 0.0158389
1 0.970413 0.0157015
0 1 0.241947
0 1 0.233906
0.0174716 1 0.203082
0.405447 1 0.129503
0.789059 1 0.0573434
0.9635 0.989273 0.0245518
0.998932 0.978271 0.0176852
1 0.976745 0.0167849
1 0.976379 0.0165103
0 1 0.241947
0 1 0.233143
0.0205386 1 0.202075
0.406012 1 0.129396
0.785519 1 0.0580453
0.960647 0.990326 0.0251469
0.998291 0.979004 0.0179446
1 0.977462 0.0170443
1 0.97705 0.016846
0.0151827 0.0160678 0.0454261
0.0467231 0.00677501 0.0340276
0.208103 0 0.00370794
0.684855 0 0
1 0 0
1 0 0
1 0 0
1 0 0
1 0 0
0.00929274 0.0528115 0.047837
0.0395972 0.0394903 0.0381323
0.191287 0.00015259 0.00657664
0.598611 0 0
0.980102 0 0
1 0 0
1 0 0
1 0 0
1 0 0
0 0.205432 0.0659037
0.00755322 0.18677 0.0570077
0.148775 0.145052 0.0305791
0.565164 0.0172122 0
0.973022 0 0
1 0 0
1 0 0
1 0 0
1 0 0
0 0.613489 0.126497
0 0.602502 0.122026
0.0558328 0.572442 0.10074
0.454856 0.441184 0.022385
0.896681 0.305074 0
1 0.26482 0
1 0.297597 0
1 0.346838 0
1 0.394888 0
0 0.996872 0.206409
0 0.995056 0.202136
0 0.988006 0.180148
0.354971 0.910628 0.103273
0.796201 0.769207 0.016846
0.991424 0.709529 0
1 0.718776 0
1 0.745357 0
1 0.767941 0.000518807
0 1 0.251179
0 1 0.244785
0 1 0.219303
0.328969 1 0.141558
0.756024 0.986786 0.0565499
0.96347 0.932738 0.016846
0.999969 0.92192 0.00880446
1 0.924926 0.00926223
1 0.928832 0.0112917
0 1 0.268299
0 1 0.257206
0 1 0.226352
0.362188 1 0.146578
0.765682 1 0.0638895
0.957412 0.983886 0.0248417
0.998413 0.970733 0.0167849
1 0.969085 0.0157626
1 0.968719 0.0154726
0 1 0.280995
0 1 0.264164
0.00985733 1 0.227939
0.384283 1 0.146273
0.772885 1 0.0647288
0.957031 0.990967 0.0256657
0.99794 0.978271 0.0178378
1 0.976577 0.0168307
1 0.976043 0.0163577
0 1 0.285771
0 1 0.26566
0.0118563 1 0.228046
0.383444 1 0.146197
0.768063 1 0.064683
0.953079 0.992493 0.0265049
0.997147 0.979324 0.0181888
1 0.97763 0.0171359
1 0.97705 0.016846
0.0138857 0.0192111 0.18175
0.044419 0.00982681 0.159075
0.207965 0 0.126589
0.690089 0 0.0523537
1 0 0.000320439
1 0 0
1 0 0
1 0 0
1 0 0.00949111
0.00819409 0.0556039 0.178912
0.0373236 0.0412299 0.158694
0.186084 0.000259403 0.120989
0.592523 0 0.0276646
0.979171 0 0
1 0 0
1 0 0
1 0 0
1 0 0.00527962
0 0.20499 0.176928
0.00679026 0.188724 0.16376
0.147814 0.147448 0.137743
0.564721 0.0186007 0.0516976
0.973144 0 1.5259e-05
1 0 0
1 0 0
1 0 0.010071
1 0 0.0407874
0 0.617243 0.222004
0 0.606302 0.215946
0.0553902 0.575692 0.195789
0.455344 0.444251 0.114473
0.89633 0.30782 0.0289464
1 0.266407 0.00691234
1 0.298466 0.0168307
1 0.346441 0.0444495
1 0.392233 0.072343
0 0.997238 0.298573
0 0.995575 0.292302
0 0.988235 0.270069
0.353109 0.91371 0.187991
0.7935 0.768688 0.0981918
0.999619 0.707774 0.059556
1 0.715755 0.062623
1 0.740749 0.0768139
1 0.762997 0.0903334
0 1 0.354513
0 1 0.341985
0 1 0.313649
0.322347 1 0.227619
0.748882 1 0.136004
0.962966 0.935302 0.0910353
1 0.923506 0.0843977
1 0.926299 0.0877394
1 0.928939 0.0908217
0 1 0.396902
0 1 0.373342
0 1 0.334081
0.349172 1 0.240848
0.754345 1 0.146853
0.954818 0.98793 0.10016
1 0.973388 0.0885328
1 0.971633 0.0871748
1 0.97113 0.0869001
0 1 0.431525
0 1 0.395865
0.0037232 1 0.345632
0.366934 1 0.245228
0.759106 1 0.148974
0.953384 0.994049 0.100786
1 0.979751 0.0871443
1 0.977829 0.0842298
1 0.977096 0.0822614
0 1 0.443809
0 1 0.400992
0.00482185 1 0.346273
0.363897 1 0.244312
0.753216 1 0.147616
0.948547 0.996384 0.098085
0.999176 0.981964 0.082887
1 0.979934 0.0796826
1 0.979202 0.0780652
0.0106508 0.0271611 0.533623
0.0390936 0.0182803 0.505058
0.207187 0 0.482582
0.680232 0 0.410254
1 0 0.317891
1 0 0.287541
1 0 0.301915
1 0 0.335088
1 0 0.376745
0.00514229 0.0612955 0.529015
0.0320134 0.0466926 0.497795
0.175891 0.00273136 0.453925
0.578424 0 0.350042
0.975494 0 0.258412
1 0 0.237308
1 0 0.268315
1 0 0.314626
1 0 0.363973
0 0.206439 0.507546
0.00396735 0.192065 0.490562
0.142245 0.152132 0.466667
0.557122 0.0214542 0.376196
0.969665 0 0.291554
1 0 0.277226
1 0 0.314305
1 0 0.363943
1 0 0.414816
0 0.618875 0.533883
0 0.608438 0.525185
0.0510719 0.577966 0.507393
0.447547 0.446403 0.420447
0.890028 0.309224 0.332082
1 0.265751 0.308644
1 0.296773 0.338445
1 0.343374 0.380484
1 0.387564 0.420218
0 0.997833 0.604822
0 0.996445 0.594095
0 0.987182 0.57116
0.342931 0.914534 0.480064
0.783703 0.76817 0.381491
1 0.704326 0.341588
1 0.710445 0.35227
1 0.733684 0.376532
1 0.756207 0.399405
0 1 0.676356
0 1 0.654658
0 1 0.620111
0.306859 1 0.519326
0.733944 0.996536 0.412192
0.954726 0.935683 0.358465
1 0.921447 0.351583
1 0.924224 0.359045
1 0.927367 0.365194
0 1 0.743191
0 1 0.706905
0 1 0.656794
0.327153 1 0.543328
0.735042 1 0.427665
0.94374 0.995178 0.365118
0.998535 0.97792 0.347402
1 0.975692 0.345129
1 0.974945 0.34406
0 1 0.791531
0 1 0.74023
0 1 0.676387
0.340749 1 0.552773
0.73814 1 0.430701
0.941192 0.999084 0.363134
0.996399 0.985565 0.340993
1 0.983063 0.33521
1 0.982086 0.33106
0 1 0.804883
0 1 0.745876
0 1 0.676112
0.336049 1 0.54902
0.729824 1 0.424903
0.935882 1 0.354376
0.994354 0.988449 0.330236
1 0.985656 0.323217
1 0.98471 0.319112
0.00759899 0.0348058 0.866224
0.0347753 0.0263676 0.847852
0.221378 0 0.83711
0.669215 0 0.745571
1 0 0.65745
1 0 0.627939
1 0 0.638437
1 0 0.660777
1 0 0.685634
0.00231937 0.0668803 0.865553
0.0271458 0.0528878 0.841505
0.167117 0.00886549 0.803571
0.568078 0 0.707927
0.972305 0 0.619913
1 0 0.59617
1 0 0.619257
1 0 0.652125
1 0 0.683146
0 0.211032 0.859861
0.00236515 0.198138 0.84744
0.137545 0.158953 0.823743
0.551797 0.0281834 0.736278
0.967254 0 0.652567
1 0 0.63418
1 0 0.66067
1 0 0.69514
1 0 0.72784
0 0.623804 0.897063
0 0.614099 0.890013
0.0471046 0.584115 0.871717
0.442145 0.452399 0.786648
0.884504 0.314473 0.69836
1 0.268925 0.671611
1 0.298177 0.694591
1 0.342687 0.727047
1 0.385443 0.755947
0 0.999298 0.969451
0 0.998413 0.959533
0 0.988052 0.936629
0.333822 0.9187 0.846876
0.774609 0.77084 0.747875
0.995499 0.705028 0.705943
1 0.708797 0.713848
1 0.730312 0.734417
1 0.750927 0.752514
0 1 0.991073
0 1 0.982177
0 1 0.965698
0.292439 1 0.882658
0.719936 0.997162 0.77705
0.946395 0.939132 0.720943
0.999786 0.922789 0.711818
1 0.924529 0.717647
1 0.926925 0.722744
0 1 1
0 1 1
0 1 0.985718
0.307103 1 0.901595
0.715373 1 0.789837
0.932708 0.999161 0.725155
0.993271 0.984146 0.705699
1 0.981201 0.702525
1 0.980331 0.701183
0 1 1
0 1 1
0 1 0.996063
0.316609 1 0.907347
0.715831 1 0.791226
0.928985 1 0.722042
0.9906 0.993866 0.698344
1 0.9906 0.691859
1 0.989456 0.687388
0 1 1
0 1 1
0 1 0.995132
0.310384 1 0.903716
0.706386 1 0.785168
0.923186 1 0.712764
0.988388 0.997375 0.686748
0.999557 0.993912 0.679301
1 0.992782 0.67454
0.00634775 0.0373541 0.985672
0.0346685 0.029099 0.978012
0.226703 0 0.947494
0.666804 0 0.862669
1 0 0.785763
1 0 0.758694
1 0 0.760128
1 0 0.764279
1 0 0.767712
0.00143435 0.0691081 0.989364
0.02533 0.0554055 0.978622
0.164935 0.0112764 0.94931
0.568704 0 0.867277
0.972869 0 0.78407
1 0 0.754559
1 0 0.759258
1 0 0.768215
1 0 0.775647
0 0.216266 1
0.00183108 0.203647 0.998398
0.138277 0.164034 0.975235
0.554604 0.0330663 0.89337
0.969512 0 0.811429
1 0 0.784878
1 0 0.792462
1 0 0.804547
1 0 0.815427
0 0.633646 1
0 0.623178 1
0.0471504 0.592599 1
0.444297 0.45977 0.962432
0.884749 0.32105 0.876616
1 0.275349 0.84448
1 0.302968 0.852842
1 0.344533 0.866819
1 0.385809 0.879728
0 1 1
0 0.999557 1
0 0.98967 1
0.332509 0.922652 1
0.772137 0.774762 0.94464
0.99321 0.707301 0.902129
1 0.709056 0.901534
1 0.72929 0.911665
1 0.748104 0.919844
0 1 1
0 1 1
0 1 1
0.286503 1 1
0.712673 0.998077 0.977386
0.941848 0.941314 0.928649
0.999268 0.923491 0.917433
1 0.924224 0.91899
1 0.926009 0.921096
0 1 1
0 1 1
0 1 1
0.295415 1 1
0.703761 1 0.990524
0.925872 0.999878 0.935851
0.990036 0.987762 0.918883
0.999741 0.984466 0.916136
1 0.983322 0.914855
0 1 1
0 1 1
0 1 1
0.301854 1 1
0.701457 1 0.991638
0.920913 1 0.934844
0.986923 0.998856 0.915602
0.998077 0.9953 0.910704
1 0.994079 0.90808
0 1 1
0 1 1
0 1 1
0.293858 1 1
0.691249 1 0.98938
0.913146 1 0.930404
0.984543 1 0.909697
0.997208 0.99913 0.90399
1 0.997925 0.90074
0.00634775 0.0377661 0.99707
0.03888 0.0280613 0.990982
0.235142 0 0.954971
0.672465 0 0.872541
1 0 0.79968
1 0 0.774029
1 0 0.772045
1 0 0.772641
1 0 0.773434
0.00114443 0.0704509 1
0.0259709 0.0565499 0.996277
0.168765 0.0117494 0.968841
0.579812 0 0.890822
0.977417 0 0.810132
1 0 0.778149
1 0 0.776471
1 0 0.779156
1 0 0.782757
0 0.223667 1
0.00169375 0.211215 1
0.144289 0.170581 0.995315
0.567178 0.0378576 0.915434
0.976074 0 0.834928
1 0 0.806027
1 0 0.808392
1 0 0.815305
1 0 0.822904
0 0.6495 1
0 0.638224 1
0.0513619 0.604944 1
0.454582 0.470253 0.994049
0.891066 0.331395 0.911315
1 0.286824 0.877821
1 0.31313 0.879149
1 0.353231 0.886229
1 0.392569 0.893629
0 1 1
0 0.999664 1
0 0.992035 1
0.339208 0.928786 1
0.776913 0.780285 0.992462
0.994507 0.71252 0.951659
1 0.713344 0.94609
1 0.731807 0.949248
1 0.749279 0.952819
0 1 1
0 1 1
0 1 1
0.28925 1 1
0.713344 0.998291 1
0.941146 0.942275 0.988373
0.999069 0.923995 0.976898
1 0.924147 0.97615
1 0.925383 0.976333
0 1 1
0 1 1
0 1 1
0.292683 1 1
0.700221 1 1
0.923613 1 0.999298
0.988937 0.988785 0.985794
0.999466 0.985412 0.983307
1 0.984176 0.982437
0 1 1
0 1 1
0 1 1
0.29601 1 1
0.695918 1 1
0.917021 1 0.99942
0.985519 0.999725 0.985687
0.997269 0.996872 0.982422
1 0.995621 0.981033
0 1 1
0 1 1
0 1 1
0.286946 1 1
0.684703 1 1
0.908873 1 0.997971
0.982406 1 0.984283
0.996277 1 0.980545
1 0.999588 0.978958
0.00634775 0.0378424 0.998779
0.0488594 0.0251011 0.990814
0.24448 0 0.954391
0.682261 0 0.872358
1 0 0.800839
1 0 0.776165
1 0 0.773617
1 0 0.773434
1 0 0.773434
0.000915541 0.0724041 1
0.0274205 0.0578164 0.998734
0.175509 0.0120089 0.970764
0.595438 0 0.891722
0.98349 0 0.811963
1 0 0.781216
1 0 0.779492
1 0 0.781155
1 0 0.783902
0 0.234241 1
0.000640879 0.221103 1
0.152712 0.178592 0.998779
0.584085 0.0437324 0.917021
0.985885 0 0.837583
1 0 0.810178
1 0 0.81239
1 0 0.818448
1 0 0.825116
0 0.668971 1
0 0.657282 1
0.0581979 0.621271 1
0.468574 0.483711 0.996246
0.900023 0.344518 0.916121
1 0.301396 0.883787
1 0.32694 0.884733
1 0.365988 0.891066
1 0.403326 0.897475
0 1 1
0 0.999817 1
0 0.995285 1
0.349462 0.936126 1
0.784298 0.787152 0.998215
0.99646 0.720058 0.957794
1 0.720043 0.952087
1 0.737057 0.954559
1 0.752544 0.957336
0 1 1
0 1 1
0 1 1
0.295811 1 1
0.717693 0.998337 1
0.942046 0.943526 0.996948
0.999115 0.924849 0.986252
1 0.924559 0.985092
1 0.925444 0.984985
0 1 1
0 1 1
0 1 1
0.294194 1 1
0.700374 1 1
0.923232 1 1
0.988678 0.988922 0.997024
0.999405 0.985397 0.994888
1 0.9841 0.994141
0 1 1
0 1 1
0 1 1
0.294926 1 1
0.694194 1 1
0.915877 1 1
0.985138 0.999832 0.998978
0.997162 0.997147 0.996551
1 0.995895 0.995758
0 1 1
0 1 1
0 1 1
0.28452 1 1
0.682261 1 1
0.907469 1 1
0.981643 1 0.999496
0.996094 1 0.997055
1 1 0.996109
0.00634775 0.0378424 0.998779
0.054551 0.0234226 0.989776
0.253422 0 0.952712
0.692805 0 0.87039
1 0 0.799588
1 0 0.775891
1 0 0.773556
1 0 0.773434
1 0 0.773434
0.000686656 0.0745403 1
0.0293889 0.0597543 0.998566
0.184482 0.0122225 0.969482
0.612711 0 0.889006
0.990524 0 0.810132
1 0 0.781201
1 0 0.780133
1 0 0.782055
1 0 0.784894
0 0.24622 1
0.00181582 0.231983 1
0.162402 0.187823 0.997574
0.601785 0.0498207 0.915389
0.996628 0 0.837034
1 0 0.811978
1 0 0.814466
1 0 0.820661
1 0.00932326 0.82742
0 0.689662 1
0 0.676997 1
0.0651713 0.63827 1
0.482307 0.496986 0.996368
0.909422 0.358862 0.917128
1 0.31667 0.886061
1 0.340841 0.887053
1 0.378531 0.893217
1 0.414359 0.899367
0 1 1
0 1 1
0.00062562 0.998901 1
0.360449 0.943984 1
0.790845 0.794598 0.998199
0.99617 0.727581 0.960281
1 0.72723 0.954482
1 0.74255 0.956207
1 0.756329 0.958419
0 1 1
0 1 1
0 1 1
0.302144 1 1
0.722362 0.998474 1
0.94345 0.944869 0.998749
0.999207 0.925887 0.98854
1 0.925048 0.987366
1 0.925689 0.987121
0 1 1
0 1 1
0 1 1
0.296269 1 1
0.70132 1 1
0.923232 1 1
0.988663 0.988876 0.999695
0.999405 0.985367 0.998138
1 0.983993 0.997345
0 1 1
0 1 1
0 1 1
0.294392 1 1
0.693675 1 1
0.91519 1 1
0.984848 0.999847 1
0.997131 0.997177 0.999771
1 0.995911 0.99913
0 1 1
0 1 1
0 1 1
0.282887 1 1
0.680568 1 1
0.906355 1 1
0.981323 1 1
0.995972 1 0.999863
1 1 0.999451
