pic/松下lut/LUTs/T-Nostalgy.cube
TITLE "Generated by Resolve"
#LUMIXPHOTOSTYLE VLOG
LUT_3D_SIZE 5
0.0481727 0.111467 0.179385
0.0728313 0.11667 0.17908
0.526848 0.0407263 0.113039
0.709087 0.0135653 0.0860456
0.732708 0.0104829 0.0829938
0.0264744 0.139467 0.184787
0.0701152 0.138125 0.181094
0.574517 0.0457008 0.101549
0.754101 0.00799573 0.0805371
0.773007 0.00576791 0.0783093
0 0.42446 0.0545663
0 0.45864 0.046479
0.784054 0.619272 0.00706493
0.982651 0.552758 0.0126497
0.994827 0.569116 0.00830091
0 0.492775 0.0985733
0 0.547707 0.0358892
0.779828 0.793759 0
0.995956 0.805951 0
0.996048 0.804791 0
0 0.541741 0.171298
0 0.602441 0.11693
0.778714 0.797574 0
0.995224 0.815717 0
0.995239 0.81384 0
0.0456855 0.112337 0.200824
0.0738689 0.117571 0.196475
0.546166 0.037583 0.109911
0.72256 0.0118868 0.0843824
0.745159 0.00901808 0.0815442
0.024506 0.145266 0.219608
0.0669108 0.142702 0.208789
0.595361 0.0298619 0.10222
0.767651 0.00637827 0.0789197
0.785489 0.00447089 0.0770275
0 0.477806 0.222293
0 0.503624 0.18674
0.785626 0.638331 0.00396735
0.995071 0.573404 0.00691234
1 0.586419 0.0041352
0 0.558373 0.363226
0 0.605997 0.329183
0.727153 0.785275 0.0358892
0.995789 0.807843 0
0.995911 0.806546 0
0 0.601419 0.45626
0 0.658747 0.429984
0.7149 0.794537 0.229953
0.996399 0.805295 0.00709544
0.996597 0.803006 0.00471504
0.0247349 0.0841535 0.470924
0.051957 0.0835889 0.467048
0.588602 0.0181125 0.430533
0.753628 0 0.391592
0.774075 0 0.405875
0.0209964 0.0802319 0.557641
0.0192264 0.104509 0.543435
0.633097 0.00909438 0.48127
0.793835 0 0.438437
0.809644 0 0.45301
0 0.575906 0.698054
0 0.604288 0.695476
0.715755 0.68072 0.621607
0.949599 0.598169 0.566751
0.958831 0.610483 0.56936
0 0.628763 0.749981
0 0.678843 0.757946
0.615564 0.826764 0.698756
0.971237 0.829435 0.621912
0.975845 0.827298 0.613794
0 0.658106 0.77171
0 0.71664 0.782177
0.617258 0.832502 0.722164
0.964645 0.838849 0.660594
0.974411 0.836622 0.652842
0.0179446 0.076997 0.632319
0.0176089 0.0765393 0.642969
0.628885 0.00231937 0.657145
0.785748 0 0.652811
0.803845 0 0.658854
0.0146487 0.0735027 0.71339
0.0135042 0.0763561 0.721279
0.668238 1.5259e-05 0.705531
0.824689 0 0.695354
0.83949 0 0.70277
0 0.588785 0.778637
0 0.621546 0.794156
0.687724 0.69868 0.785107
0.94226 0.616724 0.772229
0.952285 0.627054 0.770642
0 0.637156 0.791424
0 0.687205 0.81033
0.569512 0.837842 0.798428
0.956146 0.84271 0.769024
0.97261 0.842344 0.76669
0 0.663554 0.80116
0 0.722347 0.821057
0.57348 0.841276 0.799741
0.952224 0.849348 0.772442
0.97203 0.849546 0.770077
0.0157931 0.0747234 0.683009
0.0168765 0.0741894 0.694743
0.667277 0 0.699733
0.805341 0 0.695674
0.822751 0 0.701198
0.00793469 0.0989853 0.734325
0 0.149935 0.748211
0.684871 0.0074464 0.741726
0.838071 0 0.73579
0.850263 0 0.740124
0 0.594614 0.786175
0 0.633738 0.802472
0.684794 0.71313 0.794965
0.942458 0.636408 0.785565
0.952819 0.643381 0.78407
0 0.642115 0.797253
0 0.693095 0.816526
0.561883 0.838468 0.80473
0.953658 0.843305 0.778881
0.97142 0.842344 0.776455
0 0.670756 0.807462
0 0.725872 0.825483
0.563012 0.841932 0.805234
0.948974 0.849607 0.779583
0.971801 0.850019 0.777951
