pic/松下lut/LUTs/T-Nostalgy.cube
TITLE "Generated by Resolve"
#LUMIXPHOTOSTYLE VLOG
LUT_3D_SIZE 9
0.0481727 0.111467 0.179385
0.0523995 0.112398 0.18027
0.0728313 0.11667 0.17908
0.174502 0.121614 0.153979
0.526848 0.0407263 0.113039
0.682887 0.0170901 0.0895399
0.709087 0.0135653 0.0860456
0.723171 0.0118105 0.0843214
0.732708 0.0104829 0.0829938
0.045182 0.11696 0.180835
0.0504311 0.116991 0.181338
0.0736248 0.120073 0.17969
0.182162 0.124102 0.152682
0.55462 0.0362554 0.108568
0.707149 0.0138247 0.086305
0.731182 0.0106813 0.0831922
0.743648 0.00920119 0.0817426
0.752178 0.00822461 0.080766
0.0264744 0.139467 0.184787
0.0285344 0.138231 0.184436
0.0701152 0.138125 0.181094
0.191638 0.138323 0.149767
0.574517 0.0457008 0.101549
0.729458 0.0109102 0.0834211
0.754101 0.00799573 0.0805371
0.765347 0.00668345 0.0792248
0.773007 0.00576791 0.0783093
0.000427253 0.235767 0.158907
0.00122072 0.23241 0.160739
0.00163272 0.23061 0.156374
0.208453 0.25388 0.11754
0.695949 0.209354 0.0804913
0.832013 0.152071 0.0801251
0.845991 0.136721 0.0797894
0.856199 0.142123 0.0799878
0.867582 0.155413 0.0798047
0 0.42446 0.0545663
0 0.432731 0.0525368
0 0.45864 0.046479
0.110887 0.583673 0.0510719
0.784054 0.619272 0.00706493
0.956878 0.575586 0.00851453
0.982651 0.552758 0.0126497
0.989532 0.556054 0.0116121
0.994827 0.569116 0.00830091
0 0.472221 0.0554055
0 0.493111 0.0424201
0 0.53109 0.0339666
0.0188907 0.683787 0.0392157
0.790478 0.775433 0
0.998093 0.777462 0
0.99939 0.764538 0
0.999573 0.762554 0
0.999451 0.763928 0
0 0.492775 0.0985733
0 0.515068 0.0720073
0 0.547707 0.0358892
0 0.693629 0.0368048
0.779828 0.793759 0
0.995422 0.81178 0
0.995956 0.805951 0
0.996063 0.804639 0
0.996048 0.804791 0
0 0.520256 0.141588
0 0.546471 0.121981
0 0.57557 0.0754101
0.0325017 0.712505 0.0430762
0.778302 0.796338 0
0.995117 0.816861 0
0.99527 0.813489 0
0.995346 0.812482 0
0.995377 0.812253 0
0 0.541741 0.171298
0 0.571664 0.152651
0 0.602441 0.11693
0.0717479 0.726848 0.0460212
0.778714 0.797574 0
0.994812 0.818402 0
0.995224 0.815717 0
0.995254 0.814389 0
0.995239 0.81384 0
0.0476387 0.112169 0.183383
0.0517433 0.112871 0.184207
0.0737163 0.117266 0.182559
0.178576 0.120043 0.15758
0.537118 0.0390021 0.11133
0.690517 0.0159609 0.088426
0.716487 0.0126345 0.0851301
0.730037 0.0108339 0.0833448
0.739513 0.00967422 0.0822003
0.0444648 0.11783 0.185382
0.0497139 0.117708 0.185473
0.0745098 0.120958 0.183673
0.185885 0.122744 0.156252
0.565026 0.0346227 0.106966
0.715007 0.0128176 0.0853132
0.738491 0.00981155 0.0823377
0.750698 0.0083772 0.0809186
0.758862 0.00747692 0.0800183
0.0258946 0.14139 0.190875
0.0274815 0.140154 0.190295
0.0701762 0.139986 0.18645
0.19649 0.137987 0.155749
0.585534 0.0355535 0.102342
0.737148 0.00996414 0.0824903
0.761212 0.00720226 0.0797436
0.772168 0.00584421 0.0784009
0.77969 0.00505074 0.0776074
0 0.244495 0.168856
0 0.240391 0.17023
0 0.239033 0.164767
0.214084 0.261509 0.11606
0.705989 0.213489 0.0794842
0.840131 0.154177 0.0799268
0.85333 0.137621 0.0796674
0.863401 0.143343 0.0798657
0.87483 0.157137 0.0796674
0 0.440497 0.100969
0 0.447272 0.0911421
0 0.468925 0.0469215
0.0969711 0.596109 0.0486458
0.793408 0.633616 0.0043183
0.965743 0.588251 0.00492866
0.990143 0.564202 0.00941482
0.995819 0.566918 0.00857557
0.999985 0.579324 0.00588998
0 0.492882 0.133242
0 0.511101 0.117891
0 0.541756 0.0746014
0.00972 0.688655 0.0377508
0.792782 0.782025 0
0.997696 0.785016 0
0.998825 0.77203 0
0.998993 0.769848 0
0.998795 0.771313 0
0 0.516136 0.18088
0 0.537789 0.164843
0 0.566247 0.132387
0 0.689509 0.0356603
0.771923 0.795224 0
0.995193 0.814923 0
0.995651 0.809903 0
0.995758 0.808774 0
0.995758 0.808789 0
0 0.543923 0.235554
0 0.569512 0.220661
0 0.598047 0.192035
0.00302129 0.703822 0.0817578
0.7617 0.793591 0
0.995148 0.816571 0
0.995239 0.813825 0
0.9953 0.81297 0
0.995361 0.812421 0
0 0.565164 0.273243
0 0.594797 0.260426
0 0.624887 0.234867
0.00691234 0.725475 0.161044
0.754528 0.791638 0
0.993698 0.816007 0
0.995254 0.813733 0
0.995361 0.81239 0
0.995468 0.811231 0
0.0456855 0.112337 0.200824
0.0517128 0.112825 0.200076
0.0738689 0.117571 0.196475
0.182391 0.118074 0.178317
0.546166 0.037583 0.109911
0.697093 0.0151064 0.0875715
0.72256 0.0118868 0.0843824
0.735943 0.0101167 0.0826276
0.745159 0.00901808 0.0815442
0.0350805 0.118868 0.205417
0.0483253 0.118593 0.203723
0.07393 0.121767 0.199863
0.189715 0.121904 0.179309
0.574533 0.0331121 0.10547
0.722042 0.0119478 0.0844587
0.744533 0.00909438 0.0816205
0.756481 0.00772107 0.0802625
0.764416 0.00682078 0.0793622
0.024506 0.145266 0.219608
0.0249943 0.143938 0.217166
0.0669108 0.142702 0.208789
0.20061 0.139208 0.185199
0.595361 0.0298619 0.10222
0.745007 0.0090486 0.0815747
0.767651 0.00637827 0.0789197
0.778225 0.00520333 0.07776
0.785489 0.00447089 0.0770275
0 0.262089 0.22388
0 0.256397 0.221027
0 0.253223 0.209903
0.211383 0.273655 0.175341
0.708919 0.210208 0.080354
0.845975 0.14844 0.0797284
0.858534 0.131304 0.0793011
0.867948 0.137179 0.0796063
0.879515 0.151766 0.0797589
0 0.477806 0.222293
0 0.484245 0.212604
0 0.503624 0.18674
0.0536049 0.599435 0.0941634
0.785626 0.638331 0.00396735
0.968566 0.596521 0.00299077
0.995071 0.573404 0.00691234
0.999664 0.574472 0.00646983
1 0.586419 0.0041352
0 0.534325 0.29836
0 0.552483 0.288243
0 0.581552 0.263828
0 0.69192 0.175158
0.766049 0.777905 0
0.99704 0.787533 0
0.998474 0.77612 0
0.998672 0.773983 0
0.99855 0.775326 0
0 0.558373 0.363226
0 0.57937 0.353582
0 0.605997 0.329183
0 0.70721 0.261631
0.727153 0.785275 0.0358892
0.988724 0.80972 0
0.995789 0.807843 0
0.99585 0.807004 0
0.995911 0.806546 0
0 0.583047 0.419333
0 0.607553 0.410193
0 0.634424 0.387167
0 0.727291 0.329122
0.717769 0.789746 0.150851
0.971969 0.805844 0.0028687
0.995956 0.806241 0
0.995941 0.806043 0
0.996002 0.805371 0
0 0.601419 0.45626
0 0.630228 0.450172
0 0.658747 0.429984
0 0.745098 0.378744
0.7149 0.794537 0.229953
0.961242 0.80708 0.0854353
0.996399 0.805295 0.00709544
0.996445 0.803586 0.00323491
0.996597 0.803006 0.00471504
0.0315709 0.0914473 0.295705
0.0395514 0.0919509 0.291402
0.0743725 0.0981918 0.287892
0.187686 0.0998703 0.275319
0.561105 0.0325933 0.212039
0.709682 0.0119936 0.172412
0.733608 0.00921645 0.162936
0.746853 0.00762951 0.165499
0.755932 0.00640879 0.172564
0.0303502 0.0936751 0.310826
0.0299992 0.100206 0.304982
0.0719158 0.107149 0.299138
0.193835 0.10782 0.28481
0.58854 0.027985 0.218647
0.733974 0.00869764 0.179232
0.755596 0.00657664 0.169711
0.766827 0.00515755 0.172229
0.774838 0.0041352 0.179431
0.020264 0.137575 0.35169
0.0207675 0.136767 0.346471
0.0390173 0.142535 0.332937
0.202106 0.135195 0.312352
0.608576 0.0241093 0.235981
0.755856 0.00572213 0.194202
0.777386 0.0037995 0.182208
0.787503 0.00277714 0.184604
0.794461 0.00169375 0.192737
0 0.293172 0.417151
0 0.287755 0.413077
0 0.282628 0.399466
0.187854 0.305074 0.37174
0.712383 0.221408 0.287053
0.839994 0.125689 0.234043
0.8486 0.096437 0.213001
0.858473 0.105135 0.216358
0.872679 0.126802 0.229725
0 0.53576 0.482292
0 0.542931 0.476173
0 0.562737 0.458213
0.000320439 0.641855 0.409003
0.750393 0.652003 0.296605
0.939116 0.595911 0.225544
0.967956 0.567636 0.203281
0.973404 0.569162 0.201373
0.977722 0.582269 0.207645
0 0.585809 0.559853
0 0.603677 0.556832
0 0.632883 0.545251
0 0.736751 0.513008
0.707317 0.788754 0.368765
0.958968 0.783841 0.249973
0.994873 0.773144 0.191073
0.99559 0.770275 0.181506
0.995209 0.771603 0.189334
0 0.604501 0.609537
0 0.625803 0.608164
0 0.652033 0.596246
0 0.749477 0.573785
0.670268 0.805188 0.461219
0.942351 0.812863 0.359701
0.987823 0.808133 0.295613
0.988663 0.805707 0.279164
0.988632 0.805386 0.28127
0 0.623789 0.642618
0 0.648829 0.641718
0 0.67541 0.630716
0 0.764477 0.609812
0.663432 0.810285 0.505989
0.932647 0.818402 0.421592
0.983993 0.81651 0.377249
0.984863 0.814038 0.359228
0.984878 0.813443 0.359808
0 0.638895 0.662608
0 0.667597 0.66305
0 0.69543 0.653376
0 0.777981 0.633829
0.663722 0.813748 0.536522
0.926162 0.821485 0.462898
0.98175 0.820386 0.426154
0.982605 0.818051 0.411063
0.982635 0.817472 0.411551
0.0247349 0.0841535 0.470924
0.0248417 0.0842756 0.46833
0.051957 0.0835889 0.467048
0.202426 0.0756847 0.479576
0.588602 0.0181125 0.430533
0.730816 0.000396735 0.400427
0.753628 0 0.391592
0.765423 0 0.395804
0.774075 0 0.405875
0.0236362 0.0829938 0.497704
0.023743 0.0831159 0.494957
0.049134 0.0825666 0.490547
0.209155 0.0738384 0.499825
0.615259 0.0131685 0.448447
0.753429 0 0.41886
0.773907 0 0.409598
0.784527 0 0.414633
0.792355 0 0.425483
0.0209964 0.0802319 0.557641
0.0211643 0.0804456 0.553643
0.0192264 0.104509 0.543435
0.207141 0.0866102 0.545785
0.633097 0.00909438 0.48127
0.773053 0 0.448112
0.793835 0 0.438437
0.803082 0 0.44271
0.809644 0 0.45301
0 0.307271 0.645029
0 0.298558 0.64181
0 0.295155 0.638819
0.147982 0.331518 0.631876
0.719509 0.242451 0.584573
0.854368 0.137896 0.54107
0.863996 0.10631 0.518761
0.873899 0.11548 0.523278
0.888212 0.141909 0.539239
0 0.575906 0.698054
0 0.581918 0.69662
0 0.604288 0.695476
0 0.681758 0.684489
0.715755 0.68072 0.621607
0.917556 0.624704 0.581521
0.949599 0.598169 0.566751
0.955047 0.598779 0.565988
0.958831 0.610483 0.56936
0 0.616724 0.732143
0 0.634913 0.735576
0 0.665812 0.738048
0 0.769955 0.744015
0.654063 0.811872 0.662638
0.923842 0.804303 0.606699
0.974258 0.795087 0.58378
0.979522 0.792981 0.579202
0.979522 0.794263 0.580545
0 0.628763 0.749981
0 0.651087 0.755322
0 0.678843 0.757946
0 0.776425 0.766796
0.615564 0.826764 0.698756
0.909407 0.832151 0.647898
0.971237 0.829435 0.621912
0.975814 0.827619 0.614206
0.975845 0.827298 0.613794
0 0.645518 0.763287
0 0.670878 0.769635
0 0.698756 0.772045
0 0.788235 0.779324
0.612345 0.830442 0.713405
0.9028 0.836667 0.667079
0.967269 0.836362 0.646693
0.974777 0.834852 0.639033
0.974777 0.834104 0.637934
0 0.658106 0.77171
0 0.687266 0.778988
0 0.71664 0.782177
0 0.799298 0.787228
0.617258 0.832502 0.722164
0.898787 0.838926 0.679393
0.964645 0.838849 0.660594
0.974289 0.837583 0.653956
0.974411 0.836622 0.652842
0.019791 0.0789502 0.587274
0.019791 0.0789502 0.587243
0.0194858 0.0786297 0.594369
0.20528 0.0678874 0.623606
0.610849 0.00720226 0.594766
0.75021 0 0.581155
0.771695 0 0.575952
0.78349 0 0.579538
0.792584 0 0.587228
0.0184634 0.0775464 0.619715
0.0184329 0.0775158 0.620142
0.0183719 0.0773785 0.623529
0.21268 0.0658732 0.646265
0.63798 0.00265507 0.615091
0.772778 0 0.601846
0.793057 0 0.597787
0.803021 0 0.601404
0.810666 0 0.609049
0.0160678 0.0750134 0.675975
0.016083 0.0750286 0.675502
0.0158083 0.0755474 0.678462
0.209918 0.0683909 0.693278
0.653483 0.00062562 0.646769
0.791394 0 0.628367
0.81146 0 0.624964
0.820996 0 0.628733
0.827512 0 0.635538
0 0.304295 0.737545
0 0.294362 0.739376
0 0.292576 0.744076
0.114015 0.343435 0.755535
0.724636 0.251453 0.741741
0.863005 0.127169 0.717739
0.873503 0.0918898 0.702434
0.885542 0.107668 0.707622
0.900526 0.138445 0.719402
0 0.585626 0.767224
0 0.594751 0.772
0 0.616571 0.778775
0 0.697185 0.791089
0.695415 0.693309 0.75288
0.908553 0.63711 0.73315
0.943267 0.610407 0.726345
0.949157 0.611353 0.725063
0.95285 0.622217 0.725277
0 0.623056 0.779843
0 0.645258 0.78941
0 0.67483 0.798062
0 0.779324 0.820905
0.621668 0.823041 0.769223
0.907942 0.815625 0.739025
0.961761 0.806638 0.727733
0.970367 0.805097 0.725338
0.973724 0.806592 0.725292
0 0.633433 0.784451
0 0.656977 0.794156
0 0.685924 0.802945
0 0.783185 0.827085
0.58085 0.836042 0.781689
0.894545 0.841794 0.7514
0.95967 0.840421 0.739605
0.972137 0.83978 0.736187
0.973083 0.839506 0.735363
0 0.650736 0.792508
0 0.676143 0.800916
0 0.704173 0.810376
0 0.7935 0.831449
0.579385 0.838605 0.78558
0.888533 0.845167 0.756603
0.957046 0.845975 0.746914
0.971267 0.845792 0.743801
0.972595 0.845319 0.742748
0 0.661097 0.796155
0 0.691844 0.80647
0 0.721798 0.817273
0 0.803769 0.83415
0.586725 0.839887 0.787076
0.885039 0.846647 0.760021
0.955642 0.847578 0.750652
0.970535 0.847517 0.747768
0.972396 0.847074 0.746777
0.0179446 0.076997 0.632319
0.0178988 0.0769513 0.633387
0.0176089 0.0765393 0.642969
0.211139 0.0645914 0.677348
0.628885 0.00231937 0.657145
0.764324 0 0.652476
0.785748 0 0.652811
0.79678 0 0.655589
0.803845 0 0.658854
0.0164492 0.0754253 0.666819
0.0163424 0.0753185 0.669139
0.0161593 0.0750286 0.675639
0.21944 0.0623636 0.701915
0.65594 0.000213626 0.677577
0.787152 0 0.672892
0.806516 0 0.672724
0.816571 0 0.675715
0.823697 0 0.680415
0.0146487 0.0735027 0.71339
0.0145876 0.0734417 0.714885
0.0135042 0.0763561 0.721279
0.212634 0.070161 0.741588
0.668238 1.5259e-05 0.705531
0.804715 0 0.695689
0.824689 0 0.695354
0.833509 0 0.698543
0.83949 0 0.70277
0 0.320027 0.757595
0 0.310506 0.759884
0 0.310445 0.768841
0.0941329 0.363836 0.786328
0.730327 0.273869 0.787137
0.877424 0.154635 0.778714
0.888319 0.112734 0.768093
0.900236 0.127535 0.772793
0.91342 0.159564 0.780972
0 0.588785 0.778637
0 0.599161 0.783825
0 0.621546 0.794156
0 0.703243 0.814252
0.687724 0.69868 0.785107
0.905684 0.642725 0.774533
0.94226 0.616724 0.772229
0.948455 0.617014 0.771374
0.952285 0.627054 0.770642
0 0.624247 0.785382
0 0.64715 0.795895
0 0.677226 0.806989
0 0.78143 0.834333
0.610483 0.825284 0.793194
0.901793 0.817838 0.771939
0.958251 0.808942 0.766339
0.967498 0.807553 0.764904
0.971267 0.809171 0.764462
0 0.637156 0.791424
0 0.658518 0.799313
0 0.687205 0.81033
0 0.784558 0.836088
0.569512 0.837842 0.798428
0.888151 0.843671 0.775616
0.956146 0.84271 0.769024
0.969406 0.842359 0.767315
0.97261 0.842344 0.76669
0 0.651637 0.796765
0 0.67744 0.806394
0 0.705882 0.815961
0 0.79382 0.838148
0.567056 0.840162 0.799512
0.882231 0.846952 0.777584
0.953811 0.847974 0.771267
0.968719 0.848051 0.769451
0.972183 0.847913 0.768719
0 0.663554 0.80116
0 0.693919 0.8121
0 0.722347 0.821057
0 0.803754 0.840085
0.57348 0.841276 0.799741
0.879042 0.84828 0.778714
0.952224 0.849348 0.772442
0.96817 0.849668 0.770825
0.97203 0.849546 0.770077
0.0167697 0.0757458 0.660563
0.0166781 0.0756542 0.662181
0.0169833 0.075227 0.670542
0.222538 0.0619211 0.70309
0.649332 0.000213626 0.681025
0.776043 0 0.678248
0.796582 0 0.6795
0.807157 0 0.682292
0.81471 0 0.685679
0.0154726 0.0743877 0.69131
0.0153201 0.0742199 0.695384
0.0152438 0.0739605 0.702007
0.228489 0.0600595 0.727306
0.672557 0 0.702068
0.798733 0 0.700099
0.81706 0 0.700038
0.826825 0 0.703197
0.833219 0 0.706645
0.0134127 0.0756542 0.726589
0.0130617 0.0764324 0.730007
0.00538643 0.112016 0.735027
0.214771 0.120516 0.757488
0.678553 0 0.727581
0.814343 0 0.720638
0.833112 0 0.720531
0.842176 0 0.723659
0.848157 0 0.72755
0 0.341299 0.761868
0 0.336385 0.76582
0 0.337606 0.775204
0.0777142 0.399161 0.794049
0.736355 0.314946 0.799542
0.890074 0.200214 0.799939
0.904692 0.156619 0.794141
0.914641 0.168399 0.796994
0.924468 0.197467 0.801526
0 0.591424 0.783444
0 0.603708 0.788479
0 0.627863 0.799191
0 0.709468 0.819486
0.685374 0.705989 0.792294
0.904662 0.650996 0.784054
0.942275 0.62501 0.782986
0.94873 0.624613 0.782208
0.952636 0.633448 0.781262
0 0.627207 0.790127
0 0.648829 0.79884
0 0.680446 0.811429
0 0.782971 0.837781
0.608057 0.82594 0.797848
0.89929 0.818662 0.77966
0.956924 0.809644 0.775433
0.96669 0.808316 0.774502
0.970764 0.809949 0.774044
0 0.639536 0.795163
0 0.660792 0.802625
0 0.689998 0.814008
0 0.785824 0.83949
0.564889 0.838239 0.802502
0.885176 0.844083 0.781079
0.95462 0.843168 0.776287
0.9682 0.842649 0.774792
0.972229 0.842603 0.774105
0 0.653178 0.799207
0 0.680644 0.810315
0 0.708583 0.819257
0 0.794659 0.841001
0.561013 0.840589 0.803357
0.879454 0.847227 0.78201
0.952087 0.848295 0.777035
0.967575 0.848417 0.775662
0.972107 0.848356 0.775067
0 0.668391 0.805432
0 0.695445 0.814374
0 0.724086 0.823743
0 0.804364 0.842695
0.567346 0.841672 0.803296
0.876188 0.848508 0.782696
0.950423 0.849622 0.777554
0.966964 0.849989 0.776318
0.971832 0.849912 0.775631
0.0157931 0.0747234 0.683009
0.0156863 0.0746166 0.685878
0.0168765 0.0741894 0.694743
0.236057 0.0591287 0.726009
0.667277 0 0.699733
0.789181 0 0.697704
0.805341 0 0.695674
0.815579 0 0.698131
0.822751 0 0.701198
0.0148013 0.0736706 0.709072
0.0146029 0.0734417 0.714748
0.0125734 0.0805066 0.719799
0.237491 0.0621958 0.745571
0.683391 0 0.719005
0.806882 0 0.716854
0.824109 0 0.716228
0.832715 0 0.71841
0.838514 0 0.721202
0.00793469 0.0989853 0.734325
0.00547799 0.111269 0.736904
0 0.149935 0.748211
0.223545 0.182849 0.775464
0.684871 0.0074464 0.741726
0.818814 0 0.735424
0.838071 0 0.73579
0.845853 0 0.737774
0.850263 0 0.740124
0 0.362005 0.764981
0 0.355962 0.768597
0 0.36614 0.778943
0.0683299 0.43267 0.797879
0.74136 0.363027 0.803418
0.900359 0.260945 0.80972
0.918486 0.222049 0.807675
0.926375 0.230228 0.808698
0.933761 0.25481 0.81088
0 0.594614 0.786175
0 0.606867 0.791775
0 0.633738 0.802472
0 0.716014 0.822934
0.684794 0.71313 0.794965
0.904494 0.661341 0.786679
0.942458 0.636408 0.785565
0.948974 0.635462 0.785183
0.952819 0.643381 0.78407
0 0.629221 0.792767
0 0.650843 0.800839
0 0.68249 0.81323
0 0.784772 0.839933
0.606775 0.826261 0.800275
0.897566 0.819165 0.782498
0.95613 0.810315 0.778561
0.966094 0.80885 0.777646
0.97023 0.810254 0.777096
0 0.642115 0.797253
0 0.664454 0.805554
0 0.693095 0.816526
0 0.787106 0.841245
0.561883 0.838468 0.80473
0.883253 0.844175 0.783551
0.953658 0.843305 0.778881
0.967437 0.842603 0.777295
0.97142 0.842344 0.776455
0 0.655192 0.801251
0 0.682292 0.811872
0 0.711131 0.821408
0 0.795636 0.842527
0.557031 0.840848 0.805508
0.877104 0.847303 0.784207
0.950896 0.848386 0.779339
0.966674 0.848417 0.778012
0.971649 0.848264 0.77734
0 0.670756 0.807462
0 0.69894 0.816983
0 0.725872 0.825483
0 0.805081 0.844251
0.563012 0.841932 0.805234
0.873762 0.848554 0.784604
0.948974 0.849607 0.779583
0.966049 0.849958 0.77847
0.971801 0.850019 0.777951
