pic/松下lut/LUTs/T-Nostalgy.cube
TITLE "Generated by Resolve"
#LUMIXPHOTOSTYLE VLOG
LUT_3D_SIZE 33
0.0481727 0.111467 0.179385
0.0487373 0.11165 0.179644
0.0491035 0.111849 0.17998
0.0502022 0.112078 0.180209
0.0523995 0.112398 0.18027
0.0549172 0.112978 0.180179
0.0566567 0.113802 0.180087
0.062974 0.114687 0.179614
0.0728313 0.11667 0.17908
0.0813458 0.120134 0.178149
0.104234 0.121752 0.175021
0.134463 0.12282 0.166674
0.174502 0.121614 0.153979
0.244724 0.112688 0.146975
0.340108 0.0883192 0.136416
0.438376 0.0551766 0.127138
0.526848 0.0407263 0.113039
0.591669 0.0303655 0.102739
0.636866 0.0235904 0.0959945
0.668177 0.019089 0.0915389
0.682887 0.0170901 0.0895399
0.693385 0.0155642 0.0880446
0.699275 0.0148165 0.0872969
0.704479 0.0141604 0.0866407
0.709087 0.0135653 0.0860456
0.713451 0.0130159 0.0855116
0.717128 0.0125582 0.0850538
0.720333 0.0121614 0.0846571
0.723171 0.0118105 0.0843214
0.725826 0.011429 0.0839399
0.728389 0.0110475 0.0835584
0.731136 0.0106813 0.0831922
0.732708 0.0104829 0.0829938
0.0477913 0.112474 0.17969
0.0483406 0.112688 0.179965
0.0486763 0.112871 0.180255
0.0497749 0.113069 0.180468
0.052018 0.113298 0.180514
0.0546731 0.113725 0.180377
0.0565042 0.114458 0.180224
0.0631266 0.115312 0.179812
0.0731212 0.117403 0.179156
0.0818952 0.120836 0.178073
0.105013 0.122713 0.174899
0.136156 0.123445 0.1664
0.177111 0.122271 0.153582
0.249897 0.113039 0.145953
0.34725 0.0893721 0.134768
0.446021 0.0551766 0.125444
0.535164 0.039292 0.111635
0.599832 0.0291295 0.101503
0.64419 0.0224613 0.0948806
0.675258 0.018143 0.0905776
0.689235 0.0161288 0.0885939
0.699672 0.0147707 0.0872511
0.705318 0.0140536 0.0865339
0.710399 0.0133974 0.085893
0.714885 0.0128328 0.0853285
0.719158 0.0122988 0.0847944
0.722576 0.0118868 0.0843824
0.725689 0.0114595 0.0839551
0.728344 0.0110628 0.0835737
0.730877 0.0107271 0.083238
0.733623 0.0103761 0.0829023
0.736187 0.0100862 0.0826123
0.737636 0.00991836 0.0824292
0.0476081 0.113222 0.180026
0.048127 0.11342 0.180285
0.0484321 0.113603 0.18056
0.0494698 0.113817 0.180743
0.0516976 0.114076 0.180758
0.0544594 0.114519 0.180606
0.0563668 0.11519 0.180423
0.0630045 0.115953 0.179995
0.0732586 0.11812 0.179278
0.0822919 0.121584 0.178119
0.10547 0.123629 0.174929
0.137301 0.124071 0.166232
0.179644 0.122896 0.15317
0.253468 0.11368 0.145235
0.352438 0.0910811 0.133303
0.452262 0.0556802 0.123919
0.542184 0.0382086 0.110536
0.60734 0.027985 0.100374
0.651255 0.0214542 0.0938735
0.681529 0.0172732 0.0897383
0.69543 0.0153048 0.0877852
0.705745 0.0139925 0.0864729
0.711299 0.0132753 0.085771
0.716258 0.012665 0.0851606
0.720562 0.0121309 0.0846265
0.724575 0.0116121 0.084123
0.727825 0.0111391 0.08365
0.730785 0.0107424 0.083238
0.733577 0.0103914 0.0829023
0.736019 0.0101015 0.0826276
0.738613 0.00979629 0.0823224
0.741253 0.00947585 0.0819867
0.742504 0.00933852 0.0818647
0.0469062 0.114672 0.180346
0.0476081 0.114794 0.180591
0.0479896 0.114885 0.180835
0.049012 0.114961 0.181018
0.0512856 0.115068 0.181048
0.0542611 0.115373 0.180911
0.056199 0.115877 0.180682
0.0628977 0.11667 0.180224
0.0734112 0.1187 0.179446
0.0825971 0.122118 0.17821
0.105882 0.124178 0.175067
0.138537 0.124514 0.166003
0.181155 0.123384 0.152926
0.256397 0.114061 0.144671
0.357092 0.0919661 0.132052
0.457511 0.0563211 0.122545
0.549187 0.0371099 0.109422
0.614511 0.0268864 0.0992905
0.657511 0.0205692 0.0930037
0.68748 0.0163577 0.0888228
0.701396 0.0145418 0.0870222
0.711727 0.0132296 0.0857252
0.717144 0.0125429 0.0850538
0.721813 0.0119783 0.0844892
0.725933 0.0114137 0.0839246
0.729717 0.0108797 0.0833906
0.733013 0.0104524 0.0829786
0.735927 0.0101167 0.0826276
0.738628 0.00979629 0.0823072
0.741115 0.00949111 0.0820172
0.743465 0.00923171 0.0817578
0.746029 0.00891127 0.0814527
0.747387 0.00875868 0.0812848
0.045182 0.11696 0.180835
0.04654 0.117021 0.181018
0.0472114 0.117037 0.181231
0.0482032 0.117021 0.181369
0.0504311 0.116991 0.181338
0.0534524 0.117144 0.181094
0.0554971 0.117617 0.18088
0.0624552 0.118318 0.180392
0.0736248 0.120073 0.17969
0.0829633 0.12314 0.178302
0.105791 0.124941 0.175204
0.138949 0.125185 0.166033
0.182162 0.124102 0.152682
0.258259 0.11487 0.144183
0.360586 0.0936751 0.131029
0.462577 0.0574502 0.120912
0.55462 0.0362554 0.108568
0.620401 0.0260319 0.098436
0.663203 0.019791 0.0922255
0.693049 0.0156405 0.0881056
0.707149 0.0138247 0.086305
0.717708 0.0124819 0.0849775
0.722744 0.0118715 0.0843671
0.727199 0.0112306 0.0837415
0.731182 0.0106813 0.0831922
0.735012 0.0102235 0.0827344
0.738277 0.00984207 0.0823529
0.741192 0.00947585 0.082002
0.743648 0.00920119 0.0817426
0.746059 0.00891127 0.0814527
0.748501 0.00863661 0.0811627
0.750881 0.00836194 0.0809033
0.752178 0.00822461 0.080766
0.0429847 0.119524 0.181415
0.0449683 0.119585 0.181491
0.0460975 0.119661 0.181659
0.0471351 0.119677 0.181796
0.0494087 0.119722 0.18175
0.0525521 0.119936 0.181537
0.0545663 0.120455 0.181323
0.0615091 0.12108 0.180667
0.0735485 0.122713 0.179675
0.0832837 0.125368 0.178424
0.105501 0.126619 0.175158
0.139391 0.126589 0.165911
0.182727 0.125475 0.152285
0.260136 0.116243 0.143481
0.364416 0.0962234 0.12961
0.466133 0.0602274 0.119387
0.559319 0.0355535 0.107851
0.625834 0.0252384 0.0976425
0.66862 0.019028 0.0914778
0.69865 0.0148928 0.0873732
0.712917 0.013077 0.0855726
0.723323 0.0117952 0.0842908
0.728267 0.0110781 0.0835737
0.732708 0.0104982 0.0830091
0.736568 0.0100404 0.0825666
0.74049 0.00956741 0.0820935
0.743481 0.00921645 0.0817426
0.746319 0.00888075 0.0814069
0.748821 0.00859083 0.081117
0.751049 0.00834669 0.0808881
0.753368 0.00808728 0.0806134
0.755795 0.00781262 0.0803388
0.757046 0.00766003 0.0802014
0.0400244 0.122545 0.182254
0.0424659 0.122545 0.182345
0.044419 0.122484 0.182452
0.0458839 0.122423 0.182528
0.0487373 0.122408 0.182452
0.0521248 0.122469 0.182162
0.0541543 0.122927 0.181888
0.0610819 0.123888 0.181323
0.0734569 0.125521 0.180194
0.0836347 0.128328 0.178775
0.105714 0.129793 0.175189
0.140581 0.129671 0.165743
0.184512 0.128374 0.151492
0.261494 0.118914 0.142672
0.366842 0.0995804 0.128435
0.468757 0.0661479 0.11696
0.563119 0.035523 0.107012
0.630762 0.0245212 0.0969253
0.674189 0.0182803 0.0907301
0.703593 0.0142824 0.0867628
0.718563 0.0123598 0.0848707
0.728695 0.011017 0.0835279
0.734081 0.0103304 0.0828412
0.738369 0.00981155 0.0823377
0.742306 0.00935378 0.0818799
0.745968 0.00892653 0.0814527
0.749035 0.00857557 0.0811017
0.751659 0.00827039 0.0808118
0.754101 0.00799573 0.0805371
0.75639 0.00773632 0.0802777
0.758587 0.00750744 0.0800336
0.760906 0.00723278 0.0797742
0.762203 0.00709544 0.0796368
0.030808 0.129671 0.183246
0.0326238 0.129381 0.183276
0.0348669 0.129046 0.183352
0.0372778 0.128649 0.183337
0.042237 0.128267 0.183062
0.049424 0.128038 0.182818
0.0525063 0.127977 0.182589
0.0592355 0.128084 0.182147
0.0727703 0.129137 0.180774
0.084062 0.131655 0.17937
0.106035 0.13312 0.17557
0.142641 0.133288 0.166537
0.187762 0.132692 0.150622
0.265553 0.123537 0.140932
0.372076 0.10454 0.126528
0.472557 0.0762798 0.113817
0.566659 0.0366522 0.105898
0.635294 0.0238499 0.0962539
0.678874 0.0176547 0.0901198
0.70837 0.0136568 0.0861372
0.724071 0.0116884 0.084184
0.734279 0.0103151 0.082826
0.740093 0.00961318 0.0821393
0.74432 0.0091249 0.081651
0.748104 0.00866712 0.0812085
0.751614 0.00828565 0.0808118
0.754543 0.00794995 0.0804761
0.757168 0.00766003 0.0801862
0.759548 0.00740063 0.079942
0.761746 0.00714122 0.0796826
0.763897 0.00688182 0.0794232
0.766049 0.0065919 0.0791333
0.767285 0.00640879 0.0789502
0.0264744 0.139467 0.184787
0.026566 0.139193 0.184741
0.0267796 0.138918 0.18471
0.0271763 0.138567 0.184726
0.0285344 0.138231 0.184436
0.0360723 0.137804 0.18378
0.0429389 0.137499 0.183169
0.0527199 0.13756 0.18262
0.0701152 0.138125 0.181094
0.0832837 0.139956 0.178958
0.106081 0.140887 0.175204
0.143938 0.140322 0.166186
0.191638 0.138323 0.149767
0.27303 0.129366 0.138567
0.383398 0.110643 0.123537
0.484688 0.0855268 0.109987
0.574517 0.0457008 0.101549
0.641993 0.0229801 0.0951095
0.683742 0.016907 0.0893568
0.712932 0.013077 0.0855726
0.729458 0.0109102 0.0834211
0.740169 0.00961318 0.0821393
0.746258 0.00889601 0.0814221
0.750484 0.00840772 0.0809339
0.754101 0.00799573 0.0805371
0.757565 0.00761425 0.0801404
0.760433 0.00729381 0.0798352
0.763088 0.00698863 0.07953
0.765347 0.00668345 0.0792248
0.767391 0.00639353 0.0789349
0.769558 0.00611887 0.0786755
0.771695 0.00590524 0.0784466
0.773007 0.00576791 0.0783093
0.0243076 0.15108 0.18558
0.0243839 0.150622 0.185595
0.0244755 0.150134 0.185641
0.0245518 0.149676 0.185733
0.0247501 0.14905 0.185718
0.0250095 0.148562 0.18529
0.0266728 0.14844 0.184649
0.0395972 0.148241 0.183505
0.0659953 0.148623 0.181537
0.0813306 0.150927 0.179217
0.105165 0.152697 0.174334
0.144823 0.152972 0.163546
0.196399 0.151949 0.146304
0.2822 0.143175 0.134417
0.400671 0.124605 0.118883
0.50634 0.101686 0.104829
0.59295 0.0725567 0.0942702
0.655177 0.0345312 0.0898299
0.695262 0.0189364 0.0867475
0.722301 0.0128786 0.0840772
0.738094 0.0099794 0.0823377
0.747005 0.00891127 0.0813001
0.75256 0.00827039 0.0806744
0.756664 0.00782788 0.0802167
0.760174 0.00747692 0.0798047
0.763607 0.00709544 0.0793622
0.766384 0.00680552 0.078996
0.768902 0.00656138 0.0786603
0.771084 0.00639353 0.0784009
0.773159 0.00624094 0.078172
0.77528 0.00608835 0.0779278
0.777508 0.00593576 0.0776684
0.778668 0.00588998 0.0775464
0.0198062 0.171588 0.182895
0.0198825 0.171267 0.182986
0.0200504 0.170596 0.183154
0.0202792 0.169772 0.183429
0.0205539 0.168948 0.183612
0.0207218 0.167971 0.183444
0.0209201 0.167147 0.183169
0.0231022 0.166339 0.182528
0.0504921 0.165179 0.180148
0.076524 0.166796 0.177676
0.102495 0.168109 0.172915
0.145815 0.168154 0.16144
0.202411 0.167742 0.141817
0.295872 0.160937 0.129427
0.421408 0.145205 0.113832
0.535225 0.127108 0.100252
0.62298 0.106325 0.0904097
0.683131 0.0858167 0.0837415
0.718029 0.0627756 0.0797284
0.739544 0.0413825 0.0780804
0.753353 0.0259251 0.0776837
0.761181 0.0195315 0.0776684
0.766079 0.0183719 0.0770275
0.768841 0.0165866 0.0768597
0.771359 0.0149996 0.0766613
0.773968 0.0136721 0.0765698
0.776074 0.012726 0.0764172
0.778225 0.0122377 0.0762036
0.780346 0.0123903 0.0759442
0.782345 0.0129702 0.075639
0.784482 0.01355 0.0753796
0.786633 0.0140383 0.0750591
0.787945 0.0144198 0.0748608
0.0116884 0.198932 0.175998
0.0118715 0.198459 0.17615
0.0121157 0.197772 0.176379
0.0123751 0.196887 0.176669
0.0127413 0.195773 0.176928
0.0129549 0.194995 0.176715
0.0130465 0.19469 0.176059
0.0131838 0.194324 0.175326
0.0190585 0.193957 0.172702
0.0558022 0.19501 0.168551
0.090837 0.197635 0.162051
0.140993 0.199222 0.146685
0.207874 0.199649 0.132677
0.310689 0.192569 0.122133
0.447196 0.178164 0.107942
0.56965 0.161105 0.0959182
0.659007 0.142916 0.0883192
0.722118 0.126894 0.0837415
0.756649 0.113375 0.081117
0.776944 0.101534 0.0792248
0.789151 0.0910048 0.0775311
0.794812 0.0841535 0.0764935
0.79881 0.0810101 0.0761273
0.800137 0.0778821 0.075761
0.801434 0.0754711 0.0754864
0.803647 0.0746471 0.0753796
0.806073 0.075288 0.0753338
0.808942 0.0772259 0.0754101
0.812009 0.0802167 0.0754864
0.815305 0.0837262 0.0757305
0.818814 0.0871901 0.076112
0.822095 0.0905623 0.0763867
0.824262 0.0930037 0.0764324
0.000427253 0.235767 0.158907
0.000610361 0.235309 0.159197
0.000823987 0.234623 0.15964
0.0010071 0.233463 0.16022
0.00122072 0.23241 0.160739
0.00144961 0.231281 0.160861
0.0016022 0.230625 0.160266
0.00163272 0.230396 0.15935
0.00163272 0.23061 0.156374
0.00743114 0.232517 0.148409
0.0611124 0.239002 0.135042
0.126741 0.246906 0.122744
0.208453 0.25388 0.11754
0.324331 0.251713 0.108248
0.471962 0.240055 0.0952621
0.603418 0.225666 0.0848554
0.695949 0.209354 0.0804913
0.760372 0.191623 0.0796216
0.796994 0.176059 0.0798047
0.818921 0.162203 0.0800488
0.832013 0.152071 0.0801251
0.838956 0.145525 0.079942
0.842893 0.141741 0.0798352
0.844739 0.138659 0.0798962
0.845991 0.136721 0.0797894
0.847898 0.135988 0.0797436
0.850156 0.136721 0.0797742
0.853056 0.139055 0.079881
0.856199 0.142123 0.0799878
0.859266 0.145296 0.0799878
0.862364 0.148867 0.0800031
0.865461 0.152712 0.0799115
0.867582 0.155413 0.0798047
0 0.286229 0.131548
0 0.285954 0.13167
0 0.285283 0.132021
0 0.284535 0.132479
0 0.282979 0.133242
0 0.281361 0.133776
0 0.281132 0.132372
0 0.281666 0.129686
0 0.282963 0.121614
0 0.287144 0.107195
0.0109102 0.295537 0.0962539
0.0997482 0.314458 0.101259
0.201694 0.327688 0.0996872
0.334081 0.32871 0.090074
0.494438 0.319722 0.0772259
0.634546 0.309316 0.068101
0.728435 0.295964 0.0662394
0.794095 0.281209 0.0674144
0.833661 0.26659 0.0692912
0.857008 0.252308 0.071397
0.871458 0.241871 0.072694
0.879591 0.233783 0.0736248
0.883757 0.227985 0.074464
0.885817 0.223606 0.0748455
0.887129 0.220813 0.0751507
0.888975 0.220096 0.0752728
0.891112 0.221286 0.0751965
0.893477 0.223835 0.0749981
0.895964 0.227283 0.0745098
0.898863 0.231678 0.0741588
0.901488 0.236301 0.0736858
0.904463 0.241245 0.0731365
0.906477 0.244953 0.0725872
0 0.337942 0.100389
0 0.338445 0.0999771
0 0.339086 0.099733
0 0.338796 0.100298
0 0.337835 0.100053
0 0.336583 0.0977951
0 0.337453 0.092668
0 0.341054 0.0858625
0 0.346349 0.0794385
0 0.356374 0.0737469
0 0.370825 0.0696269
0.0403296 0.396292 0.0750591
0.180392 0.42208 0.0785687
0.333593 0.430823 0.0680247
0.508064 0.425406 0.054902
0.65594 0.416312 0.0468605
0.752972 0.405249 0.0462806
0.821149 0.390021 0.0489662
0.865339 0.373373 0.0523384
0.89102 0.357565 0.0554513
0.906676 0.344701 0.057847
0.916426 0.335988 0.0594339
0.920867 0.329397 0.0606088
0.923644 0.324559 0.0614786
0.92517 0.322118 0.0618753
0.927123 0.321813 0.0621347
0.928893 0.322835 0.0620279
0.931014 0.325704 0.0616007
0.932998 0.329519 0.0607614
0.935195 0.334524 0.0598306
0.937835 0.340215 0.0590982
0.940307 0.345678 0.0580758
0.94197 0.349584 0.0572366
0 0.38674 0.0673228
0 0.388373 0.066331
0 0.389319 0.0654002
0 0.389609 0.0649577
0 0.389548 0.0648661
0 0.389349 0.0647898
0 0.391501 0.0636149
0 0.397635 0.0614328
0 0.406607 0.0590372
0 0.420462 0.0555581
0 0.440528 0.0508583
0.011841 0.469581 0.051957
0.151049 0.512093 0.0617838
0.325551 0.530053 0.0509346
0.514015 0.532586 0.0354009
0.671321 0.53135 0.025452
0.770153 0.524636 0.0237583
0.840696 0.51252 0.0250095
0.888792 0.498085 0.0274815
0.916106 0.480873 0.0309148
0.933318 0.465248 0.0341039
0.944991 0.454231 0.0364538
0.950622 0.446464 0.0381781
0.954162 0.441978 0.0391241
0.956161 0.438254 0.0399023
0.958175 0.436728 0.0403906
0.95996 0.437125 0.0403296
0.961761 0.439384 0.0397955
0.963638 0.443458 0.0388495
0.965499 0.44889 0.0373846
0.967544 0.453498 0.0364233
0.969711 0.458183 0.0353704
0.971008 0.461524 0.0345312
0 0.42446 0.0545663
0 0.427085 0.0538949
0 0.429419 0.0533303
0 0.431296 0.0528878
0 0.432731 0.0525368
0 0.434714 0.051957
0 0.438422 0.0510719
0 0.446845 0.0490425
0 0.45864 0.046479
0 0.476066 0.0429694
0 0.50164 0.0383459
0 0.534981 0.0377356
0.110887 0.583673 0.0510719
0.312383 0.60972 0.0421607
0.514244 0.616785 0.0242771
0.680323 0.619745 0.0118868
0.784054 0.619272 0.00706493
0.857984 0.611872 0.00531014
0.90808 0.600855 0.00511177
0.938308 0.587869 0.00650034
0.956878 0.575586 0.00851453
0.969558 0.566323 0.00981155
0.976669 0.560571 0.0110018
0.980224 0.555779 0.0119631
0.982651 0.552758 0.0126497
0.984466 0.551034 0.0130312
0.986007 0.550927 0.0129854
0.987686 0.552697 0.0124819
0.989532 0.556054 0.0116121
0.990967 0.559655 0.0105745
0.992325 0.563134 0.00955215
0.993835 0.566445 0.00889601
0.994827 0.569116 0.00830091
0 0.446647 0.0491798
0 0.450278 0.0482032
0 0.453742 0.0476539
0 0.456931 0.0469673
0 0.460014 0.0461433
0 0.463127 0.0455787
0 0.467506 0.0446784
0 0.476432 0.0428321
0 0.491615 0.040116
0 0.513176 0.0363622
0 0.543252 0.0324102
0 0.57908 0.0301518
0.0670481 0.63357 0.0442206
0.294743 0.669856 0.0394751
0.508446 0.680278 0.019501
0.683436 0.68661 0.0037232
0.792126 0.68986 6.10361e-05
0.870436 0.685313 0
0.924071 0.676631 0
0.958328 0.666285 0
0.977584 0.655756 0
0.991135 0.64831 0
0.998566 0.643107 0
0.999664 0.639109 0
0.999908 0.636912 1.5259e-05
1 0.635721 0
1 0.635737 0
1 0.636469 0
1 0.637873 0
1 0.639658 0
1 0.641779 0
1 0.64361 0
1 0.645457 0
0 0.461524 0.0471351
0 0.465965 0.0458686
0 0.470375 0.0446784
0 0.474083 0.0435035
0 0.47808 0.0425269
0 0.482124 0.0419471
0 0.486397 0.0408942
0 0.495476 0.0394141
0 0.511818 0.0366674
0 0.534356 0.0335393
0 0.565408 0.0301366
0 0.603937 0.0281376
0.046479 0.660838 0.0419165
0.278386 0.703212 0.0397803
0.49987 0.71783 0.0178073
0.680278 0.727749 0.0010071
0.795361 0.735149 0
0.877302 0.735851 0
0.93669 0.732036 0
0.973465 0.725155 0
0.993835 0.717037 0
0.999939 0.710231 0
1 0.704723 0
1 0.700221 0
1 0.696986 0
1 0.69543 0
1 0.694377 0
1 0.694224 0
1 0.694804 0
1 0.695918 0
1 0.697139 0
1 0.698604 0
1 0.699397 0
0 0.467002 0.049073
0 0.471931 0.0469978
0 0.476783 0.0451209
0 0.481376 0.0435035
0 0.486015 0.0416724
0 0.491066 0.0403449
0 0.496773 0.0390631
0 0.506355 0.0374914
0 0.522774 0.035172
0 0.546334 0.0320134
0 0.579171 0.0289464
0 0.618524 0.0270848
0.0318456 0.675502 0.0404974
0.263066 0.721614 0.0407721
0.487526 0.737911 0.0178378
0.673045 0.748989 0.000701915
0.794232 0.760372 0
0.878599 0.764126 0
0.943267 0.763424 0
0.982528 0.760464 0
0.99913 0.754818 0
1 0.748089 0
1 0.743389 0
1 0.740169 0
1 0.738384 0
1 0.737133 0
1 0.736431 0
1 0.736294 0
1 0.736538 0
1 0.737285 0
1 0.737957 0
1 0.738659 0
1 0.739193 0
0 0.472221 0.0554055
0 0.477501 0.0520485
0 0.48275 0.0489052
0 0.487694 0.0455634
0 0.493111 0.0424201
0 0.498863 0.0396277
0 0.50576 0.0378882
0 0.515084 0.0361028
0 0.53109 0.0339666
0 0.554513 0.0310063
0 0.587106 0.0284276
0 0.627268 0.0268711
0.0188907 0.683787 0.0392157
0.251835 0.732921 0.0413672
0.47686 0.750546 0.018143
0.66601 0.76286 0.000595102
0.790478 0.775433 0
0.877607 0.78172 0
0.945403 0.783429 0
0.985489 0.782101 0
0.998093 0.777462 0
0.99881 0.772396 0
0.999084 0.769009 0
0.999329 0.766354 0
0.99939 0.764538 0
0.999481 0.763256 0
0.999557 0.76257 0
0.999588 0.762325 0
0.999573 0.762554 0
0.999542 0.762905 0
0.999496 0.763302 0
0.999466 0.763638 0
0.999451 0.763928 0
0 0.476463 0.062623
0 0.481834 0.0585336
0 0.487098 0.05449
0 0.492256 0.0507668
0 0.497719 0.0459754
0 0.503609 0.0413519
0 0.51043 0.0380102
0 0.51902 0.0356756
0 0.53521 0.0334173
0 0.559197 0.0306249
0 0.592401 0.0280919
0 0.6327 0.026978
0.00614939 0.687587 0.038056
0.244816 0.738643 0.041886
0.469871 0.757382 0.0185855
0.661906 0.770825 0.000411994
0.787808 0.785275 0
0.876143 0.793027 0
0.944945 0.795773 0
0.986267 0.796216 0
0.99704 0.79266 0
0.997375 0.78851 0
0.997665 0.785351 0
0.997864 0.783169 0
0.997971 0.781643 0
0.998062 0.780652 0
0.998108 0.780011 0
0.998123 0.779858 0
0.998123 0.779919 0
0.998093 0.780255 0
0.998062 0.780591 0
0.998047 0.780835 0
0.998016 0.781109 0
0 0.481437 0.0745861
0 0.486763 0.0689555
0 0.492058 0.0634012
0 0.497276 0.0580148
0 0.502815 0.0520333
0 0.508644 0.0461433
0 0.515328 0.0405127
0 0.522835 0.0364385
0 0.53872 0.0330205
0 0.56257 0.030396
0 0.594873 0.027985
0 0.635248 0.0269474
0 0.689097 0.0368963
0.239918 0.742184 0.0423285
0.467613 0.761379 0.018616
0.659159 0.774777 0.000122072
0.784833 0.789899 0
0.873869 0.799359 0
0.943984 0.803449 0
0.987564 0.805005 0
0.996201 0.802518 0
0.996536 0.799222 0
0.99678 0.796658 0
0.996841 0.794736 0
0.996918 0.793332 0
0.99707 0.792493 0
0.997162 0.792065 0
0.997177 0.791852 0
0.997192 0.791836 0
0.997177 0.791943 0
0.997162 0.792065 0
0.997147 0.792264 0
0.997147 0.79237 0
0 0.486549 0.0863508
0 0.492012 0.0800946
0 0.497383 0.0733501
0 0.502602 0.0666056
0 0.508141 0.059617
0 0.513985 0.0532845
0 0.5205 0.0459602
0 0.527596 0.0392615
0 0.542672 0.0328832
0 0.566232 0.0300908
0 0.597879 0.0278325
0 0.637827 0.0269017
0 0.689998 0.0360113
0.238819 0.744167 0.0424964
0.464103 0.763378 0.0188907
0.655619 0.776974 0
0.781964 0.792401 0
0.871687 0.802533 0
0.942229 0.807553 0
0.988586 0.810391 0
0.995804 0.808301 0
0.995972 0.805692 0
0.996155 0.803693 0
0.996292 0.802213 0
0.996384 0.801175 0
0.99646 0.800473 0
0.99649 0.800015 0
0.996521 0.799802 0
0.996521 0.799741 0
0.996521 0.799802 0
0.996506 0.799954 0
0.99649 0.800015 0
0.99649 0.800046 0
0 0.492775 0.0985733
0 0.498589 0.0928511
0 0.504036 0.086656
0 0.509438 0.0797742
0 0.515068 0.0720073
0 0.520668 0.0635233
0 0.527138 0.0547646
0 0.53373 0.0458686
0 0.547707 0.0358892
0 0.570245 0.0302586
0 0.601694 0.0276951
0 0.641001 0.0269169
0 0.693629 0.0368048
0.240467 0.745892 0.0426032
0.46302 0.764782 0.0188907
0.652491 0.778119 0
0.779828 0.793759 0
0.870512 0.804578 0
0.940719 0.81001 0
0.988571 0.813306 0
0.995422 0.81178 0
0.995636 0.809644 0
0.995819 0.808087 0
0.995865 0.806897 0
0.995956 0.805951 0
0.996002 0.805295 0
0.996048 0.804883 0
0.996063 0.804685 0
0.996063 0.804639 0
0.996063 0.8047 0
0.996048 0.804746 0
0.996048 0.804776 0
0.996048 0.804791 0
0 0.499275 0.110018
0 0.504997 0.105226
0 0.510842 0.0993057
0 0.51632 0.0927596
0 0.522087 0.0848554
0 0.527794 0.0747997
0 0.533883 0.0645457
0 0.540291 0.054612
0 0.553094 0.0417945
0 0.574853 0.031281
0 0.606104 0.0275731
0 0.644648 0.0268406
0 0.697063 0.0374914
0.243442 0.747494 0.042298
0.46421 0.76614 0.0186465
0.651286 0.779217 0
0.779202 0.794888 0
0.868818 0.805692 0
0.9393 0.811444 0
0.988144 0.815229 0
0.99527 0.814099 0
0.995377 0.812253 0
0.995499 0.810864 0
0.995651 0.809842 0
0.995727 0.809079 0
0.995789 0.808545 0
0.995804 0.808179 0
0.995819 0.808026 0
0.995819 0.80798 0
0.995819 0.807996 0
0.995819 0.808011 0
0.995819 0.808026 0
0.995819 0.808026 0
0 0.506233 0.12108
0 0.512444 0.116625
0 0.518441 0.111467
0 0.524422 0.105547
0 0.530266 0.0979477
0 0.536187 0.0890059
0 0.542107 0.0785687
0 0.548211 0.0674449
0 0.559991 0.051545
0 0.580667 0.0356909
0 0.610498 0.0280156
0 0.64863 0.0270695
0.00395209 0.701991 0.0393683
0.249866 0.749218 0.0417182
0.467658 0.767193 0.0181582
0.65272 0.780179 0
0.778668 0.79556 0
0.867582 0.806271 0
0.937972 0.812207 0
0.98674 0.816114 0
0.995239 0.815503 0
0.995239 0.813962 0
0.995331 0.812879 0
0.995407 0.811933 0
0.995468 0.8112 0
0.995514 0.810681 0
0.99556 0.810361 0
0.99559 0.810193 0
0.995605 0.810117 0
0.995605 0.810086 0
0.995605 0.810086 0
0.995605 0.810071 0
0.995605 0.810071 0
0 0.513085 0.13164
0 0.519707 0.127398
0 0.52604 0.122896
0 0.53228 0.117968
0 0.538293 0.111086
0 0.544381 0.103075
0 0.550408 0.0929427
0 0.556374 0.0812848
0 0.567514 0.0621958
