pic/松下lut/LUTs/Vintage Blues.cube
TITLE "Generated by Resolve"
#LUMIXPHOTOSTYLE VLOG
LUT_3D_SIZE 33
0.00146487 0.00440986 0.0117647
0.00280766 0.00344854 0.010071
0.00408942 0.002533 0.00834669
0.00880446 0.00109865 0.00628672
0.0168307 0 0.00561532
0.0317998 0 0.00340276
0.0552987 0 0.000396735
0.116228 0 0
0.197421 0.00256352 0.00256352
0.283589 0.00688182 0.00688182
0.372656 0.00784314 0.0117647
0.463325 0.0162814 0.0117647
0.550515 0.0373999 0.0117647
0.618753 0.056611 0.0136416
0.683452 0.0801099 0.0240787
0.73698 0.0968338 0.027451
0.78819 0.110353 0.0336004
0.835004 0.127642 0.0352941
0.884184 0.140658 0.0389563
0.916106 0.153109 0.045182
0.93727 0.160784 0.0509804
0.939223 0.160784 0.0509804
0.941176 0.160784 0.0509804
0.941176 0.160784 0.0509804
0.941176 0.160784 0.0509804
0.941176 0.160784 0.0509804
0.941176 0.160784 0.0509804
0.941176 0.160784 0.0509804
0.941176 0.160784 0.0509804
0.941176 0.160784 0.0509804
0.941176 0.160784 0.0509804
0.941176 0.160784 0.0509804
0.941176 0.160784 0.0509804
0.00277714 0.00834669 0.0134127
0.0024567 0.00634775 0.0117647
0.00363165 0.00541695 0.00993362
0.00898756 0.0043946 0.00790417
0.0165255 0.0031281 0.0069276
0.0305791 0.0018616 0.00477607
0.0534371 0 0.000595102
0.111879 0 0
0.19237 0.00233463 0.00233463
0.27924 0.00665293 0.00665293
0.368933 0.00784314 0.0115663
0.459663 0.0155947 0.0117647
0.547295 0.0364843 0.0117647
0.616449 0.0559091 0.0134127
0.681376 0.079408 0.0238499
0.735531 0.0964218 0.027451
0.78674 0.109941 0.033402
0.833555 0.12723 0.0352941
0.882521 0.140246 0.0387427
0.914946 0.152651 0.0449531
0.936675 0.160586 0.050782
0.939132 0.160784 0.0509804
0.941176 0.160784 0.0509804
0.941176 0.160784 0.0509804
0.941176 0.160784 0.0509804
0.941176 0.160784 0.0509804
0.941176 0.160784 0.0509804
0.941176 0.160784 0.0509804
0.941176 0.160784 0.0509804
0.941176 0.160784 0.0509804
0.941176 0.160784 0.0509804
0.941176 0.160784 0.0509804
0.941176 0.160784 0.0509804
0.00392157 0.013077 0.0155489
0.00369268 0.0105287 0.0134127
0.00341802 0.00817884 0.0117647
0.00798047 0.00714122 0.00973526
0.0145266 0.00587472 0.00735485
0.0270848 0.0043183 0.00468452
0.0526589 0.00337224 0.00103761
0.107942 0.00103761 0.000213626
0.187823 0.002121 0.002121
0.275746 0.00646983 0.00646983
0.365209 0.00784314 0.0113527
0.456718 0.0150454 0.0117647
0.544396 0.0356603 0.0117647
0.614389 0.0552987 0.0131991
0.679515 0.0787976 0.0236515
0.734081 0.0960098 0.027451
0.785306 0.109529 0.0331884
0.832105 0.126818 0.0352941
0.880873 0.139818 0.0385443
0.913924 0.152239 0.0447395
0.936049 0.160388 0.0505837
0.93901 0.160784 0.0509804
0.941176 0.160784 0.0509804
0.941176 0.160784 0.0509804
0.941176 0.160784 0.0509804
0.941176 0.160784 0.0509804
0.941176 0.160784 0.0509804
0.941176 0.160784 0.0509804
0.941176 0.160784 0.0509804
0.941176 0.160784 0.0509804
0.941176 0.160784 0.0509804
0.941176 0.160784 0.0509804
0.941176 0.160784 0.0509804
0.00392157 0.0251316 0.0204166
0.00392157 0.0227054 0.0178988
0.00392157 0.0181888 0.0153658
0.00634775 0.0127413 0.012253
0.0138399 0.00906386 0.0093843
0.0238041 0.0074464 0.00590524
0.0517891 0.00772107 0.002533
0.105974 0.00814832 0.00163272
0.183825 0.0055848 0.00189212
0.270939 0.00621042 0.00621042
0.361074 0.00784314 0.0111238
0.452674 0.0142824 0.0117647
0.541176 0.0347295 0.0117647
0.612085 0.054612 0.0129702
0.677348 0.0779889 0.0233158
0.732479 0.095552 0.027451
0.783688 0.109071 0.0329595
0.830503 0.12636 0.0352941
0.879026 0.139361 0.0383154
0.912764 0.151781 0.0445106
0.935363 0.160159 0.0503548
0.938903 0.160784 0.0509804
0.941176 0.160784 0.0509804
0.941176 0.160784 0.0509804
0.941176 0.160784 0.0509804
0.941176 0.160784 0.0509804
0.941176 0.160784 0.0509804
0.941176 0.160784 0.0509804
0.941176 0.160784 0.0509804
0.941176 0.160784 0.0509804
0.941176 0.160784 0.0509804
0.941176 0.160784 0.0509804
0.941176 0.160784 0.0509804
0.00480659 0.0390021 0.0272221
0.00468452 0.0374609 0.0245823
0.00392157 0.0341039 0.0208438
0.00505074 0.0288853 0.0178988
0.0109712 0.0214389 0.0135348
0.019791 0.0171206 0.00975052
0.0474708 0.0137942 0.00383001
0.102037 0.0138247 0.00187686
0.181292 0.0163272 0.00230411
0.268803 0.0152438 0.00489815
0.355703 0.00784314 0.0108339
0.448264 0.0134585 0.0117647
0.537316 0.0336309 0.0117647
0.609323 0.0537728 0.0126955
0.674586 0.0768902 0.0227665
0.730388 0.0949569 0.027451
0.781598 0.108461 0.0326696
0.828412 0.125765 0.0352941
0.876829 0.138811 0.0380407
0.911391 0.151217 0.0442359
0.934462 0.159854 0.0500496
0.938766 0.160784 0.0509804
0.941176 0.160784 0.0509804
0.941176 0.160784 0.0509804
0.941176 0.160784 0.0509804
0.941176 0.160784 0.0509804
0.941176 0.160784 0.0509804
0.941176 0.160784 0.0509804
0.941176 0.160784 0.0509804
0.941176 0.160784 0.0509804
0.941176 0.160784 0.0509804
0.941176 0.160784 0.0509804
0.941176 0.160784 0.0509804
0.00666819 0.0696727 0.0348821
0.00653086 0.0627298 0.0314031
0.0062562 0.0587625 0.0291295
0.00454719 0.0515145 0.0240482
0.0100252 0.0410468 0.019089
0.0144198 0.0312352 0.0151675
0.0374609 0.0267033 0.00857557
0.0895094 0.0266117 0.0033875
0.17583 0.0283665 0.00392157
0.26688 0.031693 0.00392157
0.352712 0.0259861 0.00865187
0.442374 0.0146334 0.0117647
0.532174 0.032166 0.0117647
0.605646 0.0526741 0.0123293
0.670909 0.0754253 0.0220188
0.727977 0.0942702 0.027451
0.779187 0.107774 0.0323186
0.826001 0.124865 0.0352941
0.873884 0.138079 0.0376745
0.90956 0.150484 0.0438697
0.93344 0.159518 0.0497139
0.938582 0.160784 0.0509804
0.941176 0.160784 0.0509804
0.941176 0.160784 0.0509804
0.941176 0.160784 0.0509804
0.941176 0.160784 0.0509804
0.941176 0.160784 0.0509804
0.941176 0.160784 0.0509804
0.941176 0.160784 0.0509804
0.941176 0.160784 0.0509804
0.941176 0.160784 0.0509804
0.941176 0.160784 0.0509804
0.941176 0.160784 0.0509804
0.0100099 0.113725 0.0468147
0.00976577 0.107256 0.0437781
0.00872816 0.100313 0.0399634
0.00854505 0.0929122 0.0350195
0.00959792 0.0837262 0.0299535
0.0125277 0.0711528 0.0244602
0.0231632 0.0511482 0.0157473
0.0671244 0.0421149 0.00868238
0.158251 0.046891 0.004654
0.259739 0.0521553 0.00392157
0.351507 0.0522774 0.00540169
0.435157 0.0446326 0.0117647
0.524804 0.0430457 0.0117647
0.601282 0.0513619 0.0118868
0.666545 0.0736706 0.021149
0.724758 0.0933547 0.027451
0.775967 0.106859 0.0318608
0.822782 0.123491 0.0352941
0.870207 0.137163 0.0372015
0.907378 0.149615 0.0434272
0.932052 0.159045 0.0492409
0.938354 0.160784 0.0509804
0.940993 0.160784 0.0509804
0.941176 0.160784 0.0509804
0.941176 0.160784 0.0509804
0.941176 0.160784 0.0509804
0.941176 0.160784 0.0509804
0.941176 0.160784 0.0509804
0.941176 0.160784 0.0509804
0.941176 0.160784 0.0509804
0.941176 0.160784 0.0509804
0.941176 0.160784 0.0509804
0.941176 0.160784 0.0509804
0.0198367 0.169162 0.0630198
0.0200046 0.163333 0.060502
0.0227054 0.15761 0.0583047
0.0257115 0.15111 0.0557259
0.0242924 0.141009 0.0495003
0.0251164 0.128344 0.043183
0.0249485 0.109026 0.0318303
0.0415351 0.0794995 0.0176242
0.122225 0.0733959 0.0083772
0.23859 0.0801862 0.00491341
0.345556 0.0813764 0.00392157
0.43238 0.0809491 0.0109712
0.516869 0.07776 0.0117647
0.592493 0.0782025 0.0117647
0.65919 0.0797436 0.0200504
0.720897 0.0922408 0.027451
0.772045 0.10576 0.0313115
0.818921 0.121828 0.0352941
0.865797 0.136065 0.0366522
0.904616 0.148516 0.0428779
0.930343 0.15848 0.0486763
0.938079 0.160784 0.0509804
0.940719 0.160784 0.0509804
0.941176 0.160784 0.0509804
0.941176 0.160784 0.0509804
0.941176 0.160784 0.0509804
0.941176 0.160784 0.0509804
0.941176 0.160784 0.0509804
0.941176 0.160784 0.0509804
0.941176 0.160784 0.0509804
0.941176 0.160784 0.0509804
0.941176 0.160784 0.0509804
0.941176 0.160784 0.0509804
0.0474403 0.242267 0.100313
0.0449378 0.235691 0.0969711
0.0456092 0.230198 0.0936446
0.0473182 0.222934 0.0899062
0.0494087 0.214237 0.0856641
0.0540475 0.205417 0.0801709
0.0521096 0.187137 0.0665751
0.050721 0.160937 0.0471962
0.0919966 0.124056 0.0270695
0.197528 0.117235 0.0165408
0.327016 0.120058 0.00392157
0.423941 0.117769 0.00392157
0.509453 0.116228 0.00784314
0.581262 0.114031 0.0117647
0.647868 0.115023 0.0176547
0.708125 0.115038 0.0248264
0.764691 0.112505 0.029633
0.81442 0.119905 0.0352941
0.860655 0.134768 0.0360113
0.901274 0.147173 0.0422217
0.928344 0.157809 0.0480049
0.937758 0.160784 0.0509804
0.940398 0.160784 0.0509804
0.941176 0.160784 0.0509804
0.941176 0.160784 0.0509804
0.941176 0.160784 0.0509804
0.941176 0.160784 0.0509804
0.941176 0.160784 0.0509804
0.941176 0.160784 0.0509804
0.941176 0.160784 0.0509804
0.941176 0.160784 0.0509804
0.941176 0.160784 0.0509804
0.941176 0.160784 0.0509804
0.0918593 0.331395 0.151705
0.0888838 0.324651 0.148348
0.0865187 0.318425 0.145174
0.0886091 0.313176 0.142153
0.0912032 0.307866 0.139193
0.0923476 0.29575 0.133394
0.0943618 0.280949 0.124468
0.092958 0.258686 0.105165
0.100679 0.220386 0.0741588
0.157015 0.174731 0.0436866
0.276997 0.1635 0.0176089
0.401556 0.165301 0.00392157
0.500343 0.161563 0.00585946
0.579568 0.153964 0.00796521
0.6421 0.15581 0.0126955
0.694942 0.154864 0.0232242
0.752468 0.148852 0.0256352
0.806455 0.147692 0.0340887
0.854627 0.147951 0.0371252
0.89749 0.145663 0.0414588
0.926055 0.157061 0.0472572
0.937362 0.160784 0.0509804
0.940032 0.160784 0.0509804
0.941176 0.160784 0.0509804
0.941176 0.160784 0.0509804
0.941176 0.160784 0.0509804
0.941176 0.160784 0.0509804
0.941176 0.160784 0.0509804
0.941176 0.160784 0.0509804
0.941176 0.160784 0.0509804
0.941176 0.160784 0.0509804
0.941176 0.160784 0.0509804
0.941176 0.160784 0.0509804
0.141146 0.429755 0.210269
0.137926 0.423377 0.206546
0.13489 0.41738 0.203037
0.133791 0.41117 0.1991
0.136004 0.404395 0.194965
0.13872 0.395773 0.191409
0.140841 0.380285 0.184985
0.140429 0.360632 0.174487
0.135134 0.337484 0.150179
0.160418 0.29305 0.105287
0.239124 0.230015 0.066453
0.359655 0.222278 0.033875
0.478019 0.219913 0.00463874
0.567346 0.206546 0.00512703
0.637552 0.198047 0.00784314
0.693309 0.195132 0.0131075
0.746014 0.190646 0.0201877
0.796002 0.187121 0.030518
0.848249 0.189029 0.0389563
0.890578 0.189227 0.0430762
0.922194 0.181323 0.0464027
0.934264 0.174945 0.0506752
0.938903 0.166293 0.0502937
0.941176 0.160784 0.0509804
0.941176 0.160784 0.0509804
0.941176 0.160784 0.0509804
0.941176 0.160784 0.0509804
0.941176 0.160784 0.0509804
0.941176 0.160784 0.0509804
0.941176 0.160784 0.0509804
0.941176 0.160784 0.0509804
0.941176 0.160784 0.0509804
0.941176 0.160784 0.0509804
0.201801 0.533394 0.280751
0.198947 0.527871 0.277546
0.195895 0.522332 0.274144
0.192096 0.515694 0.269947
0.191119 0.5075 0.263523
0.192477 0.497337 0.25713
0.194095 0.482933 0.251011
0.195361 0.468696 0.24358
0.189044 0.446586 0.227543
0.181857 0.418738 0.191333
0.244999 0.358373 0.130388
0.337026 0.29163 0.0918898
0.450477 0.288487 0.0455177
0.552987 0.282933 0.00392157
0.627237 0.264103 0.00645457
0.688167 0.252476 0.010132
0.740871 0.244663 0.0149691
0.788403 0.236225 0.0236362
0.841764 0.233845 0.0320592
0.884916 0.228412 0.0362097
0.919081 0.226062 0.0454414
0.935042 0.223011 0.0501869
0.936004 0.212284 0.0509804
0.937255 0.203967 0.0485389
0.937255 0.196063 0.0475471
0.937545 0.189822 0.0473487
0.938125 0.185229 0.0479286
0.938491 0.182284 0.0482948
0.93872 0.180453 0.0485237
0.938811 0.179706 0.0486152
0.938857 0.179339 0.048661
0.938903 0.178973 0.0487068
0.938949 0.178607 0.0487526
0.253666 0.619898 0.335409
0.251591 0.615991 0.333562
0.249454 0.612055 0.33164
0.246937 0.607553 0.329213
0.243992 0.601755 0.325139
0.245747 0.594583 0.318318
0.247791 0.585489 0.312596
0.250446 0.571649 0.307103
0.253285 0.553277 0.296773
0.23798 0.535851 0.282017
0.250355 0.498222 0.227268
0.353033 0.429404 0.155657
0.435218 0.360891 0.117983
0.537392 0.359762 0.0586862
0.620127 0.354543 0.0101472
0.680568 0.32932 0.00201419
0.730434 0.30486 0.00442512
0.781155 0.297734 0.0138399
0.827741 0.2878 0.0217441
0.878111 0.283711 0.0306249
0.911894 0.274601 0.0359503
0.933867 0.269184 0.0440986
0.941176 0.261082 0.0484627
0.941176 0.251514 0.0508431
0.940261 0.244526 0.0509804
0.939467 0.239063 0.0509804
0.938903 0.23505 0.0509804
0.938506 0.232303 0.0509804
0.938308 0.230854 0.0509804
0.938216 0.230213 0.0509804
0.93817 0.229892 0.0509804
0.938125 0.229572 0.0509804
0.938079 0.229252 0.0509804
0.295064 0.692927 0.377172
0.293172 0.689479 0.375433
0.291432 0.686275 0.373785
0.289586 0.682765 0.371939
0.287297 0.678416 0.36965
0.289082 0.672312 0.36643
0.294896 0.664439 0.362463
0.300526 0.654276 0.35848
0.30399 0.643473 0.354269
0.300298 0.628168 0.346563
0.276417 0.608194 0.328206
0.330877 0.574762 0.248569
0.46067 0.504005 0.173434
0.527291 0.430976 0.147494
0.609445 0.430335 0.0856947
0.679393 0.429664 0.0251621
0.729458 0.403265 0.00326543
0.774289 0.374014 0.0043183
0.818952 0.353872 0.00891127
0.868681 0.346151 0.0180972
0.906523 0.338125 0.0249638
0.925307 0.326253 0.0280766
0.934874 0.316625 0.0345006
0.940398 0.309285 0.0371557
0.941176 0.300191 0.0391699
0.941176 0.293156 0.0407416
0.941176 0.287984 0.041886
0.941176 0.284672 0.0426184
0.941176 0.282612 0.0430762
0.941176 0.281849 0.0432593
0.941176 0.281483 0.0433509
0.941176 0.281117 0.0434424
0.941176 0.280751 0.043534
0.334676 0.75639 0.416144
0.333654 0.753872 0.414878
0.332616 0.751339 0.413611
0.33135 0.74844 0.412116
0.329641 0.74464 0.410086
0.327153 0.739635 0.407233
0.331945 0.733547 0.405035
0.338933 0.726787 0.402686
0.347127 0.715801 0.401175
0.351705 0.704601 0.39884
0.333303 0.68957 0.389807
0.308263 0.665675 0.352728
0.434485 0.635767 0.245609
0.55552 0.568261 0.200168
0.602335 0.495964 0.17998
0.67422 0.499626 0.124147
0.729824 0.503014 0.051606
0.77351 0.480568 0.00849927
0.816983 0.451347 0.00392157
0.859312 0.425025 0.004654
0.899947 0.410941 0.0106661
0.921874 0.397818 0.0137942
0.936996 0.387167 0.0200656
0.93846 0.374029 0.0212558
0.941176 0.363149 0.0222477
0.941176 0.354559 0.0230259
0.941176 0.348455 0.023743
0.941176 0.345327 0.024918
0.941176 0.343679 0.0255283
0.941176 0.342931 0.025803
0.941176 0.342565 0.0259403
0.941176 0.342199 0.0260929
0.941176 0.341833 0.0262303
0.36437 0.808637 0.446036
0.362768 0.806439 0.444892
0.36144 0.804364 0.443702
0.360357 0.801587 0.442359
0.358968 0.797848 0.440681
0.357275 0.793118 0.43859
0.360662 0.78735 0.4374
0.369116 0.782406 0.435874
0.376593 0.77406 0.435401
0.383734 0.763806 0.43035
0.383062 0.754894 0.429953
0.344259 0.739879 0.418402
0.367102 0.718288 0.353307
0.546181 0.687114 0.236423
0.631113 0.61915 0.236942
0.663966 0.554253 0.211414
0.720714 0.556344 0.160708
0.775723 0.57023 0.0885176
0.816785 0.560342 0.0274052
0.857771 0.533898 0.00392157
0.893156 0.50663 0.00392157
0.920119 0.48452 0.00349432
0.932204 0.466453 0.0019379
0.935302 0.454246 0.00608835
0.937255 0.441413 0.00706493
0.93727 0.431281 0.00787366
0.937835 0.425528 0.00959792
0.938231 0.421622 0.0107729
0.93843 0.419562 0.0113832
0.938552 0.418402 0.0117342
0.938598 0.417945 0.0118715
0.938643 0.417487 0.0120089
0.938659 0.417258 0.0120699
0.400702 0.857145 0.480415
0.399573 0.854734 0.479423
0.398184 0.852323 0.478157
0.396612 0.849577 0.476722
0.394614 0.846204 0.474907
0.392126 0.842023 0.472648
0.389395 0.836759 0.469825
0.394491 0.83328 0.466087
0.404028 0.827024 0.464485
0.412741 0.817899 0.461051
0.416953 0.806851 0.461265
0.395346 0.79762 0.457603
0.343877 0.780804 0.431098
0.474861 0.756802 0.316396
0.646555 0.726436 0.250141
0.692195 0.660914 0.268513
0.712169 0.602777 0.239902
0.764736 0.605447 0.196704
0.81004 0.622797 0.129091
0.850202 0.623362 0.050309
0.888136 0.606592 0.0156252
0.914153 0.587777 0.00227359
0.932754 0.568154 0
0.938628 0.554055 0
0.940642 0.541222 0
0.940703 0.530587 0.00047303
0.940124 0.522545 0.00105287
0.939757 0.517388 0.00141909
0.939529 0.514168 0.00164797
0.939437 0.512886 0.00173953
0.939391 0.512245 0.00178531
0.939345 0.511604 0.00183108
0.9393 0.510964 0.00187686
0.431464 0.905577 0.508263
0.429847 0.903243 0.507485
0.428336 0.90103 0.506722
0.426627 0.898543 0.505913
0.424521 0.895476 0.504875
0.421927 0.891676 0.50367
0.418616 0.887083 0.502083
0.422965 0.879301 0.498299
0.429587 0.870298 0.493355
0.438254 0.866697 0.492409
0.44506 0.855985 0.490761
0.437293 0.845731 0.490043
0.377462 0.832319 0.477958
0.405402 0.813046 0.417533
0.605112 0.789761 0.276692
0.712963 0.760403 0.286
0.736187 0.698634 0.301869
0.758389 0.650568 0.268376
0.801511 0.650401 0.23035
0.843839 0.666117 0.16762
0.879576 0.675303 0.0911574
0.908171 0.668833 0.0372168
0.927947 0.653819 0.0152895
0.938048 0.643076 0.0117494
0.940078 0.629694 0.00738537
0.941176 0.620233 0.00581369
0.941176 0.613916 0.00466926
0.941176 0.609873 0.00393683
0.941176 0.60734 0.00347906
0.941176 0.606332 0.00329595
0.941176 0.605829 0.00320439
0.941176 0.605325 0.00311284
0.941176 0.604822 0.00302129
0.455512 0.931456 0.529854
0.455039 0.93077 0.52961
0.454215 0.930083 0.529
0.4533 0.929305 0.528328
0.452155 0.928344 0.527474
0.450752 0.927138 0.526467
0.448936 0.925628 0.525109
0.448798 0.921996 0.523476
0.453468 0.91284 0.52134
0.463752 0.906554 0.517311
0.472343 0.901274 0.520409
0.476173 0.89163 0.519905
0.436057 0.881148 0.515023
0.377279 0.864057 0.488411
0.522072 0.840101 0.379034
0.690013 0.819562 0.267521
0.766354 0.789273 0.332067
0.77734 0.732692 0.327749
0.795422 0.690684 0.297383
0.83534 0.688029 0.26331
0.875471 0.703609 0.206394
0.902541 0.713802 0.14226
0.921798 0.709346 0.0912947
0.933532 0.70222 0.0633707
0.935576 0.694347 0.0532387
0.938994 0.68983 0.0471504
0.939559 0.685817 0.0419776
0.939956 0.683085 0.038468
0.940154 0.681636 0.0366064
0.940246 0.68098 0.0357824
0.940291 0.680659 0.0353704
0.940337 0.680339 0.0349584
0.940383 0.680018 0.0345312
0.461311 0.941176 0.534478
0.462226 0.941176 0.535622
0.46305 0.941176 0.53666
0.464057 0.941176 0.537926
0.465263 0.941176 0.539422
0.46627 0.940703 0.540825
0.465232 0.938704 0.540261
0.463981 0.936294 0.539574
0.468727 0.931548 0.536339
0.480568 0.93257 0.537743
0.490776 0.930083 0.539254
0.499214 0.92694 0.544457
0.483146 0.91928 0.542351
0.405585 0.907057 0.528115
0.444648 0.890745 0.46891
0.638392 0.867643 0.330282
0.758419 0.849165 0.297749
0.80351 0.815305 0.365682
0.811505 0.757351 0.352911
0.827344 0.721798 0.324254
0.865202 0.722148 0.293248
0.89369 0.731167 0.254551
0.914382 0.736614 0.211719
0.927703 0.737163 0.177798
0.93312 0.73312 0.157885
0.935561 0.732296 0.147219
0.936675 0.731136 0.138582
0.937072 0.729961 0.132326
0.937255 0.729076 0.128603
0.937255 0.728435 0.127047
0.937255 0.728115 0.126268
0.937255 0.727794 0.12549
0.937255 0.727474 0.124697
0.456992 0.941176 0.529076
0.457908 0.941176 0.530221
0.458732 0.941176 0.531258
0.459739 0.941176 0.532525
0.460945 0.941176 0.53402
0.462409 0.941176 0.535851
0.464332 0.941176 0.538262
0.466682 0.941161 0.541207
0.470436 0.936233 0.539986
0.484657 0.936156 0.542351
0.497292 0.934905 0.542809
0.51014 0.937758 0.554513
0.505013 0.935134 0.558053
0.441169 0.929503 0.550301
0.398733 0.923735 0.523659
0.576028 0.908614 0.427558
0.725475 0.888228 0.294087
0.809033 0.874235 0.348455
0.838605 0.83415 0.397864
0.83917 0.78027 0.37528
0.858793 0.750973 0.349172
0.887938 0.74728 0.319966
0.907607 0.750072 0.29221
0.917739 0.75053 0.267628
0.923949 0.750469 0.24979
0.928557 0.750622 0.241108
0.930617 0.749325 0.232929
0.930999 0.748165 0.22707
0.931243 0.747463 0.223621
0.931334 0.747189 0.222248
0.93138 0.747051 0.221546
0.931426 0.746914 0.220859
0.931472 0.746777 0.220172
0.452949 0.941176 0.524025
0.453864 0.941176 0.52517
0.45478 0.941176 0.526314
0.455695 0.941176 0.527474
0.456992 0.941176 0.529076
0.458457 0.941176 0.530907
0.46038 0.941176 0.533318
0.462684 0.941176 0.536202
0.469123 0.941176 0.538384
0.480858 0.93933 0.540368
0.496635 0.9393 0.542962
0.513451 0.941161 0.554513
0.51252 0.941176 0.563348
0.467765 0.94052 0.562295
0.397284 0.938582 0.547387
0.517555 0.931167 0.484306
0.691356 0.921019 0.354803
0.794324 0.907973 0.296742
0.850828 0.893462 0.401038
0.8663 0.85185 0.420829
0.866575 0.799725 0.396475
0.881086 0.775067 0.371969
0.905486 0.767987 0.355718
0.917723 0.768719 0.335439
0.92256 0.766705 0.319265
0.926329 0.76437 0.309972
0.929 0.762646 0.304234
0.929412 0.761471 0.300328
0.929412 0.760784 0.298024
0.929412 0.760601 0.296925
0.929412 0.76051 0.296376
0.929412 0.760418 0.295827
0.929412 0.760327 0.295277
0.449836 0.941176 0.518502
0.450523 0.941176 0.520348
0.451194 0.941176 0.521843
0.452201 0.941176 0.523095
0.453407 0.941176 0.52459
0.454963 0.941176 0.526543
0.456886 0.941176 0.528954
0.45919 0.941176 0.531838
0.464424 0.941176 0.535271
0.477058 0.941176 0.536599
0.494026 0.941176 0.541726
0.51046 0.941176 0.551675
0.514168 0.941176 0.560754
0.480385 0.941176 0.567224
0.405447 0.941176 0.554162
0.485847 0.937865 0.506111
0.661402 0.936355 0.398306
0.778027 0.931579 0.295811
0.841306 0.921874 0.36405
0.87982 0.900877 0.439887
0.889403 0.860075 0.437354
0.890028 0.819409 0.414084
0.89865 0.794522 0.393606
0.914153 0.786236 0.380209
0.924392 0.785351 0.370779
0.923949 0.78204 0.362539
0.926375 0.779751 0.355871
0.928008 0.77818 0.351339
0.928206 0.777356 0.349279
0.928298 0.776989 0.348348
0.928344 0.776806 0.34789
0.928389 0.776623 0.347433
0.928435 0.77644 0.346975
0.447562 0.941176 0.512444
0.448249 0.941176 0.514275
0.448859 0.941176 0.515938
0.449622 0.941176 0.517952
0.450523 0.941176 0.520348
0.451926 0.941176 0.522759
0.453773 0.941176 0.525048
0.456153 0.941176 0.528038
0.459266 0.941176 0.531487
0.472648 0.941176 0.532723
0.490089 0.941176 0.540322
0.506996 0.941176 0.548745
0.515602 0.941176 0.557916
0.486336 0.941176 0.568063
0.413046 0.941176 0.557504
0.468879 0.940444 0.516106
0.643381 0.939452 0.418433
0.765911 0.93962 0.308721
0.836271 0.934981 0.343908
0.881285 0.925216 0.436164
0.899931 0.896513 0.456352
0.902754 0.85716 0.441825
0.902251 0.825605 0.42031
0.910369 0.810178 0.408026
0.918715 0.801541 0.401175
0.924224 0.798886 0.39617
0.92549 0.797482 0.392676
0.92549 0.795834 0.389761
0.92549 0.794919 0.388159
0.92549 0.794537 0.387518
0.92549 0.794354 0.387182
0.92549 0.794171 0.386862
0.92549 0.793988 0.386542
0.445701 0.941176 0.507469
0.446311 0.941176 0.509133
0.446998 0.941176 0.510964
0.447761 0.941176 0.512993
0.448661 0.941176 0.515373
0.44976 0.941176 0.518318
0.451286 0.941176 0.52195
0.453681 0.941176 0.524941
0.456428 0.941176 0.528389
0.469123 0.941176 0.530297
0.486503 0.941176 0.537835
0.505272 0.941176 0.546349
0.516793 0.941176 0.555474
0.490517 0.941176 0.567468
0.417121 0.941176 0.560601
0.453407 0.941176 0.525048
0.627176 0.941176 0.432639
0.755871 0.941176 0.317601
0.832059 0.938384 0.334981
0.878309 0.931945 0.428244
0.903532 0.910842 0.462425
0.908293 0.879911 0.454948
0.911757 0.847822 0.439597
0.911971 0.827497 0.423636
0.917739 0.820096 0.416632
0.922576 0.814054 0.41355
0.924208 0.811429 0.410834
0.92517 0.810605 0.409934
0.92549 0.809964 0.409232
0.92549 0.809522 0.408743
0.92549 0.809323 0.408545
0.92549 0.80911 0.408331
0.92549 0.808881 0.408057
0.444175 0.941176 0.503426
0.444862 0.941176 0.505272
0.445487 0.941176 0.50692
0.44625 0.941176 0.508949
0.447135 0.941176 0.51133
0.44831 0.941176 0.514458
0.44976 0.941176 0.518318
0.451652 0.941176 0.522408
0.454414 0.941176 0.525856
0.466636 0.941176 0.528756
0.483604 0.941176 0.53492
0.502831 0.941176 0.543709
0.517617 0.941176 0.553719
0.493736 0.941176 0.566995
0.419532 0.941176 0.562524
0.44242 0.941176 0.532006
0.614633 0.941176 0.442527
0.747921 0.941176 0.325185
0.829007 0.940993 0.32784
0.875074 0.935134 0.421836
0.901884 0.91545 0.462287
0.907805 0.887495 0.4589
0.915511 0.861234 0.449104
0.915297 0.840406 0.434485
0.917891 0.830915 0.426902
0.922652 0.82591 0.42356
0.924971 0.823819 0.421332
0.925536 0.822385 0.419791
0.925872 0.821561 0.418921
0.92578 0.821241 0.418601
0.925734 0.821057 0.418372
0.925689 0.82089 0.418204
0.925643 0.820737 0.418051
0.443076 0.941176 0.500496
0.443763 0.941176 0.502327
0.44445 0.941176 0.504173
0.445136 0.941176 0.506004
0.446036 0.941176 0.5084
0.447211 0.941176 0.511513
0.448661 0.941176 0.515373
0.450385 0.941176 0.519982
0.452934 0.941176 0.524025
0.464958 0.941176 0.527703
0.481468 0.941176 0.532738
