pic/松下lut/LUTs/Vintage Vibes.cube
TITLE "Generated by Resolve"
#LUMIXPHOTOSTYLE VLOG
LUT_3D_SIZE 9
0.0506905 0.0513008 0.055787
0.059678 0.0528267 0.0561379
0.139437 0.0679637 0.0696117
0.357412 0.0836652 0.0846876
0.570916 0.0755322 0.0764324
0.715877 0.0595712 0.0606546
0.744366 0.0554055 0.0565499
0.744457 0.0553902 0.0565347
0.744457 0.0553902 0.0565347
0.0541085 0.0568856 0.056199
0.0590829 0.0576791 0.0572976
0.131212 0.0697795 0.069337
0.347097 0.0838178 0.0844739
0.564126 0.0760967 0.0769665
0.712016 0.0601053 0.0611887
0.74435 0.0554055 0.0565499
0.744457 0.0553902 0.0565347
0.744457 0.0553902 0.0565347
0.078294 0.10396 0.0830854
0.0764782 0.0984817 0.0793164
0.117327 0.0972 0.0792706
0.314992 0.103853 0.0861219
0.540276 0.0851301 0.078584
0.700984 0.0630808 0.062623
0.743435 0.0557717 0.056672
0.743999 0.0555428 0.0565957
0.744076 0.0555123 0.0565805
0.145693 0.261967 0.158724
0.141024 0.250996 0.152422
0.145449 0.23444 0.13962
0.283345 0.220996 0.12987
0.496498 0.184466 0.0930343
0.658152 0.142824 0.0663462
0.712947 0.117571 0.0595865
0.713878 0.10753 0.0597543
0.713985 0.105577 0.0598001
0.236774 0.464988 0.256016
0.231586 0.454017 0.24976
0.224109 0.434333 0.235279
0.277729 0.409293 0.216983
0.463127 0.372335 0.196933
0.639261 0.315358 0.124559
0.716793 0.28629 0.0764935
0.718715 0.274998 0.0721141
0.718212 0.272282 0.0714885
0.306722 0.608438 0.327596
0.303426 0.601877 0.323354
0.297398 0.589685 0.314137
0.312337 0.569711 0.294347
0.442496 0.555184 0.293385
0.618906 0.512917 0.278798
0.729305 0.47454 0.233371
0.740703 0.465019 0.221653
0.74049 0.462028 0.218921
0.316533 0.627878 0.340566
0.316258 0.62739 0.339071
0.316426 0.627756 0.3364
0.332418 0.63357 0.328191
0.439139 0.644556 0.333959
0.614725 0.651957 0.353902
0.728573 0.620813 0.352743
0.75169 0.613214 0.352041
0.751553 0.611261 0.351064
0.316915 0.62855 0.342596
0.316625 0.628031 0.341054
0.316747 0.628336 0.338354
0.331075 0.636652 0.330663
0.434546 0.654932 0.338491
0.615778 0.691341 0.371206
0.734417 0.684581 0.382681
0.757321 0.672694 0.380896
0.757321 0.671946 0.380575
0.294926 0.584466 0.319158
0.294804 0.583993 0.317708
0.297993 0.584298 0.315358
0.336065 0.592157 0.308461
0.459312 0.608804 0.31516
0.63238 0.643977 0.345785
0.73724 0.64593 0.360082
0.755962 0.634943 0.358328
0.755962 0.634256 0.358038
0.152728 0.295979 0.168261
0.15433 0.29572 0.167422
0.189609 0.297047 0.168048
0.354208 0.302831 0.167483
0.551522 0.309926 0.167651
0.700832 0.325765 0.178561
0.743252 0.326833 0.185046
0.746777 0.322057 0.184405
0.746761 0.321263 0.18407
0.0567483 0.0605478 0.0639048
0.0637369 0.0640421 0.0698405
0.136828 0.0708324 0.0741436
0.34873 0.0838026 0.0849622
0.563882 0.076112 0.076997
0.711864 0.0601358 0.0612039
0.744335 0.0554055 0.0565499
0.744457 0.0553902 0.0565347
0.744457 0.0553902 0.0565347
0.0802014 0.107591 0.0885023
0.0784009 0.102129 0.0850385
0.12134 0.100633 0.0833448
0.318288 0.104295 0.0869917
0.54023 0.0850996 0.078645
0.700755 0.0631571 0.0626535
0.74342 0.055787 0.0566873
0.743984 0.0555581 0.0565957
0.74406 0.0555276 0.0565805
0.14728 0.265385 0.16553
0.142535 0.254231 0.159045
0.146715 0.239673 0.145663
0.284306 0.224537 0.132692
0.496574 0.185046 0.0938125
0.658564 0.143297 0.0663157
0.713207 0.118273 0.0595407
0.713863 0.108019 0.0597391
0.713939 0.10605 0.0597848
0.238102 0.467552 0.262928
0.232883 0.456535 0.25658
0.225055 0.437217 0.242023
0.277699 0.413672 0.220523
0.463401 0.374899 0.199008
0.639765 0.316411 0.125063
0.71725 0.287572 0.0766918
0.718883 0.275669 0.0721904
0.718349 0.272908 0.0715343
0.308064 0.610895 0.334386
0.304692 0.604181 0.329961
0.299199 0.593118 0.321324
0.314351 0.57789 0.30135
0.443015 0.559823 0.29604
0.620188 0.517174 0.281178
0.730831 0.478874 0.236774
0.741344 0.468467 0.224674
0.74107 0.465187 0.221637
0.317891 0.63032 0.347845
0.317571 0.629755 0.346151
0.317723 0.630091 0.343282
0.332296 0.638193 0.333486
0.43978 0.650507 0.337285
0.616693 0.658289 0.357107
0.731685 0.627131 0.356146
0.753002 0.619089 0.355016
0.752834 0.616831 0.353918
0.318318 0.631098 0.350195
0.317998 0.630503 0.348409
0.317906 0.630411 0.345327
0.329961 0.639612 0.33521
0.433921 0.657465 0.340246
0.616587 0.693431 0.372457
0.737438 0.689052 0.385153
0.75848 0.677729 0.383307
0.758389 0.676051 0.382605
0.296284 0.586862 0.326543
0.296101 0.586313 0.324895
0.299565 0.586267 0.322133
0.335943 0.594903 0.312764
0.458793 0.6112 0.316823
0.632807 0.645304 0.34667
0.739193 0.648157 0.361501
0.756863 0.638758 0.360204
0.756817 0.637095 0.359518
0.154665 0.298253 0.180774
0.155673 0.297917 0.181231
0.1944 0.298848 0.18201
0.3617 0.304723 0.176257
0.552041 0.312245 0.170321
0.70074 0.326955 0.179339
0.743465 0.32813 0.185809
0.746975 0.323674 0.185275
0.74696 0.32282 0.184924
0.0636149 0.0724041 0.0975204
0.0672465 0.0730449 0.102525
0.143999 0.0749828 0.106752
0.358495 0.0838941 0.100862
0.564904 0.0759594 0.0812543
0.711803 0.06009 0.0616922
0.744396 0.0553902 0.0565347
0.744457 0.0553902 0.0565347
0.744457 0.0553902 0.0565347
0.0863508 0.12018 0.111284
0.0844587 0.114809 0.109529
0.130526 0.110277 0.108507
0.338476 0.104921 0.098146
0.547158 0.0841077 0.0818799
0.701885 0.062974 0.0637369
0.743862 0.0557565 0.0567025
0.744137 0.0555581 0.0565805
0.744167 0.0555276 0.0565805
0.154208 0.280537 0.190066
0.149126 0.268727 0.182696
0.153338 0.255558 0.170077
0.297047 0.238254 0.144305
0.510033 0.188754 0.0966964
0.664805 0.142321 0.0674907
0.714534 0.117281 0.0605783
0.714992 0.107271 0.0603952
0.715068 0.10547 0.0603952
0.242527 0.476158 0.283589
0.237156 0.464927 0.276738
0.228779 0.445838 0.262745
0.280751 0.42771 0.236149
0.469017 0.385443 0.206287
0.644938 0.321263 0.128786
0.721416 0.289296 0.07953
0.722316 0.276829 0.0749065
0.721645 0.274083 0.0741741
0.311772 0.617594 0.353262
0.308278 0.610697 0.348318
0.302403 0.598947 0.339193
0.31397 0.588129 0.316381
0.444923 0.570016 0.303273
0.623835 0.52546 0.286458
0.733989 0.486351 0.242145
0.744503 0.475471 0.22974
0.744198 0.47216 0.226703
0.321584 0.636942 0.368277
0.32108 0.636027 0.365789
0.320897 0.635782 0.3617
0.33254 0.645365 0.350484
0.438849 0.659953 0.344869
0.619196 0.665492 0.361517
0.734691 0.633173 0.359854
0.755901 0.624903 0.358526
0.755673 0.62269 0.357427
0.322362 0.638361 0.371817
0.321752 0.637247 0.3691
0.321294 0.636469 0.364569
0.331853 0.646448 0.354879
0.432532 0.667247 0.348699
0.618219 0.699672 0.376349
0.740139 0.694728 0.388617
0.761013 0.683085 0.386526
0.760891 0.681392 0.385794
0.300221 0.59379 0.348013
0.299702 0.592737 0.345785
0.302815 0.591989 0.342199
0.339376 0.601221 0.332845
0.458671 0.620401 0.325277
0.634333 0.651087 0.350393
0.74136 0.652888 0.364508
0.759075 0.643641 0.363165
0.758999 0.641993 0.362463
0.160784 0.306813 0.228687
0.160739 0.305882 0.2318
0.195453 0.305394 0.250751
0.365423 0.310384 0.234852
0.558709 0.319295 0.195483
0.706706 0.331838 0.188663
0.748699 0.332311 0.191974
0.751476 0.327794 0.190707
0.751324 0.327016 0.190265
0.0739757 0.095491 0.182803
0.0747082 0.0941939 0.189059
0.138445 0.0870069 0.211917
0.360937 0.0850843 0.195026
0.572976 0.0750744 0.133089
0.718853 0.0587625 0.0895094
0.750271 0.0540627 0.0758526
0.749416 0.0542153 0.0727245
0.749233 0.0542458 0.0721904
0.0960098 0.148562 0.198566
0.0933242 0.143267 0.199939
0.130327 0.139269 0.22179
0.348531 0.108995 0.208087
0.561105 0.079881 0.143038
0.712398 0.0603037 0.0973526
0.751904 0.0538643 0.08159
0.750942 0.0539712 0.0779126
0.750744 0.0540017 0.0772717
0.166445 0.305364 0.260822
0.161456 0.294057 0.253147
0.161959 0.282261 0.248371
0.312825 0.262013 0.229023
0.540887 0.190829 0.145418
0.699733 0.135088 0.0883497
0.751247 0.108064 0.0745556
0.750652 0.098909 0.0723583
0.750423 0.0973831 0.0719615
0.256275 0.502358 0.343984
0.250797 0.491081 0.336553
0.241672 0.471519 0.323003
0.290394 0.45623 0.29427
0.489891 0.407919 0.235813
0.668009 0.332586 0.138476
0.748714 0.295842 0.0858473
0.750881 0.282368 0.0805829
0.750439 0.279545 0.0796674
0.3243 0.640513 0.408164
0.320424 0.632898 0.401801
0.313832 0.619883 0.390173
0.320668 0.610498 0.367391
0.449775 0.594064 0.333654
0.637613 0.543221 0.301488
0.748089 0.499413 0.247761
0.758495 0.488304 0.234546
0.75816 0.485084 0.231571
0.334279 0.659892 0.427131
0.33344 0.658412 0.422919
0.332479 0.656809 0.414771
0.340383 0.66566 0.401694
0.433112 0.682521 0.373892
0.625696 0.684031 0.376776
0.747158 0.649226 0.372244
0.768795 0.639872 0.369818
0.768505 0.637675 0.368658
0.335393 0.66186 0.432807
0.334554 0.660365 0.428504
0.333379 0.658412 0.419852
0.340261 0.667216 0.407324
0.42594 0.68925 0.380133
0.621118 0.715831 0.390112
0.751171 0.710887 0.400763
0.772457 0.698009 0.397833
0.772305 0.696422 0.397101
0.312612 0.6159 0.410574
0.311833 0.614466 0.407187
0.313237 0.612558 0.403037
0.345495 0.620615 0.39086
0.454978 0.640894 0.360082
0.639002 0.665919 0.365377
0.75201 0.667018 0.376623
0.770291 0.657465 0.374655
0.770153 0.655985 0.373922
0.170932 0.324285 0.34197
0.170642 0.323079 0.344564
0.188205 0.320287 0.368811
0.35642 0.323491 0.372122
0.558343 0.332006 0.307897
0.716167 0.341558 0.260548
0.763088 0.341894 0.247257
0.766888 0.337011 0.240604
0.766812 0.336324 0.239231
0.0831311 0.128801 0.318807
0.0833906 0.126879 0.324514
0.117556 0.109957 0.350195
0.3458 0.0909743 0.362066
0.572061 0.0751202 0.288014
0.728664 0.0570993 0.219821
0.764004 0.0516365 0.19234
0.764004 0.0515908 0.181872
0.763958 0.0515908 0.179736
0.098024 0.187945 0.342245
0.0950484 0.182086 0.344182
0.108843 0.173663 0.36585
0.322118 0.129015 0.379873
0.561776 0.0838636 0.308644
0.722271 0.0585794 0.237583
0.765011 0.0516365 0.209812
0.764614 0.0516365 0.199374
0.764508 0.0516365 0.197284
0.173434 0.322896 0.371099
0.167758 0.312306 0.364843
0.162478 0.301778 0.370611
0.290608 0.285161 0.397101
0.554742 0.205997 0.332616
0.731914 0.114321 0.242741
0.785382 0.0782483 0.216251
0.782834 0.0716716 0.209491
0.782254 0.0708019 0.208042
0.270268 0.52459 0.448981
0.264668 0.513222 0.441001
0.255863 0.495048 0.428168
0.294072 0.483146 0.418952
0.508873 0.444053 0.380819
0.708339 0.341222 0.261585
0.796521 0.273487 0.18555
0.799298 0.255146 0.17406
0.798917 0.252277 0.172503
0.341848 0.670207 0.510964
0.337881 0.662531 0.503212
0.331502 0.650324 0.488228
0.336522 0.641764 0.466712
0.464637 0.628962 0.435386
0.664546 0.569909 0.370382
0.783093 0.507073 0.274449
0.794064 0.491386 0.251392
0.793759 0.488151 0.248142
0.350576 0.686687 0.532998
0.349966 0.685802 0.527535
0.349523 0.685664 0.515831
0.356664 0.696254 0.498665
0.442588 0.716472 0.468986
0.63444 0.714199 0.441306
0.773251 0.673152 0.41355
0.797574 0.658579 0.398795
0.797314 0.656123 0.396445
0.351385 0.687816 0.540322
0.350774 0.686976 0.534798
0.35021 0.68658 0.522911
0.35671 0.697444 0.505867
0.436042 0.722667 0.477745
0.623682 0.743282 0.452964
0.770459 0.739223 0.446418
0.797726 0.723735 0.439704
0.797665 0.722164 0.438666
0.327535 0.640284 0.51931
0.326986 0.63946 0.514794
0.327291 0.638834 0.50779
0.355795 0.648737 0.496208
0.462516 0.672038 0.463767
0.64152 0.691402 0.434669
0.768429 0.692912 0.427512
0.791913 0.6822 0.42089
0.791882 0.680781 0.419654
0.177844 0.338949 0.461509
0.177691 0.337957 0.462654
0.183291 0.334524 0.478737
0.330953 0.337285 0.504921
0.558587 0.347677 0.4589
0.7149 0.355734 0.403418
0.765743 0.356588 0.381582
0.771374 0.351675 0.37142
0.77142 0.350805 0.369299
0.085832 0.158709 0.438361
0.0860151 0.156558 0.441917
0.098436 0.139956 0.4598
0.306706 0.104875 0.498512
0.56997 0.0788739 0.450095
0.725994 0.0576181 0.385657
0.763317 0.051667 0.361868
0.763699 0.0515908 0.351263
0.763729 0.0515755 0.348913
0.0910353 0.217884 0.464195
0.0895705 0.21149 0.463569
0.0949264 0.202625 0.477256
0.273457 0.158907 0.511421
0.5552 0.0986801 0.470176
0.719463 0.0611887 0.403815
0.76376 0.052018 0.379797
0.763836 0.0518044 0.369482
0.763851 0.0517739 0.367193
0.168765 0.342535 0.48806
0.16231 0.332525 0.48249
0.150484 0.320226 0.490715
0.246601 0.302876 0.520989
0.53402 0.237552 0.5037
0.73286 0.137285 0.427237
0.79089 0.0847181 0.399435
0.788373 0.0756085 0.390814
0.787823 0.0743725 0.388846
0.279911 0.536583 0.558556
0.273854 0.524636 0.54995
0.263661 0.504799 0.538491
0.284367 0.490913 0.542489
0.493141 0.466529 0.540459
0.727504 0.375906 0.465202
0.834241 0.288884 0.409125
0.838651 0.264179 0.39736
0.838239 0.260563 0.395102
0.353063 0.684596 0.623728
0.349187 0.677104 0.616709
0.343389 0.666056 0.603372
0.346761 0.661646 0.586831
0.465492 0.653803 0.570993
0.679057 0.604257 0.522133
0.815778 0.533623 0.440208
0.831632 0.51133 0.419059
0.831693 0.508064 0.416678
0.359548 0.696834 0.639307
0.359304 0.696635 0.63566
0.359899 0.698528 0.627802
0.368811 0.715343 0.615427
0.451102 0.742397 0.595941
0.646769 0.744137 0.570184
0.792813 0.70248 0.519997
0.822156 0.681468 0.494728
0.822156 0.678477 0.491371
0.359808 0.697047 0.642832
0.359564 0.696849 0.639506
0.359976 0.698268 0.632609
0.368627 0.715282 0.622629
0.443641 0.747402 0.604822
0.634302 0.772335 0.583062
0.78529 0.771252 0.555734
0.82179 0.756085 0.545983
0.822003 0.754208 0.54464
0.335332 0.649241 0.620401
0.335119 0.648981 0.617807
0.335775 0.649943 0.614267
0.360265 0.665309 0.612222
0.467826 0.694865 0.591409
0.649699 0.718334 0.565423
0.780102 0.721553 0.53904
0.811154 0.713375 0.528237
0.811429 0.711208 0.526467
0.179706 0.345571 0.533974
0.179767 0.344839 0.536049
0.183047 0.341421 0.55108
0.302205 0.343893 0.594507
0.555703 0.355642 0.566339
0.714595 0.366903 0.519371
0.765454 0.368978 0.496803
0.772488 0.366003 0.486015
0.772595 0.36492 0.484001
0.0853285 0.178805 0.515419
0.0855116 0.176715 0.517998
0.0925307 0.161349 0.532311
0.266758 0.121706 0.582589
0.565606 0.0881514 0.553903
0.724727 0.0606699 0.498497
0.760906 0.0535439 0.477607
0.761288 0.0531624 0.467567
0.761334 0.0531014 0.465415
0.0866102 0.23801 0.542733
0.0861067 0.231586 0.540887
0.0899519 0.222889 0.552041
0.236088 0.182727 0.586175
0.544945 0.116426 0.57229
0.718532 0.0679942 0.516258
0.761288 0.0550393 0.494865
0.761364 0.0542153 0.48513
0.761364 0.0540932 0.483024
0.160021 0.360906 0.571756
0.153674 0.351125 0.567788
0.139651 0.337774 0.577188
0.2159 0.317403 0.601007
0.509483 0.261936 0.607156
0.725841 0.168566 0.548058
0.785077 0.10959 0.522438
0.783078 0.0972152 0.512917
0.782574 0.0953536 0.510781
0.287251 0.54931 0.616068
0.281651 0.537926 0.612207
0.268528 0.518212 0.612589
0.272297 0.498177 0.627451
0.466056 0.471672 0.638453
0.7187 0.400259 0.593561
0.832135 0.320745 0.555093
0.836728 0.296818 0.546044
0.836423 0.293095 0.543664
0.356497 0.689021 0.654414
0.353841 0.683543 0.653162
0.349905 0.675166 0.653361
0.353872 0.673091 0.662043
0.455955 0.664836 0.671382
0.677195 0.619562 0.638743
0.829328 0.553597 0.580407
0.847761 0.531304 0.569024
0.848051 0.528115 0.566964
0.360891 0.69807 0.656641
0.360891 0.69807 0.656641
0.362051 0.700328 0.657984
0.37232 0.718822 0.667979
0.442512 0.750881 0.682017
0.646387 0.761288 0.675593
0.795483 0.719173 0.624018
0.826658 0.691646 0.596002
0.826856 0.68835 0.593408
0.360891 0.69807 0.656641
0.360891 0.69807 0.656641
0.361791 0.699825 0.65771
0.371572 0.71783 0.667521
0.435004 0.75404 0.683848
0.632822 0.787228 0.688457
0.791501 0.791775 0.663233
0.830701 0.777768 0.647578
0.830655 0.774777 0.645228
0.336294 0.650431 0.638224
0.336309 0.650355 0.638437
0.337301 0.651591 0.641627
0.359426 0.66775 0.657435
0.460395 0.700954 0.66807
0.648249 0.731975 0.666575
0.785718 0.739803 0.643046
0.820539 0.734661 0.629191
0.820706 0.733242 0.627741
0.179599 0.347906 0.559548
0.17966 0.347082 0.560632
0.182376 0.343343 0.574121
0.290425 0.345266 0.619623
0.552148 0.357015 0.604059
0.714321 0.370565 0.56788
0.765469 0.375235 0.550347
0.772808 0.373236 0.539834
0.772869 0.372869 0.537896
0.0846418 0.187182 0.547295
0.0848554 0.184863 0.549508
0.0908522 0.169604 0.561608
0.251484 0.129519 0.611322
0.561654 0.0933242 0.594659
0.725567 0.0636454 0.543236
0.760037 0.0557412 0.522942
0.760235 0.0551003 0.513039
0.760266 0.0549935 0.511162
0.0856947 0.244022 0.564645
0.0849622 0.23856 0.566979
0.0879683 0.23064 0.581903
0.223392 0.191546 0.617151
0.539055 0.125154 0.61651
0.720195 0.072755 0.561425
0.760784 0.0581369 0.540215
0.760601 0.0568399 0.530541
0.760571 0.0566415 0.528664
0.159991 0.363592 0.579721
0.153277 0.354696 0.579477
0.137743 0.34342 0.598825
0.20618 0.324117 0.633127
0.50042 0.272618 0.648203
0.725399 0.181292 0.595636
0.783337 0.124422 0.570581
0.781491 0.110597 0.560815
0.781003 0.108522 0.558877
0.287739 0.550378 0.61706
0.282155 0.539117 0.613626
0.268879 0.520363 0.617929
0.268925 0.502144 0.64622
0.452003 0.475792 0.676417
0.714015 0.408911 0.645045
0.825544 0.339635 0.61149
0.83006 0.316701 0.602792
0.829816 0.313054 0.600671
0.356619 0.689265 0.654521
0.354086 0.684031 0.653361
0.350179 0.6757 0.653773
0.354162 0.674327 0.665675
0.449409 0.66743 0.693019
0.671458 0.624537 0.688823
0.83122 0.559426 0.637964
0.849424 0.537713 0.627695
0.849836 0.534554 0.625788
0.360891 0.69807 0.656641
0.360891 0.69807 0.656641
0.362036 0.700313 0.658015
0.37232 0.718837 0.668406
0.441535 0.751781 0.688991
0.643915 0.767071 0.707317
0.796323 0.724819 0.673045
0.82768 0.695216 0.647318
0.827939 0.691386 0.644419
0.360891 0.69807 0.656641
0.360891 0.69807 0.656641
0.361776 0.699794 0.65771
0.371542 0.717784 0.667704
0.434318 0.754116 0.687037
0.631464 0.789654 0.708553
0.793393 0.798016 0.706447
0.83032 0.782132 0.691463
0.829313 0.776577 0.686046
0.336294 0.650507 0.639963
0.336294 0.650431 0.64007
0.33727 0.651621 0.643137
0.358694 0.66775 0.659175
0.459617 0.701045 0.672557
0.647303 0.734066 0.685054
0.787671 0.745434 0.683085
0.823026 0.742443 0.677485
0.823026 0.741405 0.675059
0.179568 0.348302 0.563668
0.179644 0.347433 0.564462
0.182269 0.343648 0.577462
0.28838 0.345434 0.622797
0.550835 0.357122 0.60885
0.714107 0.370687 0.573144
0.765438 0.375952 0.557916
0.772824 0.374609 0.549981
0.7729 0.374563 0.548302
0.0846113 0.187518 0.548608
0.0847486 0.185901 0.553552
0.0906539 0.170886 0.565927
0.248981 0.130648 0.615244
0.560235 0.0941787 0.600702
0.725414 0.0642405 0.549599
0.75996 0.0561532 0.529183
0.760159 0.0554665 0.519265
0.760174 0.0553597 0.517494
0.0856794 0.243992 0.564752
0.0849317 0.238636 0.56759
0.0877699 0.231388 0.585
0.221546 0.192752 0.6215
0.537423 0.126635 0.622827
0.720195 0.0735943 0.567819
0.760845 0.058732 0.546471
0.760601 0.0573129 0.536797
0.760555 0.0571298 0.534951
0.159792 0.363302 0.579675
0.153094 0.354421 0.579446
0.137591 0.343343 0.599237
0.204913 0.324727 0.636591
0.498589 0.274174 0.654047
0.725124 0.183078 0.602258
0.783123 0.126833 0.577173
0.781384 0.112718 0.567361
0.78088 0.110613 0.565484
0.287541 0.549966 0.616953
0.281987 0.53875 0.613535
0.268727 0.520012 0.617823
0.268559 0.501976 0.646738
0.450309 0.476219 0.681147
0.713405 0.41001 0.652399
0.82443 0.342535 0.619089
0.829038 0.319646 0.610407
0.828748 0.316014 0.608392
0.356603 0.689235 0.654505
0.35407 0.684016 0.653361
0.350134 0.675608 0.653758
0.354101 0.674205 0.66566
0.449149 0.667399 0.69369
0.670527 0.624842 0.694331
0.830762 0.560586 0.646616
0.848783 0.539025 0.636149
0.84921 0.535821 0.634318
0.360891 0.69807 0.656641
0.360891 0.69807 0.656641
0.362036 0.700313 0.658015
0.37232 0.718822 0.668406
0.441535 0.751766 0.688991
0.643854 0.767132 0.708141
0.796429 0.725322 0.67921
0.827741 0.695354 0.654719
0.828077 0.691371 0.651774
0.360891 0.69807 0.656641
0.360891 0.69807 0.656641
0.361776 0.699794 0.657694
0.371542 0.717769 0.667704
0.434272 0.754101 0.687022
0.631388 0.789654 0.708614
0.793271 0.798047 0.707835
0.829664 0.78201 0.697246
0.82858 0.776577 0.692729
0.360891 0.69807 0.656641
0.360891 0.69807 0.656641
0.36173 0.699718 0.657649
0.371405 0.717571 0.667613
0.433234 0.753796 0.686824
0.629404 0.789578 0.708507
0.792645 0.801923 0.709743
0.834043 0.798825 0.708858
0.834012 0.798108 0.708293
