pic/松下lut/LUTs/Vintage Blues.cube
TITLE "Generated by Resolve"
#LUMIXPHOTOSTYLE VLOG
LUT_3D_SIZE 5
0.00146487 0.00440986 0.0117647
0.197421 0.00256352 0.00256352
0.78819 0.110353 0.0336004
0.941176 0.160784 0.0509804
0.941176 0.160784 0.0509804
0.0474403 0.242267 0.100313
0.0919966 0.124056 0.0270695
0.764691 0.112505 0.029633
0.941176 0.160784 0.0509804
0.941176 0.160784 0.0509804
0.400702 0.857145 0.480415
0.404028 0.827024 0.464485
0.712169 0.602777 0.239902
0.940642 0.541222 0
0.9393 0.510964 0.00187686
0.445701 0.941176 0.507469
0.456428 0.941176 0.528389
0.627176 0.941176 0.432639
0.917739 0.820096 0.416632
0.92549 0.808881 0.408057
0.441489 0.941176 0.496269
0.450858 0.941176 0.521263
0.589059 0.941176 0.459358
0.921553 0.844175 0.43444
0.92549 0.832563 0.426123
0.00221256 0.0440528 0.177554
0.132921 0 0.128695
0.790677 0.0936904 0.0477913
0.941176 0.160784 0.0509804
0.941176 0.160784 0.0509804
0.0103609 0.24683 0.235904
0.0898604 0.160449 0.188449
0.769619 0.0899825 0.0549477
0.941176 0.160784 0.0509804
0.941176 0.160784 0.0509804
0.353857 0.855467 0.362493
0.361364 0.820737 0.372946
0.715724 0.633417 0.327062
0.941176 0.540856 0.0461433
0.93959 0.511223 0.0331121
0.377997 0.941176 0.392416
0.39675 0.941176 0.395529
0.555077 0.941176 0.485206
0.918746 0.836545 0.483696
0.92549 0.827146 0.466926
0.368429 0.941176 0.410529
0.388327 0.941176 0.394141
0.513207 0.941176 0.502052
0.922744 0.85742 0.50161
0.92726 0.846632 0.489387
0.127321 0.375372 0.658564
0.140734 0.172808 0.632288
0.804837 0.00392157 0.520424
0.941176 0.0196078 0.249226
0.941176 0.0196078 0.218891
0.0997482 0.51516 0.70724
0.192477 0.44921 0.66186
0.784207 0.00489815 0.582513
0.941176 0.0183261 0.323613
0.941176 0.0196078 0.288136
0.0267338 0.844251 0.784985
0.0326696 0.812299 0.764813
0.703304 0.708812 0.702571
0.940429 0.604471 0.562173
0.940352 0.579751 0.540215
0.0644694 0.942519 0.842878
0.0953841 0.945098 0.823423
0.550454 0.941176 0.722316
0.924498 0.884382 0.735805
0.930388 0.875837 0.726207
0.0507515 0.941176 0.851148
0.0819409 0.944274 0.83241
0.540047 0.941176 0.744167
0.926131 0.900175 0.750942
0.932418 0.894652 0.740353
0.236133 0.593439 0.887404
0.250584 0.441993 0.865873
0.800748 0 0.862135
0.937255 0 0.804044
0.937255 0 0.793011
0.215305 0.694881 0.915587
0.302876 0.649546 0.890425
0.779416 0.0059205 0.884306
0.937255 0 0.828504
0.937255 0 0.818189
0.0277409 0.870298 0.941176
0.0779278 0.848157 0.941176
0.725124 0.808591 0.906401
0.936645 0.595728 0.88603
0.937255 0.569329 0.876387
0 0.941176 0.945098
0 0.941176 0.945098
0.641367 0.941176 0.942763
0.930892 0.930571 0.932692
0.940352 0.923461 0.927169
0 0.941176 0.945098
0 0.941176 0.945098
0.626963 0.941176 0.944076
0.929671 0.940459 0.938293
0.939055 0.938933 0.932891
0.237339 0.603174 0.897566
0.260502 0.464408 0.884718
0.801694 0 0.901946
0.937255 0 0.848615
0.937255 0 0.838972
0.21503 0.69543 0.919936
0.308507 0.658351 0.90312
0.780346 0.00544747 0.920287
0.940063 0 0.870649
0.938689 0 0.861006
0.027039 0.871 0.941176
0.0764935 0.848707 0.941176
0.727291 0.816236 0.917556
0.938598 0.594797 0.924437
0.939406 0.569406 0.916152
0 0.941176 0.945098
0 0.941176 0.945098
0.640604 0.941176 0.94284
0.930678 0.933028 0.945098
0.937255 0.924147 0.943725
0 0.941176 0.945098
0 0.941176 0.945098
0.6262 0.941176 0.944137
0.926757 0.941176 0.945098
0.941176 0.941176 0.945098
