pic/松下lut/LUTs/Vintage Blues.cube
TITLE "Generated by Resolve"
#LUMIXPHOTOSTYLE VLOG
LUT_3D_SIZE 9
0.00146487 0.00440986 0.0117647
0.0168307 0 0.00561532
0.197421 0.00256352 0.00256352
0.550515 0.0373999 0.0117647
0.78819 0.110353 0.0336004
0.93727 0.160784 0.0509804
0.941176 0.160784 0.0509804
0.941176 0.160784 0.0509804
0.941176 0.160784 0.0509804
0.00480659 0.0390021 0.0272221
0.0109712 0.0214389 0.0135348
0.181292 0.0163272 0.00230411
0.537316 0.0336309 0.0117647
0.781598 0.108461 0.0326696
0.934462 0.159854 0.0500496
0.941176 0.160784 0.0509804
0.941176 0.160784 0.0509804
0.941176 0.160784 0.0509804
0.0474403 0.242267 0.100313
0.0494087 0.214237 0.0856641
0.0919966 0.124056 0.0270695
0.509453 0.116228 0.00784314
0.764691 0.112505 0.029633
0.928344 0.157809 0.0480049
0.941176 0.160784 0.0509804
0.941176 0.160784 0.0509804
0.941176 0.160784 0.0509804
0.253666 0.619898 0.335409
0.243992 0.601755 0.325139
0.253285 0.553277 0.296773
0.435218 0.360891 0.117983
0.730434 0.30486 0.00442512
0.911894 0.274601 0.0359503
0.940261 0.244526 0.0509804
0.938308 0.230854 0.0509804
0.938079 0.229252 0.0509804
0.400702 0.857145 0.480415
0.394614 0.846204 0.474907
0.404028 0.827024 0.464485
0.343877 0.780804 0.431098
0.712169 0.602777 0.239902
0.888136 0.606592 0.0156252
0.940642 0.541222 0
0.939529 0.514168 0.00164797
0.9393 0.510964 0.00187686
0.456992 0.941176 0.529076
0.460945 0.941176 0.53402
0.470436 0.936233 0.539986
0.505013 0.935134 0.558053
0.725475 0.888228 0.294087
0.858793 0.750973 0.349172
0.923949 0.750469 0.24979
0.931243 0.747463 0.223621
0.931472 0.746777 0.220172
0.445701 0.941176 0.507469
0.448661 0.941176 0.515373
0.456428 0.941176 0.528389
0.516793 0.941176 0.555474
0.627176 0.941176 0.432639
0.903532 0.910842 0.462425
0.917739 0.820096 0.416632
0.92549 0.809964 0.409232
0.92549 0.808881 0.408057
0.441978 0.941176 0.497551
0.444938 0.941176 0.505455
0.451469 0.941176 0.522179
0.516213 0.941176 0.552254
0.593439 0.941176 0.456657
0.898436 0.920897 0.462104
0.921538 0.842771 0.433661
0.925826 0.831876 0.4262
0.926162 0.831052 0.425299
0.441489 0.941176 0.496269
0.44445 0.941176 0.504173
0.450858 0.941176 0.521263
0.515801 0.941176 0.551843
0.589059 0.941176 0.459358
0.897612 0.921584 0.461952
0.921553 0.844175 0.43444
0.92517 0.833478 0.427085
0.92549 0.832563 0.426123
0.00392157 0.0106203 0.055848
0.0106508 0.0028687 0.0411231
0.172274 0.00251774 0.00814832
0.549874 0.0372168 0.0117647
0.787869 0.110262 0.0335546
0.937163 0.160754 0.0509499
0.941176 0.160784 0.0509804
0.941176 0.160784 0.0509804
0.941176 0.160784 0.0509804
0.00343328 0.0474861 0.0720684
0.00952163 0.0285801 0.0537881
0.158465 0.0167697 0.0146181
0.536675 0.0334478 0.0117647
0.781445 0.108415 0.032639
0.934401 0.159838 0.0500343
0.941176 0.160784 0.0509804
0.941176 0.160784 0.0509804
0.941176 0.160784 0.0509804
0.0374456 0.240803 0.110719
0.0413367 0.218997 0.0991073
0.0941787 0.134279 0.0599527
0.507454 0.117998 0.0117189
0.764324 0.113191 0.0295109
0.928267 0.157794 0.0479896
0.941176 0.160784 0.0509804
0.941176 0.160784 0.0509804
0.941176 0.160784 0.0509804
0.241367 0.616648 0.313817
0.23238 0.598917 0.307713
0.246433 0.554879 0.286229
0.432578 0.374899 0.146868
0.730114 0.307088 0.00627146
0.911574 0.27538 0.0357214
0.940352 0.245182 0.0509804
0.938399 0.23151 0.0509804
0.93817 0.229892 0.0509804
0.388251 0.857511 0.464515
0.384436 0.846845 0.461357
0.3935 0.824308 0.454902
0.336324 0.781857 0.445029
0.715129 0.613031 0.262348
0.88777 0.606561 0.0224308
0.941176 0.542412 0
0.93962 0.515465 0.00155642
0.939391 0.512245 0.00178531
0.442451 0.940261 0.498848
0.445426 0.939483 0.506752
0.459861 0.938079 0.52311
0.505074 0.935515 0.558587
0.713069 0.889784 0.31368
0.856413 0.755871 0.367132
0.928344 0.755032 0.259068
0.932525 0.749218 0.228153
0.932631 0.748318 0.224079
0.430488 0.941176 0.464012
0.43444 0.941176 0.475868
0.442039 0.941176 0.497734
0.514183 0.941176 0.548028
0.603037 0.941176 0.454261
0.902693 0.91577 0.476188
0.920867 0.827314 0.434546
0.926238 0.816953 0.422354
0.926101 0.815763 0.42089
0.425528 0.941176 0.449119
0.42948 0.941176 0.460975
0.438025 0.941176 0.48661
0.509896 0.941558 0.540887
0.563882 0.941176 0.476631
0.89929 0.925078 0.475959
0.920501 0.844312 0.450706
0.929412 0.838575 0.443229
0.929412 0.838209 0.442679
0.424964 0.941176 0.447471
0.428916 0.941176 0.459312
0.437476 0.941176 0.484962
0.509056 0.941695 0.539773
0.559335 0.941176 0.479118
0.898894 0.925658 0.475471
0.920745 0.845792 0.451392
0.929381 0.839612 0.44387
0.929412 0.839216 0.443229
0.00221256 0.0440528 0.177554
0.0107729 0.0181582 0.165042
0.132921 0 0.128695
0.547982 0.00784314 0.046891
0.790677 0.0936904 0.0477913
0.936889 0.160662 0.0508583
0.941176 0.160784 0.0509804
0.941176 0.160784 0.0509804
0.941176 0.160784 0.0509804
0.00862135 0.0953841 0.198413
0.0101015 0.0709239 0.179599
0.113176 0.00637827 0.147066
0.533867 0.00784314 0.0479591
0.785061 0.0872206 0.0527352
0.934127 0.159747 0.0499428
0.941176 0.160784 0.0509804
0.941176 0.160784 0.0509804
0.941176 0.160784 0.0509804
0.0103609 0.24683 0.235904
0.0105745 0.218235 0.218692
0.0898604 0.160449 0.188449
0.500908 0.11014 0.0720226
0.769619 0.0899825 0.0549477
0.927993 0.148196 0.0547799
0.941176 0.160784 0.0509804
0.941176 0.160784 0.0509804
0.941176 0.160784 0.0509804
0.203738 0.616526 0.258122
0.197192 0.597498 0.25066
0.216205 0.551064 0.234775
0.431998 0.401602 0.221927
0.725765 0.316609 0.0627756
0.910979 0.287663 0.0474403
0.940551 0.248951 0.0532998
0.938598 0.234028 0.0520638
0.938369 0.232288 0.0519265
0.353857 0.855467 0.362493
0.349996 0.845457 0.366033
0.361364 0.820737 0.372946
0.325628 0.783581 0.440711
0.715724 0.633417 0.327062
0.885344 0.604471 0.0958267
0.941176 0.540856 0.0461433
0.939834 0.514443 0.0345617
0.93959 0.511223 0.0331121
0.397574 0.940352 0.394842
0.403494 0.939574 0.40206
0.422431 0.937865 0.427512
0.492668 0.931823 0.519875
0.682811 0.895705 0.360861
0.860075 0.768231 0.417029
0.930816 0.772671 0.29218
0.933822 0.762097 0.25626
0.933898 0.76109 0.252232
0.377997 0.941176 0.392416
0.383917 0.941176 0.393393
0.39675 0.941176 0.395529
0.487572 0.941176 0.47744
0.555077 0.941176 0.485206
0.899672 0.922103 0.511666
0.918746 0.836545 0.483696
0.92549 0.828061 0.468879
0.92549 0.827146 0.466926
0.369558 0.941176 0.40795
0.376471 0.941176 0.392157
0.389303 0.941176 0.394293
0.478157 0.941176 0.452583
0.517693 0.941176 0.500237
0.891768 0.926406 0.506798
0.922454 0.856107 0.500221
0.927886 0.846632 0.490013
0.92813 0.846464 0.489296
0.368429 0.941176 0.410529
0.375357 0.941176 0.39472
0.388327 0.941176 0.394141
0.477058 0.941176 0.449821
0.513207 0.941176 0.502052
0.890944 0.926818 0.506111
0.922744 0.85742 0.50161
0.926986 0.846769 0.489982
0.92726 0.846632 0.489387
0.044892 0.182818 0.40856
0.0478523 0.122744 0.393927
0.11722 0.019379 0.393866
0.551156 0.00573739 0.273823
0.804288 0.017258 0.119554
0.932937 0.0953994 0.108263
0.941176 0.105333 0.095491
0.941176 0.111543 0.0912947
0.941176 0.112505 0.0908064
0.0420386 0.242679 0.432639
0.0560006 0.205173 0.410269
0.100786 0.0470436 0.402869
0.53434 0.00392157 0.305486
0.799283 0.0153048 0.124987
0.930327 0.0905013 0.112215
0.941176 0.103319 0.100542
0.941176 0.105791 0.0943465
0.941176 0.106447 0.093843
0.0295872 0.346761 0.485023
0.0380255 0.322057 0.46421
0.109361 0.268498 0.423026
0.494057 0.0633555 0.349477
0.784726 0.020264 0.137957
0.924254 0.0754406 0.118761
0.941176 0.0990311 0.111223
0.941176 0.101472 0.105135
0.941176 0.101793 0.104341
0.0485847 0.616861 0.547585
0.0454108 0.597833 0.534051
0.0668498 0.548394 0.5019
0.417197 0.447532 0.450935
0.736645 0.358114 0.295369
0.910811 0.306905 0.20238
0.937484 0.257038 0.142809
0.939437 0.230304 0.121111
0.939666 0.226993 0.118532
0.220966 0.845273 0.580041
0.219821 0.835691 0.567636
0.242451 0.814054 0.535286
0.265095 0.78085 0.434501
0.718669 0.671412 0.493828
0.883726 0.604578 0.298863
0.937255 0.547631 0.241825
0.937255 0.526055 0.224018
0.937255 0.523476 0.22208
0.275334 0.940551 0.630564
0.284031 0.939757 0.617716
0.308217 0.938079 0.58088
0.402014 0.931868 0.468315
0.614191 0.905745 0.381689
0.860197 0.794034 0.547753
0.930892 0.789654 0.426062
0.934462 0.778653 0.397696
0.934691 0.777493 0.39411
0.2486 0.941176 0.670619
0.256504 0.941176 0.660136
0.273594 0.941176 0.632364
0.381064 0.941176 0.540459
0.497963 0.941176 0.40351
0.884764 0.932067 0.594079
0.920073 0.856321 0.592859
0.926925 0.846799 0.579339
0.927153 0.846052 0.577691
0.238682 0.941176 0.683024
0.246586 0.941176 0.673152
0.263676 0.941176 0.648493
0.36582 0.941176 0.570031
0.467994 0.941176 0.408087
0.873396 0.935607 0.588632
0.922728 0.873091 0.608881
0.92932 0.865873 0.59704
0.929412 0.865309 0.595758
0.237385 0.941176 0.684642
0.245289 0.941176 0.674754
0.262577 0.941176 0.650278
0.364126 0.941176 0.57322
0.465003 0.941176 0.408392
0.872297 0.936019 0.587808
0.922591 0.873549 0.61001
0.929046 0.866987 0.598154
0.929412 0.866484 0.59704
0.127321 0.375372 0.658564
0.135042 0.315984 0.641749
0.140734 0.172808 0.632288
0.547448 0 0.634531
0.804837 0.00392157 0.520424
0.934462 0.0203098 0.331106
0.941176 0.0196078 0.249226
0.941176 0.0196078 0.221927
0.941176 0.0196078 0.218891
0.121248 0.428916 0.675547
0.142657 0.394903 0.656168
0.150164 0.239277 0.638529
0.530694 0 0.644984
0.800168 0.00392157 0.543008
0.930648 0.01738 0.354803
0.941176 0.0196078 0.270954
0.941176 0.0196078 0.243656
0.941176 0.0196078 0.24062
0.0997482 0.51516 0.70724
0.112795 0.499718 0.693828
0.192477 0.44921 0.66186
0.484306 0.0686961 0.662348
0.784207 0.00489815 0.582513
0.926284 0.0150759 0.409491
0.941176 0.0183261 0.323613
0.941176 0.0195621 0.291356
0.941176 0.0196078 0.288136
0.025803 0.650339 0.751247
0.0282444 0.6383 0.742763
0.0963455 0.617502 0.724224
0.42446 0.550591 0.671885
0.75491 0.325292 0.626474
0.914168 0.192523 0.474479
0.94023 0.102312 0.397772
0.941176 0.0776379 0.37554
0.941176 0.0752117 0.372152
0.0267338 0.844251 0.784985
0.0240482 0.834867 0.777523
0.0326696 0.812299 0.764813
0.308095 0.772686 0.736446
0.703304 0.708812 0.702571
0.882856 0.644388 0.61062
0.940429 0.604471 0.562173
0.9402 0.582513 0.542672
0.940352 0.579751 0.540215
0.0966201 0.944701 0.822461
0.105516 0.943923 0.815534
0.13109 0.940108 0.799435
0.206088 0.929503 0.766232
0.606546 0.904265 0.688853
0.860655 0.825803 0.715938
0.9355 0.809079 0.647944
0.939696 0.794781 0.62771
0.939773 0.79295 0.625422
0.0644694 0.942519 0.842878
0.0745861 0.943542 0.83682
0.0953841 0.945098 0.823423
0.184146 0.941176 0.788876
0.550454 0.941176 0.722316
0.850034 0.937453 0.707118
0.924498 0.884382 0.735805
0.930541 0.876692 0.727398
0.930388 0.875837 0.726207
0.0520638 0.941283 0.850324
0.0621805 0.94229 0.844266
0.0835431 0.944427 0.831449
0.175296 0.941176 0.797116
0.541146 0.941176 0.74197
0.833829 0.941176 0.703456
0.926131 0.899748 0.749844
0.931792 0.89366 0.739742
0.931624 0.89279 0.738766
0.0507515 0.941176 0.851148
0.0605631 0.942138 0.845228
0.0819409 0.944274 0.83241
0.174472 0.941176 0.798077
0.540047 0.941176 0.744167
0.831952 0.941176 0.703273
0.926131 0.900175 0.750942
0.932647 0.895644 0.741283
0.932418 0.894652 0.740353
0.189181 0.512306 0.804334
0.200702 0.465721 0.788846
0.204105 0.344335 0.772824
0.526192 0.00358587 0.799771
0.804669 0.0015259 0.77145
0.929 0.00321965 0.708461
0.933333 0.00784314 0.665446
0.933333 0.00784314 0.648066
0.933333 0.00784314 0.646143
0.184039 0.560784 0.818296
0.204456 0.530465 0.806882
0.216938 0.407004 0.779812
0.501564 0.00740063 0.804761
0.8 0.00329595 0.780941
0.926223 0.00123598 0.71928
0.933333 0.0077821 0.679149
0.933333 0.00784314 0.661906
0.933333 0.00784314 0.659968
0.167391 0.637522 0.843793
0.182757 0.622477 0.834607
0.256352 0.575372 0.809277
0.405966 0.138979 0.801434
0.783673 0.00656138 0.791714
0.922423 0.000289921 0.740871
0.933333 0.00563058 0.705074
0.933333 0.00686656 0.690181
0.933333 0.00700389 0.688533
0.11075 0.743267 0.884596
0.110811 0.733639 0.877836
0.200473 0.712764 0.858
0.468971 0.664012 0.814252
0.751842 0.332189 0.81236
0.91487 0.198978 0.769009
0.937255 0.114031 0.736507
0.937255 0.0833143 0.725063
0.937255 0.0798657 0.723522
0.0172885 0.859144 0.918166
0.0195773 0.848188 0.912093
0.0438697 0.830121 0.899275
0.36672 0.804898 0.872465
0.716335 0.756268 0.830198
0.889464 0.64799 0.798291
0.937255 0.591089 0.755093
0.937255 0.566384 0.744656
0.937255 0.562997 0.743511
0 0.941009 0.937743
0 0.94023 0.935027
0.00128176 0.938537 0.929824
0.222126 0.931991 0.90695
0.66862 0.901946 0.87689
0.854643 0.85272 0.845609
0.937255 0.824231 0.811536
0.940154 0.812451 0.800504
0.940246 0.810864 0.799283
0 0.941176 0.94432
0 0.941176 0.94229
0 0.941176 0.938018
0.156466 0.941176 0.927352
0.636225 0.941176 0.901366
0.82388 0.939986 0.851087
0.928756 0.908217 0.852705
0.935882 0.903075 0.841917
0.935943 0.902464 0.840787
0 0.941176 0.941238
0 0.941176 0.94023
0 0.941176 0.938109
0.134066 0.941176 0.931487
0.623453 0.941176 0.905898
0.817349 0.941176 0.862028
0.92668 0.921645 0.861341
0.932891 0.91548 0.849973
0.933333 0.915022 0.849149
0 0.941176 0.941375
0 0.941176 0.940368
0 0.941176 0.938247
0.131441 0.941176 0.932052
0.62179 0.941176 0.906447
0.816846 0.941176 0.863905
0.92668 0.922057 0.862181
0.932754 0.916869 0.851392
0.933333 0.916777 0.85037
0.236133 0.593439 0.887404
0.247654 0.556435 0.880323
0.250584 0.441993 0.865873
0.446937 0.0374762 0.882139
0.800748 0 0.862135
0.934081 0 0.831479
0.937255 0 0.804044
0.937255 0 0.79411
0.937255 0 0.793011
0.227543 0.631983 0.895735
0.248219 0.609979 0.891737
0.267079 0.507744 0.867872
0.409873 0.0600748 0.885237
0.795087 0 0.869047
0.930236 0 0.836606
0.937255 0 0.811948
0.937255 0 0.802014
0.937255 0 0.800916
0.215305 0.694881 0.915587
0.233371 0.685512 0.912978
0.302876 0.649546 0.890425
0.31841 0.285023 0.871717
0.779416 0.0059205 0.884306
0.925811 0 0.854994
0.937255 0 0.828504
0.937255 0 0.819303
0.937255 0 0.818189
0.153719 0.772824 0.930465
0.159304 0.767452 0.929137
0.25745 0.759884 0.923217
0.502556 0.729686 0.897169
0.748348 0.341817 0.905638
0.911635 0.204852 0.877729
0.937255 0.115587 0.855375
0.937255 0.0842298 0.84625
0.937255 0.0807813 0.844968
0.0277409 0.870298 0.941176
0.0356603 0.862379 0.941176
0.0779278 0.848157 0.941176
0.415641 0.836683 0.932158
0.725124 0.808591 0.906401
0.888624 0.650339 0.907744
0.936645 0.595728 0.88603
0.937255 0.572183 0.877348
0.937255 0.569329 0.876387
0 0.941176 0.945098
0 0.941176 0.945876
0 0.940841 0.94725
0.227222 0.936385 0.944747
0.680888 0.913344 0.939849
0.857694 0.874113 0.92221
0.934646 0.824399 0.91429
0.937255 0.81268 0.906401
0.937255 0.811063 0.90544
0 0.941176 0.945098
0 0.941176 0.945098
0 0.941176 0.945098
0.156786 0.941176 0.945098
0.641367 0.941176 0.942763
0.844678 0.941176 0.941436
0.930892 0.930571 0.932692
0.940459 0.924727 0.927718
0.940352 0.923461 0.927169
0 0.941176 0.945098
0 0.941176 0.945098
0 0.941176 0.945098
0.132174 0.941176 0.945098
0.628473 0.941176 0.943938
0.839033 0.941176 0.943557
0.929808 0.940322 0.937743
0.938476 0.938293 0.93225
0.938918 0.937926 0.931746
0 0.941176 0.945098
0 0.941176 0.945098
0 0.941176 0.945098
0.12929 0.941176 0.945098
0.626963 0.941176 0.944076
0.838346 0.941176 0.943694
0.929671 0.940459 0.938293
0.938476 0.938476 0.93257
0.939055 0.938933 0.932891
0.237079 0.602396 0.896895
0.252995 0.568643 0.894347
0.260502 0.464408 0.884077
0.413474 0.0647288 0.908721
0.801694 0 0.898085
0.933898 0 0.8701
0.937255 0 0.844114
0.937255 0 0.835599
0.937255 0 0.83447
0.233783 0.640421 0.903471
0.252338 0.617716 0.901808
0.277119 0.525154 0.884169
0.381231 0.0856489 0.907988
0.795254 0 0.903227
0.933043 0 0.877791
0.937285 0 0.851194
0.937255 0 0.842512
0.937255 0 0.84155
0.215076 0.695338 0.919905
0.233616 0.686854 0.917647
0.308431 0.658198 0.902449
0.31313 0.32575 0.892348
0.780301 0.00541695 0.916457
0.929702 0 0.891508
0.939422 0 0.866148
0.938201 0 0.857633
0.938048 0 0.856504
0.153307 0.773373 0.930602
0.158862 0.767834 0.929412
0.257679 0.761212 0.926604
0.506554 0.737133 0.908431
0.73846 0.343526 0.930907
0.912398 0.207416 0.908965
0.941176 0.11754 0.891066
0.940368 0.0859388 0.882811
0.940139 0.0825055 0.881758
0.0271611 0.870878 0.941176
0.0349737 0.863066 0.941176
0.0768139 0.848615 0.941176
0.41387 0.837659 0.933333
0.727214 0.815473 0.916274
0.88835 0.654368 0.935347
0.937957 0.594156 0.920577
0.93872 0.571206 0.913268
0.938781 0.568521 0.912306
0 0.941176 0.945098
0 0.941176 0.945815
0 0.940963 0.947295
0.226322 0.936599 0.944854
0.679271 0.913283 0.940307
0.861265 0.880796 0.935103
0.934249 0.825086 0.939879
0.937255 0.813367 0.936263
0.937255 0.811994 0.935714
0 0.941176 0.945098
0 0.941176 0.945098
0 0.941176 0.945098
0.155825 0.941176 0.945098
0.640604 0.941176 0.94284
0.847196 0.941176 0.945098
0.930755 0.932982 0.943816
0.937255 0.925292 0.943236
0.937255 0.924147 0.943069
0 0.941176 0.945098
0 0.941176 0.945098
0 0.941176 0.945098
0.131212 0.941176 0.945098
0.62797 0.941176 0.943984
0.838041 0.941176 0.945098
0.92723 0.941176 0.945098
0.940551 0.941176 0.944472
0.941176 0.941176 0.94432
0 0.941176 0.945098
0 0.941176 0.945098
0 0.941176 0.945098
0.128313 0.941176 0.945098
0.626459 0.941176 0.944121
0.836942 0.941176 0.945098
0.926818 0.941176 0.945098
0.940414 0.941176 0.94461
0.941176 0.941176 0.943862
0.237339 0.603174 0.897566
0.252995 0.568643 0.894987
0.260502 0.464408 0.884718
0.411536 0.0666514 0.910643
0.801694 0 0.901946
0.934539 0 0.875242
0.937255 0 0.848615
0.937255 0 0.840101
0.937255 0 0.838972
0.233783 0.640421 0.903471
0.252323 0.617243 0.901854
0.277119 0.525154 0.88542
0.379309 0.0879988 0.910018
0.795102 0 0.907073
0.933639 0 0.882307
0.937926 0 0.855695
0.937255 0 0.847013
0.937255 0 0.846052
0.21503 0.69543 0.919936
0.233585 0.686961 0.917647
0.308507 0.658351 0.90312
0.313268 0.329091 0.894255
0.780346 0.00544747 0.920287
0.929641 0 0.895338
0.940063 0 0.870649
0.938842 0 0.862135
0.938689 0 0.861006
0.153307 0.773373 0.930602
0.158755 0.76788 0.929412
0.257679 0.761212 0.926604
0.507195 0.737133 0.909728
0.737789 0.343542 0.933089
0.913039 0.207828 0.91284
0.941176 0.117937 0.894926
0.940398 0.0862898 0.886702
0.940169 0.0828412 0.885649
0.027039 0.871 0.941176
0.0349737 0.863066 0.941176
0.0764935 0.848707 0.941176
0.413458 0.837659 0.933333
0.727291 0.816236 0.917556
0.88835 0.654978 0.937835
0.938598 0.594797 0.924437
0.939315 0.572076 0.916991
0.939406 0.569406 0.916152
0 0.941176 0.945098
0 0.941176 0.945815
0 0.940963 0.947295
0.226322 0.936599 0.944854
0.679255 0.91339 0.940322
0.861158 0.880934 0.935943
0.934249 0.825223 0.940505
0.937255 0.813367 0.938842
0.937255 0.811994 0.938293
0 0.941176 0.945098
0 0.941176 0.945098
0 0.941176 0.945098
0.155825 0.941176 0.945098
0.640604 0.941176 0.94284
0.847196 0.941176 0.945098
0.930678 0.933028 0.945098
0.937255 0.925414 0.943862
0.937255 0.924147 0.943725
0 0.941176 0.945098
0 0.941176 0.945098
0 0.941176 0.945098
0.131212 0.941176 0.945098
0.62771 0.941176 0.943999
0.837858 0.941176 0.945098
0.92723 0.941176 0.945098
0.940536 0.941176 0.945098
0.941176 0.941176 0.944961
0 0.941176 0.945098
0 0.941176 0.945098
0 0.941176 0.945098
0.128313 0.941176 0.945098
0.6262 0.941176 0.944137
0.836759 0.941176 0.945098
0.926757 0.941176 0.945098
0.940398 0.941176 0.945098
0.941176 0.941176 0.945098
