pic/松下lut/LUTs/Vintage Vibes.cube
TITLE "Generated by Resolve"
#LUMIXPHOTOSTYLE VLOG
LUT_3D_SIZE 33
0.0506905 0.0513008 0.055787
0.0518196 0.0514382 0.0557717
0.0529488 0.0515908 0.0557565
0.0561532 0.0521706 0.0559396
0.059678 0.0528267 0.0561379
0.0694438 0.0551308 0.057969
0.0814679 0.0580453 0.0603952
0.106218 0.062501 0.0644541
0.139437 0.0679637 0.0696117
0.183246 0.0733501 0.0747539
0.239185 0.0786603 0.079881
0.296696 0.0825513 0.0836347
0.357412 0.0836652 0.0846876
0.416709 0.0841077 0.0850538
0.470405 0.0818799 0.0827955
0.523674 0.0795453 0.080415
0.570916 0.0755322 0.0764324
0.618158 0.0715343 0.0724498
0.656748 0.0670176 0.0679942
0.694697 0.0624552 0.063508
0.715877 0.0595712 0.0606546
0.73286 0.0571145 0.0582284
0.740337 0.0560159 0.057145
0.743069 0.0556039 0.0567483
0.744366 0.0554055 0.0565499
0.744427 0.0553902 0.0565347
0.744457 0.0553902 0.0565347
0.744457 0.0553902 0.0565347
0.744457 0.0553902 0.0565347
0.744457 0.0553902 0.0565347
0.744457 0.0553902 0.0565347
0.744457 0.0553902 0.0565347
0.744457 0.0553902 0.0565347
0.050782 0.0516365 0.0547189
0.0522011 0.0523537 0.0555123
0.0536202 0.0530556 0.0563058
0.0566567 0.0535744 0.0565957
0.0599374 0.0540627 0.0568093
0.0692912 0.0560769 0.0584573
0.0808576 0.0586404 0.0606241
0.105104 0.0627909 0.0644846
0.137835 0.0679789 0.0694743
0.181323 0.0732433 0.0745403
0.237125 0.0785382 0.0797131
0.294621 0.0824598 0.0835279
0.355489 0.0836347 0.0846418
0.414969 0.0841382 0.0850843
0.468833 0.0819409 0.0828565
0.522271 0.0796368 0.0805066
0.569589 0.0756542 0.0765393
0.616907 0.0716564 0.0725719
0.655543 0.067155 0.0681315
0.693584 0.0626078 0.0636454
0.715099 0.059678 0.0607614
0.732494 0.0571756 0.0582895
0.740185 0.0560464 0.0571756
0.743008 0.0556039 0.0567483
0.744366 0.0554055 0.0565499
0.744427 0.0553902 0.0565347
0.744457 0.0553902 0.0565347
0.744457 0.0553902 0.0565347
0.744457 0.0553902 0.0565347
0.744457 0.0553902 0.0565347
0.744457 0.0553902 0.0565347
0.744457 0.0553902 0.0565347
0.744457 0.0553902 0.0565347
0.0508736 0.0519875 0.0536507
0.0525826 0.053254 0.0552529
0.0542763 0.0545205 0.0568551
0.057145 0.0549783 0.0572671
0.0601968 0.0552987 0.0574807
0.0691386 0.0570077 0.0589456
0.0802319 0.0592203 0.060853
0.104005 0.0630655 0.0645151
0.136233 0.0680095 0.069337
0.1794 0.0731212 0.074342
0.23508 0.0784161 0.0795605
0.292531 0.0823682 0.0834211
0.353582 0.0836042 0.0846113
0.413214 0.0841535 0.0851148
0.467262 0.082002 0.0829175
0.520867 0.0797284 0.0805982
0.568261 0.075761 0.0766461
0.615641 0.0717937 0.072694
0.654353 0.0672923 0.0682536
0.692454 0.0627604 0.063798
0.714321 0.0597848 0.0608682
0.732128 0.0572213 0.0583352
0.740017 0.0560616 0.0572061
0.742947 0.0556191 0.0567636
0.74435 0.0554055 0.0565499
0.744411 0.0553902 0.0565347
0.744457 0.0553902 0.0565347
0.744457 0.0553902 0.0565347
0.744457 0.0553902 0.0565347
0.744457 0.0553902 0.0565347
0.744457 0.0553902 0.0565347
0.744457 0.0553902 0.0565347
0.744457 0.0553902 0.0565347
0.0523842 0.0542916 0.0547494
0.0535439 0.0551003 0.0558328
0.0547036 0.0559091 0.0569162
0.0570993 0.0562448 0.0572366
0.0596933 0.0565042 0.0574502
0.0683299 0.0582589 0.0590372
0.0791638 0.0605478 0.0611429
0.102358 0.0642252 0.0647288
0.133791 0.0688334 0.0693217
0.176364 0.07364 0.0741894
0.231693 0.078706 0.0793774
0.289036 0.082475 0.0832532
0.350439 0.0836957 0.084535
0.410437 0.0842451 0.0851453
0.464805 0.0821241 0.0829938
0.51873 0.0798657 0.0807355
0.566232 0.0759289 0.0767987
0.613748 0.0719768 0.0728771
0.652598 0.0674907 0.068452
0.690822 0.062974 0.0639963
0.713191 0.0599527 0.0610208
0.731609 0.0572976 0.0584115
0.739788 0.0561074 0.0572366
0.74287 0.0556344 0.0567636
0.74435 0.0554055 0.0565499
0.744411 0.0553902 0.0565347
0.744457 0.0553902 0.0565347
0.744457 0.0553902 0.0565347
0.744457 0.0553902 0.0565347
0.744457 0.0553902 0.0565347
0.744457 0.0553902 0.0565347
0.744457 0.0553902 0.0565347
0.744457 0.0553902 0.0565347
0.0541085 0.0568856 0.056199
0.0545815 0.057084 0.0565499
0.0550698 0.0572824 0.0569009
0.0569772 0.0574807 0.0571145
0.0590829 0.0576791 0.0572976
0.0674296 0.0595407 0.0590829
0.0780346 0.0619974 0.0614328
0.100618 0.0655222 0.0649882
0.131212 0.0697795 0.069337
0.173159 0.0742657 0.074052
0.228092 0.0790417 0.0791943
0.285313 0.0826123 0.0830701
0.347097 0.0838178 0.0844739
0.407477 0.0843519 0.0851759
0.462211 0.0822461 0.0830854
0.516487 0.0800183 0.0808728
0.564126 0.0760967 0.0769665
0.611765 0.0721752 0.0730755
0.650752 0.0677043 0.0686656
0.689128 0.0631876 0.0642252
0.712016 0.0601053 0.0611887
0.73106 0.0573892 0.0585031
0.739559 0.0561379 0.0572671
0.742794 0.0556344 0.0567788
0.74435 0.0554055 0.0565499
0.744411 0.0553902 0.0565347
0.744457 0.0553902 0.0565347
0.744457 0.0553902 0.0565347
0.744457 0.0553902 0.0565347
0.744457 0.0553902 0.0565347
0.744457 0.0553902 0.0565347
0.744457 0.0553902 0.0565347
0.744457 0.0553902 0.0565347
0.0577859 0.063035 0.0601511
0.0578927 0.0628367 0.0600595
0.0579843 0.062623 0.0599527
0.0592355 0.0625162 0.0598917
0.0606546 0.0624247 0.0598306
0.0677501 0.0637217 0.0611276
0.0769055 0.0655375 0.0629282
0.0982528 0.0686809 0.0660258
0.127733 0.072694 0.0699931
0.168612 0.0768902 0.0743725
0.222522 0.0812695 0.0792096
0.279149 0.0844587 0.0829328
0.341207 0.0852216 0.0844129
0.401968 0.085359 0.0851911
0.457511 0.0829786 0.0832074
0.512566 0.0805066 0.0810864
0.560647 0.0765087 0.0772259
0.608743 0.0725261 0.0733654
0.648051 0.06804 0.0689708
0.686717 0.063508 0.0645304
0.710384 0.0603342 0.0614023
0.730282 0.057496 0.0586099
0.739223 0.056199 0.0573281
0.742672 0.0556649 0.0567941
0.744335 0.0554055 0.0565499
0.744411 0.0553902 0.0565347
0.744457 0.0553902 0.0565347
0.744457 0.0553902 0.0565347
0.744457 0.0553902 0.0565347
0.744457 0.0553902 0.0565347
0.744457 0.0553902 0.0565347
0.744457 0.0553902 0.0565347
0.744457 0.0553902 0.0565347
0.0621805 0.0704967 0.0650034
0.0619974 0.0699626 0.0645762
0.0618143 0.0694285 0.0641489
0.0623636 0.0689403 0.0637369
0.0630198 0.068452 0.0633402
0.068513 0.0689708 0.0639048
0.0757763 0.0698405 0.0648356
0.0956436 0.0724956 0.0673381
0.123934 0.0763409 0.0708782
0.163577 0.0802319 0.0748608
0.21622 0.0841993 0.0793164
0.272084 0.0869154 0.0828107
0.334386 0.0870832 0.0843671
0.395529 0.0866865 0.0852216
0.452049 0.0839551 0.0833448
0.508049 0.081117 0.0813306
0.556695 0.0770123 0.0775158
0.605341 0.0729229 0.0737011
0.645029 0.0684062 0.0692912
0.684062 0.063859 0.0648661
0.708568 0.0605783 0.0616465
0.729442 0.0576181 0.058732
0.738857 0.05626 0.0573892
0.74255 0.0556802 0.0568246
0.74432 0.0554055 0.0565499
0.744396 0.0553902 0.0565347
0.744457 0.0553902 0.0565347
0.744457 0.0553902 0.0565347
0.744457 0.0553902 0.0565347
0.744457 0.0553902 0.0565347
0.744457 0.0553902 0.0565347
0.744457 0.0553902 0.0565347
0.744457 0.0553902 0.0565347
0.0693217 0.0849012 0.0729992
0.068925 0.0840009 0.0723278
0.0685283 0.0831006 0.0716716
0.0685588 0.0821546 0.0709392
0.0686503 0.0812238 0.0702068
0.0724651 0.0808576 0.0700389
0.0776226 0.080705 0.0700999
0.0949874 0.0823072 0.0716716
0.1205 0.085069 0.0742504
0.157992 0.0882887 0.0773632
0.209186 0.0920119 0.0810864
0.263844 0.0943313 0.0839246
0.325399 0.093843 0.085008
0.386099 0.0926986 0.0855116
0.443305 0.0889143 0.0836805
0.499992 0.0850538 0.0817273
0.549554 0.0801862 0.0779889
0.599115 0.0753185 0.0742504
0.639582 0.0702983 0.0698558
0.679423 0.0652781 0.0654307
0.705272 0.0615854 0.0620737
0.727626 0.0582284 0.0589914
0.737835 0.0566262 0.0575418
0.74197 0.0559091 0.0569009
0.743984 0.0555428 0.0565957
0.744137 0.0554971 0.0565805
0.744244 0.0554665 0.0565652
0.744259 0.0554513 0.0565652
0.744289 0.0554513 0.0565499
0.744289 0.055436 0.0565499
0.744305 0.055436 0.0565499
0.744305 0.055436 0.0565499
0.74432 0.055436 0.0565499
0.078294 0.10396 0.0830854
0.0777142 0.102647 0.0822461
0.0771496 0.10135 0.0814221
0.0767834 0.0999313 0.0803845
0.0764782 0.0984817 0.0793164
0.0785229 0.0971847 0.0784314
0.0814221 0.0959487 0.0776074
0.095613 0.0961166 0.0780194
0.117327 0.0972 0.0792706
0.152056 0.0994583 0.0812238
0.201678 0.103075 0.0839551
0.25481 0.105074 0.0858625
0.314992 0.103853 0.0861219
0.37467 0.101808 0.0859693
0.432364 0.0965438 0.0841535
0.489586 0.0912184 0.0822156
0.540276 0.0851301 0.078584
0.590967 0.0790417 0.0749523
0.632532 0.0731975 0.070573
0.673442 0.0673991 0.0661479
0.700984 0.0630808 0.062623
0.72517 0.059144 0.0593271
0.73637 0.0572061 0.0577554
0.7411 0.05626 0.0570382
0.743435 0.0557717 0.056672
0.743709 0.0556649 0.0566415
0.743893 0.0556039 0.056611
0.743954 0.0555734 0.056611
0.743999 0.0555428 0.0565957
0.74403 0.0555428 0.0565957
0.744045 0.0555276 0.0565957
0.74406 0.0555276 0.0565805
0.744076 0.0555123 0.0565805
0.0905318 0.131701 0.0968643
0.0897993 0.130022 0.0958724
0.0890669 0.128328 0.0948959
0.0883803 0.12639 0.0935683
0.0876936 0.124422 0.092195
0.0883955 0.122286 0.0906386
0.089601 0.120104 0.0890211
0.10045 0.118883 0.088365
0.117708 0.118288 0.0883345
0.148638 0.119219 0.0891127
0.195193 0.121874 0.0908217
0.246098 0.123079 0.0915694
0.305684 0.121355 0.0904097
0.364736 0.118654 0.0888991
0.421622 0.112062 0.0860304
0.478096 0.105394 0.0831159
0.528496 0.0977646 0.0794537
0.578912 0.090135 0.0758068
0.62153 0.0830701 0.071519
0.663584 0.076051 0.0671702
0.693156 0.0706798 0.063508
0.719585 0.0657054 0.0600137
0.732128 0.0628977 0.0582895
0.737713 0.0611734 0.0574655
0.740566 0.0600595 0.0570382
0.741054 0.0594797 0.0569772
0.74139 0.0590219 0.0569314
0.741527 0.0587778 0.0569162
0.741634 0.0585489 0.0569162
0.74168 0.0584726 0.0569009
0.741726 0.058381 0.0569009
0.741756 0.0583352 0.0569009
0.741802 0.0582895 0.0568856
0.106508 0.169375 0.114885
0.105638 0.16733 0.113756
0.104768 0.165301 0.112612
0.103792 0.162814 0.111025
0.1028 0.160266 0.109377
0.102632 0.157412 0.10724
0.102754 0.154437 0.104936
0.110063 0.151888 0.103258
0.122148 0.14963 0.101976
0.148104 0.148775 0.10161
0.189914 0.149523 0.102251
0.237736 0.149371 0.101595
0.297642 0.147433 0.0983139
0.356497 0.144335 0.094667
0.411124 0.136599 0.0895399
0.465354 0.12874 0.0844892
0.513863 0.119203 0.0806744
0.562371 0.109667 0.0768597
0.605997 0.100893 0.0727092
0.649271 0.0921798 0.0685283
0.68127 0.0852369 0.0647593
0.710445 0.078706 0.0610666
0.724697 0.0744335 0.059205
0.731472 0.0712902 0.0582284
0.735058 0.068986 0.0577401
0.735851 0.0674601 0.0576333
0.736431 0.0662394 0.0575723
0.736675 0.065507 0.057557
0.736873 0.0648966 0.0575265
0.736965 0.0646372 0.0575265
0.737057 0.0644083 0.0575113
0.737118 0.0642863 0.0575113
0.737179 0.0641642 0.057496
0.1243 0.211353 0.134859
0.123323 0.209064 0.133623
0.122347 0.206775 0.132372
0.121157 0.203876 0.130587
0.119921 0.20087 0.128725
0.119036 0.197421 0.126146
0.118288 0.193805 0.123323
0.122576 0.190158 0.120699
0.130205 0.186496 0.118212
0.151171 0.184039 0.116716
0.187381 0.182925 0.11632
0.231159 0.181353 0.11458
0.290044 0.178866 0.110155
0.347906 0.175113 0.105058
0.40174 0.166293 0.0973068
0.455131 0.157305 0.0897231
0.502205 0.146227 0.0843671
0.549279 0.135149 0.0790112
0.592981 0.125093 0.074342
0.636423 0.115114 0.0697185
0.669551 0.106905 0.0657816
0.700099 0.0991379 0.0619974
0.715282 0.0935531 0.0600595
0.722789 0.0890669 0.0590524
0.726772 0.0856031 0.0585489
0.727672 0.0830549 0.0584573
0.728313 0.0810254 0.0584115
0.728557 0.0797589 0.0583963
0.728756 0.0787213 0.0583963
0.728847 0.0782788 0.0583963
0.728939 0.0778668 0.0583963
0.729 0.0776532 0.058381
0.729061 0.0774395 0.058381
0.145693 0.261967 0.158724
0.144701 0.259632 0.157458
0.143694 0.257298 0.156191
0.142382 0.254215 0.154345
0.141024 0.250996 0.152422
0.139788 0.247227 0.149676
0.138582 0.243229 0.146639
0.140856 0.238941 0.143252
0.145449 0.23444 0.13962
0.161425 0.230701 0.137041
0.190417 0.227832 0.135653
0.228153 0.224689 0.133516
0.283345 0.220996 0.12987
0.338674 0.216083 0.124743
0.394583 0.206287 0.113649
0.449882 0.196368 0.102647
0.496498 0.184466 0.0930343
0.543114 0.172564 0.0834058
0.584985 0.162051 0.0768749
0.626535 0.151644 0.070573
0.658152 0.142824 0.0663462
0.687297 0.134401 0.0626383
0.7019 0.127825 0.0608377
0.709239 0.122164 0.0599832
0.712947 0.117571 0.0595865
0.713497 0.113939 0.0596017
0.713848 0.110994 0.0596475
0.713863 0.109102 0.0596933
0.713878 0.10753 0.0597543
0.713909 0.106844 0.0597696
0.713939 0.106218 0.0597848
0.713954 0.105898 0.0597848
0.713985 0.105577 0.0598001
0.167437 0.312795 0.182773
0.1664 0.310445 0.181491
0.165377 0.308095 0.180209
0.163973 0.30486 0.178317
0.162509 0.301472 0.176349
0.160952 0.297429 0.17348
0.15935 0.293126 0.170291
0.159823 0.288273 0.166262
0.161685 0.28307 0.161685
0.172961 0.278187 0.158083
0.194995 0.273701 0.155612
0.226627 0.269154 0.153033
0.277455 0.2645 0.150195
0.329564 0.258671 0.145342
0.386816 0.248127 0.132372
0.443366 0.23743 0.119356
0.490181 0.224567 0.10576
0.53698 0.211704 0.0921798
0.577676 0.20058 0.0829633
0.617929 0.189578 0.0740673
0.648554 0.180224 0.0686351
0.676768 0.171267 0.0640421
0.691218 0.163928 0.0617227
0.698787 0.157382 0.0605325
0.702495 0.151934 0.0599985
0.702831 0.147463 0.060029
0.702953 0.143816 0.0601053
0.702754 0.141436 0.0602274
0.702602 0.139452 0.0603189
0.702571 0.138582 0.0603647
0.702525 0.137758 0.0603952
0.70251 0.137346 0.0604257
0.702495 0.136934 0.060441
0.190524 0.364553 0.207538
0.189487 0.362249 0.206271
0.188449 0.35996 0.205005
0.187015 0.356741 0.203143
0.185519 0.353368 0.201175
0.18378 0.349248 0.198352
0.181964 0.344839 0.195209
0.181506 0.339818 0.191104
0.181933 0.334386 0.186328
0.189685 0.328893 0.181979
0.205768 0.323323 0.178088
0.231083 0.318105 0.174853
0.274861 0.313558 0.172946
0.320989 0.30782 0.169619
0.376593 0.297292 0.160616
0.4318 0.286503 0.151125
0.481422 0.272175 0.134783
0.53106 0.257832 0.118456
0.573037 0.245441 0.103273
0.614481 0.233188 0.0881819
0.646128 0.223545 0.0777447
0.675319 0.214542 0.0684825
0.691341 0.20737 0.0630808
0.700771 0.201099 0.059617
0.705501 0.195895 0.057847
0.706111 0.191623 0.0575723
0.706355 0.188128 0.0574807
0.706004 0.185779 0.0576486
0.705715 0.183825 0.0578012
0.705608 0.18294 0.0578622
0.705501 0.182132 0.057908
0.705455 0.181689 0.0579385
0.705394 0.181262 0.0579538
0.213611 0.416114 0.232227
0.212573 0.41387 0.230976
0.211536 0.411627 0.229725
0.210056 0.408423 0.227878
0.208515 0.405081 0.22594
0.206622 0.40087 0.223163
0.204608 0.396368 0.220081
0.203235 0.39118 0.215885
0.202289 0.38555 0.210971
0.206592 0.379477 0.205875
0.216892 0.372885 0.20061
0.236011 0.366979 0.196735
0.272755 0.362463 0.195605
0.312917 0.356771 0.193698
0.36672 0.346441 0.188586
0.420417 0.33576 0.182574
0.472633 0.320089 0.164065
0.524849 0.304417 0.145556
0.568139 0.29073 0.124849
0.610788 0.277195 0.10399
0.643565 0.267185 0.0886549
0.673884 0.258076 0.0747082
0.6916 0.251011 0.0661326
0.702998 0.244984 0.0602426
0.708827 0.239994 0.0571298
0.709773 0.23595 0.0564736
0.71014 0.232593 0.0561532
0.709651 0.230274 0.0563363
0.709255 0.228351 0.0564736
0.709072 0.227466 0.0565499
0.708904 0.226627 0.0565957
0.708812 0.226184 0.056611
0.708736 0.225742 0.0566262
0.236774 0.464988 0.256016
0.235721 0.46276 0.254765
0.234668 0.460533 0.253513
0.233158 0.457343 0.251682
0.231586 0.454017 0.24976
0.229603 0.449775 0.247059
0.227481 0.445212 0.244083
0.225681 0.439994 0.24004
0.224109 0.434333 0.235279
0.226383 0.428138 0.229908
0.233036 0.421363 0.223835
0.247547 0.414954 0.219089
0.277729 0.409293 0.216983
0.311849 0.40325 0.214832
0.3617 0.395575 0.212512
0.411673 0.387427 0.209491
0.463127 0.372335 0.196933
0.514595 0.357259 0.18436
0.559365 0.341985 0.164263
0.603662 0.32668 0.143618
0.639261 0.315358 0.124559
0.672694 0.305043 0.105898
0.693828 0.297459 0.0928054
0.708827 0.291249 0.082475
0.716793 0.28629 0.0764935
0.718624 0.282429 0.0743114
0.719539 0.27921 0.0728313
0.719097 0.276921 0.0724498
0.718715 0.274998 0.0721141
0.718547 0.274083 0.071931
0.718379 0.273243 0.0717479
0.718303 0.272755 0.0716259
0.718212 0.272282 0.0714885
0.259953 0.513848 0.279805
0.258869 0.511635 0.278553
0.257801 0.509438 0.277302
0.25626 0.506264 0.275486
0.254643 0.502953 0.273579
0.252583 0.49868 0.27097
0.25037 0.494057 0.268101
0.248142 0.488807 0.264195
0.24593 0.483101 0.259586
0.246159 0.476814 0.253925
0.24918 0.469841 0.247044
0.259068 0.462928 0.241443
0.282689 0.456138 0.238346
0.310765 0.449714 0.235966
0.356695 0.444724 0.236439
0.402945 0.439078 0.236423
0.453635 0.424598 0.229786
0.504341 0.410101 0.223163
0.550591 0.393225 0.203662
0.596536 0.376181 0.183246
0.634958 0.363546 0.160464
0.671504 0.35201 0.137087
0.696071 0.343908 0.119463
0.714656 0.33753 0.104723
0.724758 0.332586 0.0958572
0.727459 0.328923 0.092134
0.728923 0.325826 0.0895247
0.728527 0.323552 0.0885634
0.728191 0.321645 0.0877394
0.728023 0.320714 0.0873121
0.727855 0.319844 0.0869001
0.727779 0.319326 0.0866255
0.727703 0.318822 0.0863661
0.279179 0.552865 0.299229
0.278157 0.550805 0.298039
0.277134 0.54873 0.296849
0.275685 0.545785 0.295125
0.274159 0.542687 0.293339
0.27219 0.538689 0.290898
0.270069 0.534371 0.288228
0.267857 0.529442 0.284611
0.265568 0.524132 0.280369
0.265049 0.518257 0.275029
0.266545 0.511742 0.268406
0.273793 0.504936 0.262608
0.292546 0.497551 0.258457
0.315816 0.490822 0.255253
0.357153 0.486717 0.255818
0.399054 0.482185 0.256168
0.448844 0.471748 0.253437
0.498619 0.461326 0.25069
0.544274 0.445045 0.237217
0.589654 0.428367 0.222965
0.62858 0.414588 0.203525
0.665888 0.401556 0.182773
0.692943 0.39266 0.166018
0.714885 0.38584 0.151278
0.727199 0.380789 0.142046
0.73109 0.377279 0.137636
0.733364 0.374273 0.134401
0.733181 0.372061 0.132921
0.733013 0.370184 0.131655
0.732876 0.369238 0.130983
0.732754 0.368338 0.130358
0.732692 0.367788 0.129961
0.732631 0.367254 0.129564
0.298116 0.59118 0.318349
0.297154 0.589258 0.31722
0.296193 0.587335 0.316091
0.294835 0.584619 0.314488
0.293416 0.581781 0.31281
0.291569 0.578073 0.310536
0.289555 0.57406 0.308064
0.287373 0.569512 0.304768
0.285054 0.564614 0.300923
0.283864 0.559197 0.295918
0.283986 0.553185 0.289616
0.288731 0.546532 0.28368
0.302754 0.538567 0.278462
0.321294 0.531533 0.274388
0.358007 0.528191 0.274891
0.395514 0.524681 0.27541
0.444373 0.518547 0.276417
0.493217 0.512413 0.27744
0.53814 0.496925 0.270359
0.582773 0.480751 0.262699
0.622034 0.465858 0.247089
0.659953 0.451286 0.22948
0.689448 0.441581 0.214008
0.714702 0.434302 0.199588
0.729229 0.429114 0.190158
0.734356 0.425757 0.185122
0.737453 0.422873 0.181308
0.737484 0.420706 0.179294
0.737499 0.418875 0.1776
0.737408 0.417884 0.176699
0.737331 0.416953 0.175845
0.737285 0.416388 0.175326
0.73724 0.415808 0.174807
0.306722 0.608438 0.327596
0.30605 0.607095 0.326726
0.305379 0.605753 0.325872
0.304417 0.603845 0.324636
0.303426 0.601877 0.323354
0.302113 0.599268 0.32163
0.300694 0.596445 0.319738
0.299107 0.59321 0.317159
0.297398 0.589685 0.314137
0.296574 0.585779 0.310094
0.296727 0.58143 0.30486
0.30071 0.576318 0.299611
0.312337 0.569711 0.294347
0.328222 0.563867 0.290166
0.361181 0.561013 0.290379
0.395087 0.55816 0.290745
0.442496 0.555184 0.293385
0.489906 0.552209 0.296025
0.535027 0.540093 0.292988
0.579995 0.527321 0.28954
0.618906 0.512917 0.278798
0.656306 0.498116 0.266239
0.68658 0.487892 0.253864
0.713298 0.479973 0.241596
0.729305 0.47454 0.233371
0.735927 0.471275 0.228672
0.740047 0.468544 0.225101
0.740444 0.466651 0.223255
0.740703 0.465019 0.221653
0.740642 0.464073 0.220783
0.740581 0.463172 0.219959
0.740536 0.462608 0.21944
0.74049 0.462028 0.218921
0.312749 0.620417 0.334356
0.312413 0.61976 0.333822
0.312078 0.619104 0.333272
0.311604 0.618189 0.332494
0.311116 0.617227 0.331685
0.31046 0.615915 0.330571
0.309743 0.614496 0.329351
0.308904 0.612802 0.327611
0.307973 0.610925 0.325536
0.307744 0.608789 0.322576
0.308309 0.606378 0.318593
0.311955 0.603174 0.31426
0.321767 0.598398 0.309194
0.3355 0.59411 0.305104
0.36492 0.591684 0.304982
0.395438 0.58941 0.305104
0.441276 0.589288 0.308827
0.487098 0.589181 0.312566
0.532677 0.581094 0.312978
0.578256 0.572457 0.313176
0.616632 0.558938 0.307546
0.653223 0.544213 0.300481
0.683894 0.533562 0.291707
0.711589 0.524956 0.282063
0.728878 0.519234 0.275349
0.737072 0.516045 0.271229
0.74229 0.513497 0.268132
0.743053 0.511925 0.26659
0.743603 0.510536 0.265248
0.743542 0.509651 0.264469
0.743496 0.508797 0.263737
0.74345 0.508232 0.263233
0.743404 0.507652 0.262745
0.315282 0.625452 0.337728
0.315114 0.625132 0.337331
0.314946 0.624811 0.336934
0.314717 0.624353 0.33637
0.314458 0.62388 0.33579
0.314137 0.62324 0.334981
0.313771 0.622538 0.334096
0.313405 0.62179 0.33286
0.313008 0.620996 0.331411
0.313313 0.620249 0.329259
0.314382 0.619577 0.326329
0.318151 0.618265 0.32285
0.327291 0.615671 0.318318
0.340093 0.613336 0.314717
0.367544 0.612039 0.314778
0.396124 0.610986 0.31516
0.440528 0.613413 0.319799
0.484932 0.615839 0.324422
0.530861 0.611597 0.327092
0.576883 0.606882 0.32961
0.615396 0.595651 0.327337
0.652018 0.582788 0.323873
0.682704 0.572442 0.318349
0.710399 0.563348 0.311788
0.728466 0.557382 0.30724
0.738125 0.554131 0.304448
0.744381 0.551705 0.302358
0.745571 0.5505 0.301335
0.746441 0.549401 0.30042
0.746395 0.548608 0.299809
0.746349 0.54786 0.299214
0.746303 0.547311 0.298802
0.746258 0.546777 0.29839
0.316091 0.627008 0.339391
0.315999 0.626841 0.339055
0.315908 0.626673 0.338735
0.31577 0.626429 0.338262
0.315648 0.626184 0.337774
0.31548 0.625879 0.337118
0.315312 0.625574 0.3364
0.315267 0.625452 0.335515
0.315282 0.625483 0.334524
0.31606 0.625956 0.333059
0.317723 0.626902 0.331029
0.321828 0.627466 0.32842
0.330846 0.627222 0.324605
0.343328 0.62707 0.32166
0.369589 0.627253 0.322194
0.396963 0.627741 0.323049
0.440024 0.632547 0.328511
0.48307 0.637354 0.333959
0.52929 0.636851 0.338247
0.575723 0.635966 0.342458
0.614679 0.62771 0.342641
0.651759 0.617594 0.341833
0.682261 0.607904 0.339391
0.709453 0.598428 0.336156
0.728054 0.592218 0.334081
0.739116 0.588876 0.332998
0.74641 0.586526 0.332189
0.748058 0.585718 0.331777
0.749249 0.584939 0.331365
0.749218 0.584283 0.330953
0.749187 0.583642 0.330556
0.749126 0.583139 0.330266
0.749081 0.582635 0.329961
0.316533 0.627878 0.340566
0.316472 0.627771 0.340261
0.316426 0.62768 0.339971
0.31635 0.627527 0.339529
0.316258 0.62739 0.339071
0.316182 0.627237 0.338491
0.316106 0.6271 0.33785
0.316197 0.627314 0.337148
0.316426 0.627756 0.3364
0.317449 0.62887 0.335286
0.319371 0.630732 0.333791
0.323598 0.632364 0.33164
0.332418 0.63357 0.328191
0.344579 0.634775 0.325612
0.370108 0.636011 0.326467
0.396765 0.637629 0.327688
0.439139 0.644556 0.333959
0.481529 0.651469 0.340215
0.528191 0.654429 0.346014
0.575158 0.657084 0.351766
0.614725 0.651957 0.353902
0.652445 0.644877 0.355123
0.682902 0.636362 0.354696
0.709712 0.627131 0.35346
0.728573 0.620813 0.352743
0.740459 0.617014 0.352468
0.748379 0.614481 0.35227
0.750286 0.613825 0.352178
0.75169 0.613214 0.352041
0.751675 0.61268 0.351766
0.751659 0.612161 0.351507
0.751598 0.611719 0.351278
0.751553 0.611261 0.351064
0.31667 0.628122 0.341314
0.316609 0.628031 0.341009
0.316564 0.627924 0.340703
0.316472 0.627771 0.340261
0.316396 0.627619 0.339803
0.316304 0.627466 0.339208
0.316228 0.627329 0.338552
0.31635 0.627573 0.337865
0.316594 0.628077 0.337179
0.317632 0.629343 0.336187
0.319554 0.631479 0.334844
0.32369 0.633509 0.33283
0.332235 0.63537 0.329442
0.344106 0.637232 0.32694
0.369314 0.639155 0.328023
0.395666 0.64152 0.329488
0.437949 0.650324 0.336553
0.480232 0.659129 0.343618
0.527504 0.665278 0.35079
0.575143 0.671229 0.357977
0.615457 0.669367 0.361593
0.653956 0.665568 0.364324
0.684474 0.658671 0.364965
0.710979 0.650233 0.364569
0.729885 0.6439 0.364248
0.742107 0.639414 0.363989
0.750256 0.636439 0.363821
0.752316 0.635737 0.36379
0.753811 0.635126 0.363714
0.753811 0.634745 0.363531
0.753811 0.634363 0.363363
0.753765 0.633951 0.36318
0.753719 0.633555 0.362997
0.316777 0.628321 0.341909
0.316732 0.628229 0.341604
0.31667 0.628122 0.341299
0.316579 0.62797 0.340856
0.316503 0.627817 0.340383
0.316411 0.627665 0.339773
0.31632 0.627512 0.339117
0.316442 0.627756 0.338445
