pic/松下lut/LUTs/Vintage Vibes.cube
TITLE "Generated by Resolve"
#LUMIXPHOTOSTYLE VLOG
LUT_3D_SIZE 5
0.0506905 0.0513008 0.055787
0.139437 0.0679637 0.0696117
0.570916 0.0755322 0.0764324
0.744366 0.0554055 0.0565499
0.744457 0.0553902 0.0565347
0.078294 0.10396 0.0830854
0.117327 0.0972 0.0792706
0.540276 0.0851301 0.078584
0.743435 0.0557717 0.056672
0.744076 0.0555123 0.0565805
0.236774 0.464988 0.256016
0.224109 0.434333 0.235279
0.463127 0.372335 0.196933
0.716793 0.28629 0.0764935
0.718212 0.272282 0.0714885
0.316533 0.627878 0.340566
0.316426 0.627756 0.3364
0.439139 0.644556 0.333959
0.728573 0.620813 0.352743
0.751553 0.611261 0.351064
0.294926 0.584466 0.319158
0.297993 0.584298 0.315358
0.459312 0.608804 0.31516
0.73724 0.64593 0.360082
0.755962 0.634256 0.358038
0.154665 0.298253 0.180774
0.1944 0.298848 0.18201
0.552041 0.312245 0.170321
0.743465 0.32813 0.185809
0.74696 0.32282 0.184924
0.0863508 0.12018 0.111284
0.130526 0.110277 0.108507
0.547158 0.0841077 0.0818799
0.743862 0.0557565 0.0567025
0.744167 0.0555276 0.0565805
0.242527 0.476158 0.283589
0.228779 0.445838 0.262745
0.469017 0.385443 0.206287
0.721416 0.289296 0.07953
0.721645 0.274083 0.0741741
0.321584 0.636942 0.368277
0.320897 0.635782 0.3617
0.438849 0.659953 0.344869
0.734691 0.633173 0.359854
0.755673 0.62269 0.357427
0.300221 0.59379 0.348013
0.302815 0.591989 0.342199
0.458671 0.620401 0.325277
0.74136 0.652888 0.364508
0.758999 0.641993 0.362463
0.170932 0.324285 0.34197
0.188205 0.320287 0.368811
0.558343 0.332006 0.307897
0.763088 0.341894 0.247257
0.766812 0.336324 0.239231
0.098024 0.187945 0.342245
0.108843 0.173663 0.36585
0.561776 0.0838636 0.308644
0.765011 0.0516365 0.209812
0.764508 0.0516365 0.197284
0.270268 0.52459 0.448981
0.255863 0.495048 0.428168
0.508873 0.444053 0.380819
0.796521 0.273487 0.18555
0.798917 0.252277 0.172503
0.350576 0.686687 0.532998
0.349523 0.685664 0.515831
0.442588 0.716472 0.468986
0.773251 0.673152 0.41355
0.797314 0.656123 0.396445
0.327535 0.640284 0.51931
0.327291 0.638834 0.50779
0.462516 0.672038 0.463767
0.768429 0.692912 0.427512
0.791882 0.680781 0.419654
0.179706 0.345571 0.533974
0.183047 0.341421 0.55108
0.555703 0.355642 0.566339
0.765454 0.368978 0.496803
0.772595 0.36492 0.484001
0.0866102 0.23801 0.542733
0.0899519 0.222889 0.552041
0.544945 0.116426 0.57229
0.761288 0.0550393 0.494865
0.761364 0.0540932 0.483024
0.287251 0.54931 0.616068
0.268528 0.518212 0.612589
0.466056 0.471672 0.638453
0.832135 0.320745 0.555093
0.836423 0.293095 0.543664
0.360891 0.69807 0.656641
0.362051 0.700328 0.657984
0.442512 0.750881 0.682017
0.795483 0.719173 0.624018
0.826856 0.68835 0.593408
0.336294 0.650431 0.638224
0.337301 0.651591 0.641627
0.460395 0.700954 0.66807
0.785718 0.739803 0.643046
0.820706 0.733242 0.627741
0.179568 0.348302 0.563668
0.182269 0.343648 0.577462
0.550835 0.357122 0.60885
0.765438 0.375952 0.557916
0.7729 0.374563 0.548302
0.0856794 0.243992 0.564752
0.0877699 0.231388 0.585
0.537423 0.126635 0.622827
0.760845 0.058732 0.546471
0.760555 0.0571298 0.534951
0.287541 0.549966 0.616953
0.268727 0.520012 0.617823
0.450309 0.476219 0.681147
0.82443 0.342535 0.619089
0.828748 0.316014 0.608392
0.360891 0.69807 0.656641
0.362036 0.700313 0.658015
0.441535 0.751766 0.688991
0.796429 0.725322 0.67921
0.828077 0.691371 0.651774
0.360891 0.69807 0.656641
0.36173 0.699718 0.657649
0.433234 0.753796 0.686824
0.792645 0.801923 0.709743
0.834012 0.798108 0.708293
