pic/松下lut/LUTs/Warming Light.cube
TITLE "Generated by Resolve"
#LUMIXPHOTOSTYLE VLOG
LUT_3D_SIZE 33
0.0712749 0.0554818 0.0166323
0.0712749 0.0554818 0.0166323
0.0924392 0.0532082 0.0150149
0.120943 0.0557107 0.0107881
0.166308 0.0520027 0.00407416
0.194659 0.0530251 0.00134279
0.220737 0.0552529 0
0.252003 0.0580758 0
0.283696 0.0613107 0
0.337438 0.0576181 0
0.375875 0.0644999 0
0.422263 0.0717784 0
0.482933 0.0703746 0
0.541314 0.0746471 0
0.605982 0.0767529 0
0.666453 0.0890669 0.00207523
0.727199 0.0992294 0.00737011
0.784482 0.114382 0.0216983
0.829099 0.14992 0.0445106
0.865904 0.187076 0.0734874
0.891997 0.176516 0.0842145
0.907698 0.127001 0.0552224
0.916426 0.0922866 0.0390631
0.923033 0.106584 0.0501717
0.924514 0.112337 0.0532998
0.924514 0.112337 0.0532998
0.924498 0.112337 0.0532845
0.924498 0.112337 0.0532845
0.924498 0.112337 0.0532845
0.924498 0.112337 0.0532845
0.924498 0.112337 0.0532845
0.924498 0.112337 0.0532845
0.924498 0.112337 0.0532845
0.0712749 0.0554818 0.0166323
0.0712749 0.0554818 0.0166323
0.0852979 0.052842 0.0155642
0.110475 0.0556191 0.0117342
0.155291 0.0526589 0.0053254
0.18764 0.0522621 0.00163272
0.211948 0.0547951 0.000350958
0.246418 0.0572824 0
0.277501 0.0608225 0
0.330617 0.058381 0
0.372641 0.0635386 0
0.418296 0.0719768 0
0.480522 0.0699321 0
0.538857 0.0746471 0
0.604471 0.0763104 0
0.66508 0.0890059 0.00198367
0.726329 0.0989853 0.00729381
0.783871 0.11397 0.0214389
0.828779 0.149554 0.0442512
0.865644 0.186984 0.0733654
0.891859 0.176684 0.0842145
0.907668 0.127153 0.0552682
0.916411 0.0923171 0.0390784
0.923018 0.106493 0.0501411
0.924514 0.112337 0.0532998
0.924514 0.112337 0.0532998
0.924498 0.112337 0.0532845
0.924498 0.112337 0.0532845
0.924498 0.112337 0.0532845
0.924498 0.112337 0.0532845
0.924498 0.112337 0.0532845
0.924498 0.112337 0.0532845
0.924498 0.112337 0.0532845
0.0690318 0.0599527 0.0161746
0.0696574 0.0586709 0.0162509
0.0738231 0.056611 0.0159609
0.101961 0.0556802 0.0129244
0.142016 0.0537118 0.00709544
0.180056 0.0518349 0.00234989
0.204883 0.0540322 0.000656138
0.239429 0.0568093 0
0.271565 0.0603342 0
0.324056 0.059266 0
0.36997 0.0625772 0
0.414511 0.0721294 0
0.477943 0.0696574 0
0.536553 0.0746319 0
0.60293 0.0758679 0
0.663691 0.0889601 0.00189212
0.72546 0.0987564 0.00720226
0.783352 0.113649 0.0212863
0.828458 0.149172 0.0440223
0.865431 0.186908 0.0732433
0.891783 0.176776 0.0842145
0.907607 0.127367 0.055314
0.916381 0.0923323 0.0390784
0.922988 0.106401 0.0500954
0.924514 0.112337 0.0532998
0.924514 0.112337 0.0532998
0.924498 0.112337 0.0532845
0.924498 0.112337 0.0532845
0.924498 0.112337 0.0532845
0.924498 0.112337 0.0532845
0.924498 0.112337 0.0532845
0.924498 0.112337 0.0532845
0.924498 0.112337 0.0532845
0.0635691 0.0784619 0.02121
0.0635843 0.0768902 0.0200656
0.0636454 0.075288 0.0190127
0.0895857 0.0662394 0.0134585
0.118807 0.0679332 0.0106355
0.16463 0.0624399 0.00415045
0.192584 0.061387 0.000839246
0.224414 0.0631266 0
0.263767 0.0654459 0
0.312581 0.0646525 0
0.366766 0.0628977 0
0.410346 0.0723278 0
0.475532 0.0693828 0
0.534264 0.0745861 0
0.601389 0.0754406 0
0.662211 0.0888991 0.00180056
0.724575 0.0985275 0.00709544
0.782925 0.113375 0.0211795
0.828122 0.148806 0.0437781
0.865232 0.186847 0.0731518
0.891691 0.176944 0.0842603
0.907546 0.127596 0.055375
0.91635 0.0923476 0.0390631
0.922972 0.106355 0.0500649
0.924514 0.112337 0.0532998
0.924514 0.112337 0.0532998
0.924498 0.112337 0.0532845
0.924498 0.112337 0.0532845
0.924498 0.112337 0.0532845
0.924498 0.112337 0.0532845
0.924498 0.112337 0.0532845
0.924498 0.112337 0.0532845
0.924498 0.112337 0.0532845
0.0628672 0.096849 0.0354772
0.0636606 0.0957656 0.0345922
0.0641337 0.0946822 0.0335088
0.0749371 0.0871138 0.0182956
0.102998 0.0840162 0.0106813
0.146548 0.0776532 0.00779736
0.17998 0.0749828 0.00387579
0.211841 0.074464 0
0.256703 0.0751965 0
0.297963 0.0773785 0
0.358648 0.0729381 0
0.40647 0.0789349 0
0.472892 0.072343 0
0.531807 0.0745861 0
0.599863 0.0750134 0
0.660822 0.088838 0.00170901
0.72372 0.0982986 0.00701915
0.782422 0.113054 0.0210269
0.827817 0.148501 0.0436103
0.864973 0.186755 0.0730144
0.89163 0.177081 0.0842908
0.907515 0.127733 0.0554208
0.916335 0.0923781 0.0390784
0.922942 0.106279 0.0500038
0.924514 0.112337 0.0532998
0.924514 0.112337 0.0532998
0.924498 0.112337 0.0532845
0.924498 0.112337 0.0532845
0.924498 0.112337 0.0532845
0.924498 0.112337 0.0532845
0.924498 0.112337 0.0532845
0.924498 0.112337 0.0532845
0.924498 0.112337 0.0532845
0.057145 0.110567 0.0440528
0.0574807 0.109514 0.0434119
0.0578164 0.108446 0.0427558
0.0636301 0.108125 0.0398108
0.0918593 0.110826 0.019089
0.121172 0.0993973 0.0119783
0.165148 0.0899367 0.00827039
0.198657 0.0892195 0.000823987
0.242359 0.088777 0
0.288472 0.0886244 0
0.35079 0.0871595 0
0.402701 0.0888685 0
0.470954 0.0809796 0
0.531273 0.0801099 0
0.598306 0.0749828 0
0.659358 0.0887617 0.00158694
0.722835 0.0980697 0.0069276
0.781781 0.112642 0.0207523
0.827405 0.148165 0.0433661
0.864805 0.186679 0.0729076
0.891539 0.177249 0.0843214
0.907454 0.127962 0.0554818
0.916304 0.0923934 0.0390784
0.922911 0.106203 0.0499428
0.924514 0.112337 0.0532998
0.924514 0.112337 0.0532998
0.924498 0.112337 0.0532845
0.924498 0.112337 0.0532845
0.924498 0.112337 0.0532845
0.924498 0.112337 0.0532845
0.924498 0.112337 0.0532845
0.924498 0.112337 0.0532845
0.924498 0.112337 0.0532845
0.0538491 0.123278 0.0532235
0.054078 0.122316 0.0524147
0.0543069 0.12134 0.0517739
0.0545357 0.120363 0.0509346
0.078584 0.124971 0.041001
0.10634 0.1308 0.0167849
0.1458 0.108782 0.00775158
0.183581 0.104067 0.00476081
0.22707 0.101823 0
0.277501 0.100938 0
0.338766 0.0995193 0
0.400702 0.102022 0
0.470039 0.09337 0
0.531777 0.0889296 0
0.599313 0.0838178 0
0.658091 0.0887465 0.00146487
0.722026 0.0978714 0.00686656
0.781094 0.112291 0.0204623
0.826993 0.14789 0.0431373
0.864576 0.186587 0.0727245
0.891463 0.177371 0.0843366
0.907408 0.128176 0.0555581
0.916274 0.0924239 0.0390631
0.922896 0.106157 0.0499275
0.924514 0.112337 0.0532998
0.924514 0.112337 0.0532998
0.924498 0.112337 0.0532845
0.924498 0.112337 0.0532845
0.924498 0.112337 0.0532845
0.924498 0.112337 0.0532845
0.924498 0.112337 0.0532845
0.924498 0.112337 0.0532845
0.924498 0.112337 0.0532845
0.0513619 0.137865 0.0569314
0.0514534 0.136873 0.0569314
0.0515297 0.135882 0.0569162
0.051606 0.13489 0.0569162
0.0578164 0.134966 0.0523079
0.0831006 0.14107 0.0433967
0.123201 0.147723 0.0136721
0.165026 0.123812 0.002533
0.21004 0.119341 0.000564584
0.259907 0.117815 0
0.327047 0.114168 0
0.39147 0.118593 0
0.468238 0.11516 0
0.534478 0.104768 0
0.602182 0.0981308 0
0.660716 0.0988327 0.0027924
0.721202 0.0976577 0.00683604
0.78027 0.112062 0.0201724
0.826581 0.147616 0.0428931
0.864378 0.186496 0.0725567
0.891386 0.177539 0.0843824
0.907347 0.128405 0.0556191
0.916243 0.0924544 0.0390631
0.922866 0.106081 0.0498665
0.924514 0.112337 0.0532998
0.924514 0.112337 0.0532998
0.924498 0.112337 0.0532845
0.924498 0.112337 0.0532845
0.924498 0.112337 0.0532845
0.924498 0.112337 0.0532845
0.924498 0.112337 0.0532845
0.924498 0.112337 0.0532845
0.924498 0.112337 0.0532845
0.0495613 0.15346 0.0626688
0.0496376 0.152712 0.062211
0.0497139 0.151949 0.061799
0.049836 0.151369 0.0615244
0.049958 0.150668 0.0610208
0.0605173 0.150225 0.0597696
0.0849775 0.158251 0.0492103
0.144427 0.163836 0.011841
0.184543 0.143252 0
0.244083 0.136141 0
0.308095 0.136126 0
0.378195 0.137972 0
0.465675 0.13933 0
0.535195 0.136294 4.57771e-05
0.608652 0.121782 0.00151064
0.668162 0.116014 0.00500496
0.723095 0.111528 0.0112459
0.779065 0.111742 0.0197452
0.826032 0.147173 0.0425727
0.864027 0.186358 0.0722667
0.891234 0.177813 0.0844129
0.907271 0.128695 0.0556802
0.916197 0.0924849 0.0390631
0.922789 0.105959 0.0497749
0.924514 0.112337 0.0532998
0.924514 0.112337 0.0532998
0.924498 0.112337 0.0532845
0.924498 0.112337 0.0532845
0.924498 0.112337 0.0532845
0.924498 0.112337 0.0532845
0.924498 0.112337 0.0532845
0.924498 0.112337 0.0532845
0.924498 0.112337 0.0532845
0.047837 0.17406 0.0743725
0.047837 0.173297 0.07393
0.0478218 0.172549 0.0735485
0.0478218 0.171801 0.0731975
0.0478218 0.171008 0.0727855
0.0479133 0.169619 0.0715801
0.0582742 0.170199 0.071397
0.0954147 0.179736 0.0600748
0.17052 0.19295 0.0125277
0.211139 0.167361 0
0.278508 0.159777 0
0.363378 0.160601 0
0.448386 0.1682 0
0.542565 0.165957 0.00169375
0.613123 0.161288 0.00962844
0.680278 0.144656 0.0120394
0.730007 0.138323 0.0192264
0.779599 0.134234 0.0294347
0.825132 0.146365 0.0419623
0.863539 0.186236 0.0719768
0.89099 0.17818 0.0844434
0.907164 0.129122 0.0558633
0.916136 0.0925307 0.0390631
0.922728 0.105791 0.0496529
0.924514 0.112337 0.0532998
0.924514 0.112337 0.0532998
0.924498 0.112337 0.0532845
0.924498 0.112337 0.0532845
0.924498 0.112337 0.0532845
0.924498 0.112337 0.0532845
0.924498 0.112337 0.0532845
0.924498 0.112337 0.0532845
0.924498 0.112337 0.0532845
0.0491188 0.200778 0.0934157
0.049073 0.200076 0.0928969
0.0490425 0.199329 0.0923323
0.049012 0.198581 0.0917678
0.0489815 0.197833 0.0912032
0.0488899 0.197116 0.0905776
0.0487526 0.19556 0.0889906
0.0596933 0.19794 0.0894179
0.115297 0.208606 0.0768597
0.196872 0.232395 0.0238041
0.246113 0.196963 0
0.328649 0.191608 0
0.428977 0.198672 0.00106813
0.520256 0.206714 0.00808728
0.621592 0.205188 0.0138094
0.682933 0.198779 0.0290684
0.741176 0.177676 0.0293278
0.782483 0.17174 0.043183
0.825742 0.17525 0.0554055
0.862913 0.186099 0.0716106
0.890684 0.178637 0.0844587
0.906966 0.129702 0.0563821
0.916045 0.092607 0.0390478
0.922621 0.105592 0.0495003
0.924514 0.112337 0.0532998
0.924514 0.112337 0.0532998
0.924498 0.112337 0.0532845
0.924498 0.112337 0.0532845
0.924498 0.112337 0.0532845
0.924498 0.112337 0.0532845
0.924498 0.112337 0.0532845
0.924498 0.112337 0.0532845
0.924498 0.112337 0.0532845
0.0484321 0.238437 0.120928
0.0484321 0.237629 0.120363
0.0484321 0.23682 0.119799
0.0484321 0.235935 0.119188
0.0484321 0.235111 0.118624
0.0484474 0.234241 0.118029
0.0484474 0.233356 0.117418
0.0486458 0.23151 0.115679
0.0658579 0.235569 0.118853
0.133394 0.246204 0.105241
0.224674 0.273747 0.0506752
0.298558 0.232944 0.00103761
0.385168 0.234562 0.00178531
0.497124 0.243854 0.0171054
0.596994 0.252903 0.0263676
0.688045 0.254887 0.0393835
0.7458 0.2486 0.058381
0.794736 0.226703 0.0606546
0.829679 0.218601 0.0751507
0.865507 0.220615 0.0901961
0.890333 0.179248 0.0844739
0.906752 0.130358 0.0569619
0.915953 0.0926986 0.0390478
0.922499 0.105318 0.0493019
0.924514 0.112337 0.0532998
0.924514 0.112337 0.0532998
0.924498 0.112337 0.0532845
0.924498 0.112337 0.0532845
0.924498 0.112337 0.0532845
0.924498 0.112337 0.0532845
0.924498 0.112337 0.0532845
0.924498 0.112337 0.0532845
0.924498 0.112337 0.0532845
0.0459602 0.28986 0.156542
0.0460212 0.289082 0.155978
0.0460822 0.28838 0.155474
0.0460517 0.287633 0.154849
0.046067 0.28687 0.154238
0.046128 0.286183 0.15375
0.0461891 0.285405 0.153185
0.0462654 0.284443 0.152499
0.0468757 0.282155 0.15082
0.0703593 0.284886 0.153323
0.157244 0.296101 0.143435
0.266941 0.329778 0.0834211
0.351003 0.284657 0.0108797
0.453086 0.282292 0.0099031
0.570657 0.29659 0.0391852
0.670314 0.308919 0.0540017
0.753841 0.318776 0.079469
0.806195 0.304906 0.0968185
0.844831 0.282017 0.100801
0.874662 0.275761 0.119112
0.896925 0.222126 0.104891
0.90695 0.133883 0.0595102
0.915801 0.0928359 0.0390478
0.922469 0.105013 0.0491493
0.924514 0.112337 0.0532998
0.924514 0.112337 0.0532998
0.924498 0.112337 0.0532845
0.924498 0.112337 0.0532845
0.924498 0.112337 0.0532845
0.924498 0.112337 0.0532845
0.924498 0.112337 0.0532845
0.924498 0.112337 0.0532845
0.924498 0.112337 0.0532845
0.0425879 0.346624 0.202228
0.0425879 0.346059 0.20177
0.0426032 0.345418 0.201221
0.0426032 0.344762 0.200687
0.0426032 0.344213 0.200229
0.0426032 0.343557 0.199695
0.0426032 0.342916 0.199145
0.0426184 0.342168 0.198535
0.0425879 0.341161 0.197742
0.0428473 0.33904 0.195605
0.0804913 0.343954 0.202609
0.199359 0.350195 0.192401
0.341054 0.391959 0.110079
0.414313 0.3523 0.0392004
0.527626 0.340902 0.0293736
0.647242 0.361532 0.0736858
0.743236 0.376135 0.097734
0.809857 0.382345 0.125063
0.857725 0.365011 0.139727
0.88777 0.339818 0.148959
0.9084 0.296544 0.146563
0.912276 0.191867 0.0937667
0.915679 0.101778 0.0443427
0.922438 0.104601 0.0489815
0.924514 0.112337 0.0532998
0.924514 0.112337 0.0532998
0.924498 0.112337 0.0532845
0.924498 0.112337 0.0532845
0.924498 0.112337 0.0532845
0.924498 0.112337 0.0532845
0.924498 0.112337 0.0532845
0.924498 0.112337 0.0532845
0.924498 0.112337 0.0532845
0.0395666 0.415198 0.261631
0.0395514 0.414649 0.261097
0.0395514 0.414099 0.260563
0.0395361 0.41355 0.260044
0.0394751 0.413016 0.259464
0.0394293 0.412467 0.258885
0.0395514 0.412009 0.258473
0.039704 0.41146 0.257984
0.0397803 0.41059 0.257206
0.039826 0.409216 0.25597
0.0400549 0.406149 0.253056
0.094667 0.416022 0.265782
0.250736 0.422782 0.257618
0.416556 0.475151 0.159487
0.488548 0.431235 0.0757458
0.604166 0.410468 0.0654765
0.71339 0.423392 0.111116
0.797879 0.431693 0.138384
0.851789 0.436362 0.163287
0.892287 0.420127 0.183719
0.916594 0.376181 0.181674
0.926802 0.289174 0.142336
0.917342 0.152865 0.0744488
0.922255 0.103685 0.0485237
0.924514 0.112337 0.0532998
0.924514 0.112337 0.0532998
0.924498 0.112337 0.0532845
0.924498 0.112337 0.0532845
0.924498 0.112337 0.0532845
0.924498 0.112337 0.0532845
0.924498 0.112337 0.0532845
0.924498 0.112337 0.0532845
0.924498 0.112337 0.0532845
0.0486763 0.489754 0.337209
0.0485542 0.489265 0.336782
0.0484779 0.488823 0.336355
0.0484932 0.488441 0.335943
0.0485084 0.488151 0.335637
0.0485237 0.48777 0.33521
0.0484779 0.487327 0.334752
0.0483558 0.486717 0.334112
0.0482338 0.486 0.333349
0.0480354 0.484901 0.332189
0.0476844 0.483619 0.330663
0.0471046 0.480354 0.326863
0.124071 0.496956 0.347631
0.316747 0.498314 0.337423
0.48455 0.540002 0.213107
0.563287 0.499809 0.117403
0.6645 0.477287 0.109941
0.765057 0.476432 0.140261
0.8392 0.484428 0.180468
0.885695 0.489738 0.207095
0.920531 0.465858 0.21799
0.936172 0.392111 0.19411
0.931807 0.267124 0.141695
0.92285 0.137545 0.0670634
0.924514 0.112337 0.0532998
0.924514 0.112337 0.0532998
0.924498 0.112337 0.0532845
0.924498 0.112337 0.0532845
0.924498 0.112337 0.0532845
0.924498 0.112337 0.0532845
0.924498 0.112337 0.0532845
0.924498 0.112337 0.0532845
0.924498 0.112337 0.0532845
0.0542916 0.568185 0.421317
0.0543221 0.568017 0.421118
0.0543679 0.567773 0.420813
0.0544289 0.567514 0.420523
0.0544442 0.567285 0.420172
0.0543984 0.566995 0.419776
0.0543526 0.56669 0.419364
0.0543069 0.5664 0.418967
0.0542916 0.565866 0.418372
0.0542611 0.56524 0.417624
0.0542306 0.564294 0.416526
0.0541695 0.563027 0.415045
0.0540475 0.560143 0.411368
0.146151 0.577707 0.432609
0.371206 0.569223 0.412802
0.551446 0.603342 0.268284
0.629664 0.558602 0.154528
0.713497 0.534691 0.156802
0.804181 0.528191 0.171389
0.871962 0.532906 0.222507
0.912123 0.534005 0.246586
0.941192 0.497871 0.241993
0.945129 0.406378 0.213901
0.934844 0.241169 0.133745
0.925002 0.120912 0.0598611
0.924498 0.112337 0.0532845
0.924498 0.112337 0.0532845
0.924498 0.112337 0.0532845
0.924498 0.112337 0.0532845
0.924498 0.112337 0.0532845
0.924498 0.112337 0.0532845
0.924498 0.112337 0.0532845
0.924498 0.112337 0.0532845
0.0550393 0.634165 0.500206
0.0550851 0.633997 0.500008
0.0551156 0.633844 0.499809
0.0551461 0.63357 0.499474
0.0551461 0.633371 0.499229
0.0551461 0.633173 0.498985
0.0551308 0.632975 0.498741
0.0551308 0.63267 0.498375
0.0551308 0.632364 0.498024
0.0551003 0.631876 0.497475
0.0550546 0.631174 0.496788
0.054963 0.630396 0.49572
0.0548714 0.629221 0.494194
0.0549783 0.626551 0.490242
0.179736 0.643168 0.511513
0.434485 0.631251 0.484215
0.610285 0.66508 0.333822
0.688945 0.610941 0.191348
0.754681 0.590326 0.203861
0.835477 0.578607 0.207355
0.896513 0.578378 0.263584
0.933898 0.571038 0.276616
0.952361 0.528771 0.26627
0.953292 0.434073 0.234379
0.93843 0.242344 0.134966
0.924834 0.117144 0.0567941
0.924498 0.112337 0.053254
0.924498 0.112337 0.0532845
0.924498 0.112337 0.0532845
0.924498 0.112337 0.0532845
0.924498 0.112337 0.0532845
0.924498 0.112337 0.0532845
0.924498 0.112337 0.0532845
0.0616464 0.692256 0.572274
0.0616159 0.692164 0.572168
0.0615549 0.692012 0.571969
0.0614939 0.691844 0.571771
0.0614633 0.691768 0.571664
0.0614023 0.6916 0.571481
0.0613565 0.691432 0.571267
0.0613107 0.691264 0.571023
0.0612802 0.691096 0.570809
0.0612345 0.690761 0.570382
0.0611734 0.690318 0.569848
0.0610971 0.689723 0.569085
0.0609751 0.688945 0.568124
0.0608377 0.687922 0.566827
0.0656443 0.688304 0.565927
0.217487 0.70193 0.584085
0.500893 0.688029 0.550057
0.667796 0.71696 0.406668
0.740063 0.662898 0.244007
0.789319 0.640009 0.261067
0.861295 0.625238 0.245487
0.915755 0.617563 0.29575
0.951141 0.602045 0.301885
0.960571 0.564508 0.294453
0.960388 0.478706 0.266941
0.948211 0.301488 0.171191
0.925551 0.128176 0.0649882
0.924514 0.112474 0.0533303
0.924498 0.112337 0.053254
0.924498 0.112337 0.053254
0.924514 0.112337 0.0532692
0.924498 0.112337 0.0532845
0.924498 0.112337 0.0532845
0.0663005 0.742412 0.636286
0.0662699 0.742321 0.636179
0.0662394 0.742245 0.636057
0.0661784 0.742061 0.635859
0.0661479 0.741985 0.635752
0.0661173 0.741909 0.63566
0.0660868 0.741817 0.635554
0.0660105 0.74165 0.635325
0.0659495 0.741482 0.635126
0.0658579 0.741238 0.634806
0.0658122 0.740917 0.634409
0.0657969 0.740536 0.633921
0.0657664 0.739986 0.633234
0.0658274 0.739391 0.632441
0.0659495 0.738628 0.631434
0.0941939 0.742138 0.635325
0.272511 0.753277 0.652033
0.567864 0.73698 0.6103
0.716625 0.761349 0.474647
0.783627 0.707408 0.304051
0.823041 0.681819 0.278111
0.880613 0.669429 0.295949
0.928832 0.652613 0.319921
0.958602 0.636179 0.334585
0.968414 0.60557 0.328374
0.965103 0.54049 0.298299
0.954498 0.378058 0.213519
0.946593 0.291432 0.164385
0.933928 0.218051 0.11989
0.927275 0.157 0.0839399
0.925414 0.12459 0.062562
0.92459 0.113771 0.0543069
0.924498 0.112337 0.0532235
0.0925612 0.791089 0.698482
0.0924849 0.791012 0.69839
0.0924239 0.790951 0.698299
0.0923629 0.790875 0.698192
0.0922866 0.790799 0.6981
0.0922255 0.790722 0.698009
0.0922255 0.790722 0.698009
0.0920882 0.79057 0.69781
0.0920272 0.790509 0.697719
0.0918898 0.790356 0.69752
0.0916915 0.790143 0.69723
0.0914321 0.789853 0.696849
0.0910811 0.789471 0.696468
0.0905318 0.788891 0.695811
0.0899519 0.78822 0.694942
0.0893263 0.787305 0.693736
0.128649 0.790082 0.697337
0.331273 0.797864 0.70396
0.63917 0.776272 0.663417
0.761578 0.800824 0.544762
0.819013 0.749874 0.366735
0.85359 0.716091 0.284642
0.893599 0.709224 0.337819
0.932982 0.688731 0.345724
0.962539 0.671901 0.367529
0.972854 0.649882 0.370489
0.969985 0.598245 0.329931
0.967681 0.569574 0.313481
0.965011 0.537179 0.296193
0.96025 0.473671 0.26302
0.956649 0.419486 0.23473
0.954498 0.378225 0.213504
0.952621 0.346212 0.196292
0.122759 0.832059 0.751415
0.122744 0.831983 0.751324
0.122713 0.831922 0.751247
0.122683 0.831846 0.751171
0.122683 0.831846 0.751171
0.122652 0.831785 0.751064
0.122621 0.831708 0.750988
0.122606 0.831632 0.750896
0.122576 0.831571 0.75082
0.12253 0.831434 0.750637
0.122469 0.831296 0.750469
0.122377 0.831083 0.75021
0.122286 0.830808 0.749874
0.122118 0.830396 0.74934
0.121904 0.829908 0.74876
0.121553 0.829236 0.74789
0.121233 0.828504 0.74696
0.177295 0.831067 0.749004
0.40911 0.834272 0.749767
0.699428 0.81384 0.709728
0.797406 0.832532 0.606561
0.846738 0.787762 0.42916
0.887358 0.746166 0.239063
0.911345 0.721721 0.142596
0.952438 0.720394 0.337728
0.966217 0.708736 0.397787
0.974197 0.691875 0.411368
0.977188 0.6795 0.404303
0.975921 0.6636 0.387289
0.974609 0.649302 0.372442
0.973526 0.635782 0.359579
0.972427 0.623117 0.348623
0.971328 0.612177 0.338674
0.135378 0.867536 0.791791
0.135363 0.867475 0.791714
0.135363 0.867475 0.791714
0.135348 0.867414 0.791653
0.135348 0.867353 0.791592
0.135348 0.867353 0.791592
0.135332 0.867292 0.791516
0.135317 0.867231 0.79147
0.135302 0.86717 0.791394
0.135286 0.867109 0.791333
0.135271 0.866987 0.791211
0.135241 0.86688 0.791074
0.13521 0.866697 0.790875
0.13521 0.866499 0.790677
0.13521 0.866224 0.790372
0.13521 0.865843 0.789944
0.135103 0.865263 0.789319
0.13489 0.864469 0.788418
0.230671 0.866484 0.789487
0.506905 0.862364 0.782971
0.751446 0.846616 0.74641
0.828901 0.861494 0.658366
0.871351 0.821881 0.493553
0.914366 0.780804 0.246189
0.918883 0.756619 0.147982
0.968109 0.750072 0.275578
0.966125 0.726162 0.247272
0.96289 0.712856 0.241093
0.964675 0.711833 0.29276
0.96762 0.712398 0.355245
0.97081 0.713161 0.410864
0.972198 0.709819 0.418982
0.973175 0.70631 0.419806
0.115465 0.89781 0.81622
0.115633 0.897765 0.816236
0.115633 0.897765 0.816236
0.115816 0.897719 0.816236
0.115816 0.897719 0.816236
0.115984 0.897673 0.816251
0.115984 0.897673 0.816251
0.116167 0.897627 0.816266
0.116396 0.897581 0.816266
0.116609 0.89752 0.816251
0.116838 0.897459 0.816266
0.117281 0.897353 0.816266
0.117952 0.897169 0.816251
0.118608 0.897002 0.816251
0.119722 0.896727 0.816251
0.121065 0.896376 0.816251
0.122835 0.895933 0.816236
0.124849 0.895415 0.816266
0.127932 0.894636 0.81622
0.284291 0.89369 0.816983
0.590463 0.886442 0.807446
0.794461 0.873625 0.770901
0.855146 0.883833 0.692714
0.884794 0.856977 0.594736
0.915053 0.839567 0.521019
0.935699 0.818952 0.423621
0.950668 0.784527 0.226123
0.94641 0.768475 0.167834
0.940185 0.759472 0.150256
0.936172 0.753017 0.139116
0.936904 0.748211 0.137835
0.939895 0.744381 0.142031
0.942596 0.741009 0.145739
0.0333104 0.927825 0.818982
0.033341 0.927764 0.818952
0.033341 0.927764 0.818952
0.033341 0.927764 0.818952
0.033402 0.927703 0.818952
0.033402 0.927703 0.818952
0.0334478 0.927657 0.818952
0.0334478 0.927657 0.818952
0.0334936 0.927581 0.818936
0.0335393 0.927535 0.818936
0.0335851 0.927474 0.818936
0.0336309 0.927413 0.818936
0.0337224 0.927291 0.818906
0.033875 0.927108 0.818891
0.0340581 0.926879 0.81886
0.034226 0.926589 0.818769
0.0344549 0.926253 0.818662
0.0348211 0.925734 0.81854
0.0353399 0.925078 0.818479
0.0464332 0.923278 0.818128
0.250889 0.920439 0.821347
0.642298 0.90547 0.811566
0.825696 0.89572 0.771206
0.875395 0.902541 0.692775
0.896239 0.882643 0.657298
0.921736 0.872511 0.628733
0.940169 0.86096 0.589273
0.953826 0.844129 0.505913
0.958694 0.832105 0.433097
0.960296 0.824613 0.391043
0.961181 0.818524 0.357656
0.961807 0.813352 0.329061
0.96231 0.808576 0.304158
0.0174105 0.952667 0.819821
0.0174105 0.952667 0.819821
0.0174105 0.952636 0.819837
0.0174105 0.952636 0.819837
0.0174105 0.952636 0.819837
0.0174411 0.952575 0.819837
0.0174411 0.952575 0.819837
0.0174411 0.952575 0.819837
0.0174716 0.952529 0.819837
0.0175021 0.952468 0.819837
0.0175021 0.952468 0.819837
0.0175479 0.952361 0.819837
0.0175784 0.952316 0.819837
0.0176699 0.952148 0.819852
0.0177462 0.95198 0.819852
0.0178531 0.951766 0.819852
0.0179904 0.951492 0.819867
0.0181888 0.951125 0.819867
0.0183719 0.950622 0.819776
0.0186007 0.950057 0.81973
0.0226749 0.948409 0.81912
0.250736 0.943969 0.822904
0.725872 0.911711 0.807919
0.849805 0.916396 0.756481
0.891432 0.918822 0.680613
0.908156 0.903761 0.664073
0.926299 0.893904 0.650004
0.942855 0.885573 0.629648
0.946578 0.881666 0.622522
0.94847 0.879149 0.618921
0.948882 0.877211 0.617166
0.949386 0.875486 0.615564
0.949798 0.874022 0.614221
0.0155184 0.965042 0.811933
0.0155184 0.965042 0.811933
0.0155184 0.965042 0.811933
0.0155032 0.965011 0.811963
0.0155032 0.965011 0.811963
0.0155032 0.965011 0.811963
0.0155032 0.965011 0.811963
0.0155032 0.964996 0.811978
0.0155032 0.964996 0.811978
0.0155032 0.964981 0.811994
0.0155032 0.96495 0.812009
0.0155032 0.96492 0.812039
0.0155032 0.964904 0.812055
0.0155032 0.964858 0.812116
0.0154879 0.964782 0.812192
0.0154879 0.964721 0.812238
0.0154726 0.964599 0.81236
0.0154574 0.964462 0.812512
0.0154421 0.964309 0.812696
0.0154116 0.96408 0.812985
0.0153658 0.963775 0.813367
0.0154421 0.962585 0.812726
0.31841 0.958892 0.819486
0.79292 0.917205 0.791501
0.872465 0.937072 0.721019
