pic/松下lut/LUTs/Warming Light.cube
TITLE "Generated by Resolve"
#LUMIXPHOTOSTYLE VLOG
LUT_3D_SIZE 5
0.0712749 0.0554818 0.0166323
0.283696 0.0613107 0
0.727199 0.0992294 0.00737011
0.924514 0.112337 0.0532998
0.924498 0.112337 0.0532845
0.0495613 0.15346 0.0626688
0.184543 0.143252 0
0.723095 0.111528 0.0112459
0.924514 0.112337 0.0532998
0.924498 0.112337 0.0532845
0.0542916 0.568185 0.421317
0.0542916 0.565866 0.418372
0.629664 0.558602 0.154528
0.925002 0.120912 0.0598611
0.924498 0.112337 0.0532845
0.0333104 0.927825 0.818982
0.0334936 0.927581 0.818936
0.0344549 0.926253 0.818662
0.896239 0.882643 0.657298
0.96231 0.808576 0.304158
0.0189212 0.975784 0.788693
0.0189212 0.975784 0.788693
0.0189212 0.975784 0.788693
0.0224918 0.982498 0.792218
0.936538 0.946227 0.620356
0.0508888 0.0817578 0.163561
0.27895 0.0614328 0.126009
0.731212 0.115892 0.0128023
0.924529 0.112291 0.0533608
0.924498 0.112337 0.0532845
0.0390021 0.163928 0.156954
0.163394 0.148272 0.103807
0.724819 0.117006 0.0125124
0.924529 0.112291 0.0533608
0.924498 0.112337 0.0532845
0.0535286 0.565652 0.431128
0.0533455 0.562905 0.42797
0.620798 0.558068 0.175296
0.92488 0.11928 0.0585794
0.924498 0.112337 0.0532845
0.0335393 0.927535 0.818936
0.0336767 0.927352 0.818906
0.034638 0.925978 0.81857
0.896132 0.882338 0.656916
0.962554 0.807813 0.299489
0.0189212 0.975784 0.788693
0.0189212 0.975784 0.788693
0.0189212 0.975784 0.788693
0.0220493 0.981872 0.791669
0.936538 0.946227 0.620356
0.129839 0.390906 0.765423
0.168948 0.363455 0.731716
0.749477 0.363836 0.632975
0.949981 0.140368 0.417838
0.947341 0.0973068 0.285206
0.12871 0.38883 0.763409
0.128923 0.388785 0.763363
0.740246 0.358389 0.629343
0.95024 0.140032 0.413947
0.947295 0.0983444 0.278569
0.220798 0.610666 0.700389
0.2206 0.608804 0.699718
0.609003 0.622705 0.636698
0.967117 0.216754 0.403677
0.945937 0.10663 0.230701
0.0370031 0.920974 0.837247
0.0371862 0.920714 0.837186
0.0386969 0.919188 0.836789
0.888838 0.887709 0.711192
0.937087 0.823011 0.466987
0.0189212 0.975784 0.788693
0.0189212 0.975784 0.788693
0.0189212 0.975784 0.788693
0.0210117 0.980179 0.790143
0.936538 0.946227 0.620356
0.541909 0.732616 0.960983
0.541909 0.732616 0.960983
0.642878 0.719539 0.960159
0.945754 0.691203 0.94728
0.945113 0.662089 0.943389
0.541817 0.73257 0.960983
0.541787 0.73254 0.960983
0.634882 0.721294 0.960555
0.9458 0.691463 0.947265
0.945144 0.661952 0.943267
0.547723 0.742107 0.96173
0.546639 0.741375 0.961685
0.571374 0.738201 0.961578
0.94609 0.693111 0.946883
0.945129 0.661112 0.942336
0.633692 0.906279 0.952544
0.634134 0.906157 0.952544
0.636881 0.905364 0.952453
0.913771 0.906447 0.925841
0.963546 0.874281 0.929381
0.129976 0.963333 0.958816
0.129976 0.963333 0.958816
0.129717 0.963333 0.958801
0.42269 0.959487 0.950957
0.955612 0.961425 0.912749
0.494881 0.731044 0.961517
0.494881 0.731044 0.961517
0.494881 0.731044 0.961517
0.943908 0.701915 0.974273
0.9411 0.665888 0.972869
0.494881 0.731044 0.961517
0.494881 0.731044 0.961517
0.494881 0.731044 0.961517
0.943999 0.70219 0.974334
0.9411 0.665888 0.972869
0.494881 0.731044 0.961517
0.494881 0.731044 0.961517
0.494881 0.731044 0.961517
0.944244 0.70425 0.974487
0.9411 0.665888 0.972869
0.65069 0.89163 0.972213
0.650874 0.891478 0.972183
0.652018 0.89044 0.97203
0.902037 0.894438 0.978775
0.95819 0.840467 0.983139
0.288182 0.954849 0.991287
0.288182 0.954849 0.991287
0.288182 0.954849 0.991287
0.400031 0.953796 0.987839
0.964096 0.969451 0.985885
