pic/松下lut/LUTs/Warming Light.cube
TITLE "Generated by Resolve"
#LUMIXPHOTOSTYLE VLOG
LUT_3D_SIZE 9
0.0712749 0.0554818 0.0166323
0.166308 0.0520027 0.00407416
0.283696 0.0613107 0
0.482933 0.0703746 0
0.727199 0.0992294 0.00737011
0.891997 0.176516 0.0842145
0.924514 0.112337 0.0532998
0.924498 0.112337 0.0532845
0.924498 0.112337 0.0532845
0.0628672 0.096849 0.0354772
0.102998 0.0840162 0.0106813
0.256703 0.0751965 0
0.472892 0.072343 0
0.72372 0.0982986 0.00701915
0.89163 0.177081 0.0842908
0.924514 0.112337 0.0532998
0.924498 0.112337 0.0532845
0.924498 0.112337 0.0532845
0.0495613 0.15346 0.0626688
0.049958 0.150668 0.0610208
0.184543 0.143252 0
0.465675 0.13933 0
0.723095 0.111528 0.0112459
0.891234 0.177813 0.0844129
0.924514 0.112337 0.0532998
0.924498 0.112337 0.0532845
0.924498 0.112337 0.0532845
0.0459602 0.28986 0.156542
0.046067 0.28687 0.154238
0.0468757 0.282155 0.15082
0.351003 0.284657 0.0108797
0.753841 0.318776 0.079469
0.896925 0.222126 0.104891
0.924514 0.112337 0.0532998
0.924498 0.112337 0.0532845
0.924498 0.112337 0.0532845
0.0542916 0.568185 0.421317
0.0544442 0.567285 0.420172
0.0542916 0.565866 0.418372
0.0540475 0.560143 0.411368
0.629664 0.558602 0.154528
0.912123 0.534005 0.246586
0.925002 0.120912 0.0598611
0.924498 0.112337 0.0532845
0.924498 0.112337 0.0532845
0.0925612 0.791089 0.698482
0.0922866 0.790799 0.6981
0.0920272 0.790509 0.697719
0.0910811 0.789471 0.696468
0.128649 0.790082 0.697337
0.819013 0.749874 0.366735
0.962539 0.671901 0.367529
0.965011 0.537179 0.296193
0.952621 0.346212 0.196292
0.0333104 0.927825 0.818982
0.033402 0.927703 0.818952
0.0334936 0.927581 0.818936
0.0337224 0.927291 0.818906
0.0344549 0.926253 0.818662
0.250889 0.920439 0.821347
0.896239 0.882643 0.657298
0.958694 0.832105 0.433097
0.96231 0.808576 0.304158
0.018616 0.975494 0.791241
0.018616 0.975494 0.791257
0.0186007 0.975494 0.791287
0.0186007 0.975494 0.791302
0.0185855 0.975479 0.791424
0.0184939 0.975235 0.792035
0.743709 0.936919 0.800671
0.933715 0.943175 0.639063
0.935607 0.93959 0.641108
0.0189212 0.975784 0.788693
0.0189212 0.975784 0.788693
0.0189212 0.975784 0.788693
0.0189212 0.975784 0.788693
0.0189212 0.975784 0.788693
0.0189212 0.975784 0.788693
0.0224918 0.982498 0.792218
0.925124 0.95108 0.627329
0.936538 0.946227 0.620356
0.0658122 0.0608988 0.052781
0.151583 0.057145 0.0334783
0.293919 0.0563668 0.0139925
0.481468 0.0736553 0
0.727199 0.101183 0.00779736
0.891966 0.176959 0.0844434
0.924514 0.112337 0.0532998
0.924498 0.112337 0.0532845
0.924498 0.112337 0.0532845
0.0581369 0.0909133 0.0609445
0.0922866 0.0783093 0.0370947
0.260517 0.0708324 0.0120851
0.471107 0.071931 0
0.723568 0.0997177 0.00723278
0.891615 0.177478 0.0844892
0.924514 0.112337 0.0532998
0.924498 0.112337 0.0532845
0.924498 0.112337 0.0532845
0.0501869 0.150225 0.0819104
0.050248 0.147173 0.0806439
0.181872 0.139986 0.0171206
0.462669 0.134524 0
0.721508 0.108248 0.0101778
0.891188 0.178119 0.084535
0.924514 0.112337 0.0532998
0.924498 0.112337 0.0532845
0.924498 0.112337 0.0532845
0.0433051 0.288182 0.158206
0.0435645 0.285084 0.156008
0.0444038 0.280644 0.152636
0.347189 0.280751 0.014023
0.752026 0.313603 0.077409
0.896132 0.218204 0.102754
0.924514 0.112337 0.0532998
0.924498 0.112337 0.0532845
0.924498 0.112337 0.0532845
0.0543832 0.566888 0.419638
0.0542916 0.565774 0.418235
0.0542306 0.564294 0.416526
0.0539254 0.558587 0.409674
0.62829 0.55697 0.153658
0.912001 0.532723 0.245899
0.924941 0.120195 0.0592966
0.924498 0.112337 0.0532845
0.924498 0.112337 0.0532845
0.0922255 0.790722 0.698009
0.0919661 0.790433 0.697612
0.0916915 0.790143 0.69723
0.0906691 0.789029 0.69601
0.127062 0.789624 0.69691
0.818769 0.749416 0.365805
0.9626 0.671519 0.367376
0.964767 0.534035 0.294575
0.952438 0.343587 0.194842
0.033402 0.927703 0.818952
0.0334936 0.927581 0.818936
0.0335851 0.927474 0.818936
0.033814 0.927169 0.818891
0.0345312 0.926146 0.818647
0.249958 0.920348 0.821302
0.896223 0.882506 0.65713
0.958724 0.83183 0.431556
0.962386 0.808133 0.301778
0.018616 0.975494 0.791257
0.0186007 0.975494 0.791287
0.0186007 0.975494 0.791287
0.0186007 0.975479 0.791318
0.0185855 0.975479 0.79144
0.0184787 0.975219 0.792065
0.743465 0.936919 0.800748
0.9337 0.94313 0.63917
0.935607 0.939574 0.641154
0.0189212 0.975784 0.788693
0.0189212 0.975784 0.788693
0.0189212 0.975784 0.788693
0.0189212 0.975784 0.788693
0.0189212 0.975784 0.788693
0.0189212 0.975784 0.788693
0.0222934 0.982208 0.791974
0.925109 0.95108 0.627359
0.936538 0.946227 0.620356
0.0508888 0.0817578 0.163561
0.110628 0.0775921 0.135103
0.27895 0.0614328 0.126009
0.509163 0.0776074 0.063859
0.731212 0.115892 0.0128023
0.893065 0.182467 0.0872206
0.924529 0.112291 0.0533608
0.924498 0.112337 0.0532845
0.924498 0.112337 0.0532845
0.0463111 0.100969 0.161181
0.0701152 0.0926223 0.13843
0.244648 0.0702373 0.122988
0.49659 0.0758373 0.0628214
0.727764 0.11371 0.0117494
0.892576 0.182712 0.0870375
0.924529 0.112291 0.0533608
0.924498 0.112337 0.0532845
0.924498 0.112337 0.0532845
0.0390021 0.163928 0.156954
0.0394293 0.160433 0.155703
0.163394 0.148272 0.103807
0.480308 0.135271 0.0484474
0.724819 0.117006 0.0125124
0.891951 0.182986 0.0868086
0.924529 0.112291 0.0533608
0.924498 0.112337 0.0532845
0.924498 0.112337 0.0532845
0.0282902 0.304311 0.220752
0.028397 0.301534 0.218341
0.0285191 0.297902 0.215244
0.356619 0.304326 0.105577
0.750729 0.310323 0.0762493
0.89543 0.215473 0.101213
0.924514 0.112306 0.0533303
0.924498 0.112337 0.0532845
0.924498 0.112337 0.0532845
0.0535286 0.565652 0.431128
0.0534676 0.564492 0.429725
0.0533455 0.562905 0.42797
0.0528878 0.557397 0.420951
0.620798 0.558068 0.175296
0.911757 0.531106 0.244892
0.92488 0.11928 0.0585794
0.924498 0.112337 0.0532845
0.924498 0.112337 0.0532845
0.0918288 0.79028 0.697429
0.0915694 0.78999 0.697032
0.0912184 0.789624 0.696605
0.0902724 0.788586 0.695415
0.125063 0.788983 0.696269
0.818341 0.749065 0.365072
0.962585 0.671046 0.367041
0.964309 0.529839 0.292241
0.952209 0.340475 0.193118
0.0335393 0.927535 0.818936
0.0335851 0.927474 0.818936
0.0336767 0.927352 0.818906
0.0339513 0.926986 0.81886
0.034638 0.925978 0.81857
0.248447 0.920256 0.821225
0.896132 0.882338 0.656916
0.95877 0.831403 0.429175
0.962554 0.807813 0.299489
0.0186007 0.975494 0.791287
0.0186007 0.975494 0.791287
0.0186007 0.975494 0.791302
0.0186007 0.975479 0.791333
0.0185855 0.975479 0.791455
0.0184634 0.975189 0.792126
0.742733 0.936996 0.800916
0.9337 0.943114 0.639216
0.935592 0.939483 0.641215
0.0189212 0.975784 0.788693
0.0189212 0.975784 0.788693
0.0189212 0.975784 0.788693
0.0189212 0.975784 0.788693
0.0189212 0.975784 0.788693
0.0189212 0.975784 0.788693
0.0220493 0.981872 0.791669
0.925078 0.951095 0.627359
0.936538 0.946227 0.620356
0.0449836 0.16289 0.442313
0.0623026 0.146853 0.3944
0.191226 0.118853 0.312642
0.481407 0.131273 0.320256
0.787152 0.175479 0.267933
0.901183 0.223728 0.105837
0.924544 0.112261 0.0534829
0.924529 0.112291 0.0534371
0.924529 0.112291 0.0534218
0.0448615 0.161395 0.438834
0.0448768 0.161318 0.43859
0.167468 0.119158 0.316793
0.463447 0.128542 0.316182
0.784329 0.17319 0.266163
0.900526 0.223606 0.105745
0.924544 0.112261 0.0534829
0.924529 0.112291 0.0534371
0.924529 0.112291 0.0534066
0.0493782 0.205356 0.390661
0.049073 0.202152 0.392416
0.126833 0.177386 0.328435
0.432013 0.160693 0.321584
0.780621 0.170016 0.263767
0.899794 0.223545 0.105699
0.924529 0.112261 0.0534676
0.924529 0.112291 0.0534371
0.924529 0.112291 0.0534066
0.0579385 0.330037 0.380941
0.0579995 0.327825 0.379995
0.0575418 0.324773 0.378332
0.333639 0.342367 0.321843
0.769375 0.34255 0.279866
0.901152 0.24448 0.118013
0.924544 0.112276 0.0534829
0.924529 0.112291 0.0534218
0.924514 0.112306 0.0533913
0.0689555 0.569818 0.526818
0.0688792 0.568734 0.525811
0.0687724 0.567346 0.524544
0.0703593 0.564431 0.521965
0.62591 0.594553 0.393912
0.911528 0.528283 0.243458
0.924865 0.117189 0.057084
0.924514 0.112306 0.0533913
0.924514 0.112291 0.0533608
0.088365 0.785916 0.706615
0.0881514 0.785595 0.706233
0.0878462 0.785214 0.705745
0.0870527 0.784253 0.704479
0.122301 0.783795 0.704387
0.808713 0.75462 0.41677
0.962631 0.669551 0.366506
0.9635 0.51664 0.28571
0.951171 0.324178 0.183963
0.033875 0.927108 0.818891
0.0339513 0.926986 0.81886
0.0340581 0.926879 0.81886
0.034226 0.926589 0.818769
0.0349584 0.925566 0.818524
0.244892 0.919814 0.82092
0.89601 0.88191 0.656413
0.95903 0.830396 0.422415
0.962783 0.806607 0.292592
0.0186007 0.975479 0.791318
0.0186007 0.975479 0.791333
0.0186007 0.975479 0.791333
0.0185855 0.975479 0.791379
0.0185702 0.975464 0.791501
0.0184482 0.975128 0.792264
0.741421 0.937057 0.801236
0.933654 0.943038 0.639445
0.935592 0.939254 0.641245
0.0189212 0.975784 0.788693
0.0189212 0.975784 0.788693
0.0189212 0.975784 0.788693
0.0189212 0.975784 0.788693
0.0189212 0.975784 0.788693
0.0189212 0.975784 0.788693
0.0215152 0.981262 0.790982
0.924941 0.951141 0.627436
0.936538 0.946227 0.620356
0.129839 0.390906 0.765423
0.129839 0.390906 0.765423
0.168948 0.363455 0.731716
0.373465 0.27248 0.598611
0.749477 0.363836 0.632975
0.939544 0.435889 0.617594
0.949981 0.140368 0.417838
0.947356 0.0947738 0.30135
0.947341 0.0973068 0.285206
0.129488 0.390066 0.764691
0.129488 0.390066 0.764691
0.147799 0.390631 0.763119
0.357107 0.271794 0.599405
0.745342 0.361456 0.631373
0.939147 0.435187 0.616373
0.950088 0.140215 0.416129
0.947372 0.0952621 0.298222
0.947326 0.0977798 0.282078
0.12871 0.38883 0.763409
0.128634 0.388708 0.763287
0.128923 0.388785 0.763363
0.334691 0.273396 0.60087
0.740246 0.358389 0.629343
0.938613 0.434485 0.615137
0.95024 0.140032 0.413947
0.947372 0.0958114 0.294697
0.947295 0.0983444 0.278569
0.177829 0.461936 0.716594
0.176547 0.46041 0.717113
0.17525 0.458656 0.717922
0.319799 0.417884 0.645075
0.726329 0.400076 0.632837
0.937362 0.432563 0.611612
0.950698 0.139483 0.407736
0.947341 0.0975357 0.28365
0.947143 0.10016 0.267216
0.220798 0.610666 0.700389
0.220676 0.609812 0.700038
0.2206 0.608804 0.699718
0.220111 0.605768 0.698726
0.609003 0.622705 0.636698
0.915007 0.619852 0.615305
0.967117 0.216754 0.403677
0.946746 0.103548 0.247852
0.945937 0.10663 0.230701
0.195865 0.788434 0.783169
0.195834 0.78819 0.782971
0.195758 0.787884 0.782681
0.195651 0.786908 0.781964
0.216892 0.785061 0.781109
0.809934 0.791257 0.681483
0.958618 0.706127 0.490059
0.964446 0.517082 0.32108
0.955001 0.320928 0.212451
0.0370031 0.920974 0.837247
0.0370947 0.920836 0.837217
0.0371862 0.920714 0.837186
0.0374609 0.920333 0.837095
0.0386969 0.919188 0.836789
0.233829 0.914015 0.837339
0.888838 0.887709 0.711192
0.939925 0.843137 0.558038
0.937087 0.823011 0.466987
0.0182193 0.97525 0.79443
0.0182193 0.97525 0.79443
0.0182193 0.97525 0.79443
0.0182193 0.975235 0.79443
0.0181888 0.975143 0.794553
0.0180819 0.974777 0.795193
0.733898 0.938109 0.803662
0.933288 0.942946 0.642466
0.935561 0.938399 0.64152
0.0189212 0.975784 0.788693
0.0189212 0.975784 0.788693
0.0189212 0.975784 0.788693
0.0189212 0.975784 0.788693
0.0189212 0.975784 0.788693
0.0189212 0.975784 0.788693
0.0210117 0.980179 0.790143
0.924544 0.951278 0.627649
0.936538 0.946227 0.620356
0.348913 0.621653 0.931701
0.348913 0.621653 0.931701
0.348913 0.621653 0.931701
0.407446 0.606195 0.916426
0.65211 0.539315 0.836271
0.897032 0.60885 0.837705
0.956527 0.545327 0.826932
0.950317 0.446815 0.805081
0.9505 0.444572 0.803586
0.348623 0.621439 0.931579
0.348623 0.621439 0.931579
0.348623 0.621439 0.931579
0.398779 0.610803 0.921584
0.648035 0.538552 0.836637
0.89633 0.608286 0.837461
0.956603 0.545495 0.826856
0.950347 0.446342 0.804837
0.95053 0.443976 0.803204
0.348241 0.621164 0.931426
0.348241 0.621164 0.931426
0.348241 0.621164 0.931426
0.385122 0.618311 0.928588
0.643137 0.537545 0.837079
0.895247 0.60737 0.837049
0.95671 0.545754 0.82678
0.950469 0.445838 0.804593
0.950561 0.443381 0.802838
0.347173 0.620432 0.930968
0.347173 0.620432 0.930968
0.347066 0.620356 0.930938
0.352132 0.62063 0.930999
0.627497 0.534813 0.839124
0.892348 0.604715 0.835843
0.956893 0.546609 0.826413
0.950515 0.444266 0.803403
0.950637 0.441749 0.80177
0.408484 0.691432 0.89192
0.408026 0.691066 0.892012
0.407401 0.690608 0.892149
0.405615 0.689128 0.892821
0.591699 0.664698 0.8486
0.879088 0.648478 0.83328
0.957824 0.557046 0.825711
0.950774 0.438788 0.799878
0.950713 0.436179 0.797971
0.454932 0.802487 0.870634
0.454887 0.802304 0.870604
0.454841 0.802045 0.870573
0.454597 0.801328 0.870451
0.453941 0.799054 0.870054
0.80795 0.804959 0.828626
0.977874 0.775876 0.838865
0.965682 0.664622 0.826413
0.963531 0.605203 0.816251
0.286213 0.905379 0.899367
0.286458 0.905333 0.899367
0.286915 0.905257 0.899336
0.288151 0.905028 0.899229
0.292119 0.90428 0.898955
0.464439 0.9028 0.893477
0.908263 0.905043 0.849424
0.968109 0.890806 0.840833
0.969512 0.88333 0.835401
0.0127718 0.982727 0.890883
0.0127871 0.982696 0.890867
0.0127871 0.982681 0.890867
0.0128023 0.98262 0.890913
0.0128786 0.982452 0.891051
0.013077 0.981949 0.891371
0.665141 0.963409 0.872938
0.929778 0.954299 0.810071
0.932876 0.949142 0.809033
0.049897 0.987488 0.876646
0.049897 0.987488 0.876646
0.0500801 0.987503 0.876646
0.050248 0.987533 0.876631
0.0509194 0.98761 0.8766
0.052781 0.987823 0.876509
0.0130617 0.984909 0.869825
0.911192 0.959289 0.781964
0.923415 0.957732 0.771267
0.541909 0.732616 0.960983
0.541909 0.732616 0.960983
0.541909 0.732616 0.960983
0.541909 0.732616 0.960983
0.642878 0.719539 0.960159
0.851545 0.714458 0.943297
0.945754 0.691203 0.94728
0.945068 0.662425 0.943679
0.945113 0.662089 0.943389
0.541863 0.732586 0.960983
0.541863 0.732586 0.960983
0.541863 0.732586 0.960983
0.541863 0.732586 0.960983
0.639063 0.720394 0.960296
0.850584 0.714351 0.943313
0.945785 0.691325 0.947265
0.945083 0.662333 0.943603
0.945129 0.662043 0.943343
0.541817 0.73257 0.960983
0.541817 0.73257 0.960983
0.541787 0.73254 0.960983
0.541787 0.73254 0.960983
0.634882 0.721294 0.960555
0.849409 0.714244 0.943343
0.9458 0.691463 0.947265
0.945098 0.662272 0.943557
0.945144 0.661952 0.943267
0.541604 0.732433 0.960967
0.541604 0.732433 0.960967
0.541604 0.732433 0.960967
0.541604 0.732433 0.960967
0.620447 0.724071 0.961852
0.846052 0.713756 0.943297
0.945876 0.691844 0.947158
0.945129 0.662043 0.943343
0.945159 0.661768 0.943084
0.547723 0.742107 0.96173
0.547265 0.741772 0.96173
0.546639 0.741375 0.961685
0.544793 0.740169 0.961517
0.571374 0.738201 0.961578
0.834913 0.712367 0.943603
0.94609 0.693111 0.946883
0.945144 0.661418 0.942687
0.945129 0.661112 0.942336
0.638758 0.824948 0.961563
0.638666 0.824811 0.961593
0.638498 0.824613 0.961608
0.638117 0.824079 0.961669
0.636652 0.822477 0.961944
0.800168 0.818708 0.939727
0.956512 0.775982 0.945174
0.949355 0.71223 0.944152
0.946838 0.692012 0.942473
0.633692 0.906279 0.952544
0.633799 0.906249 0.952544
0.634134 0.906157 0.952544
0.634714 0.905974 0.952499
0.636881 0.905364 0.952453
0.673259 0.903288 0.951766
0.913771 0.906447 0.925841
0.9635 0.883253 0.929717
0.963546 0.874281 0.929381
0.235325 0.959228 0.960357
0.23566 0.959243 0.960357
0.23595 0.959243 0.960372
0.236973 0.959228 0.960372
0.240421 0.959136 0.960327
0.250538 0.958892 0.96025
0.755932 0.955276 0.945891
0.956481 0.957244 0.91989
0.965331 0.954086 0.920913
0.129976 0.963333 0.958816
0.129976 0.963333 0.958816
0.129976 0.963333 0.958816
0.129976 0.963333 0.958816
0.129717 0.963333 0.958801
0.128939 0.963394 0.958755
0.42269 0.959487 0.950957
0.935912 0.963745 0.921935
0.955612 0.961425 0.912749
0.517296 0.731823 0.961852
0.517296 0.731823 0.961852
0.517296 0.731823 0.961852
0.517296 0.731823 0.961852
0.518334 0.731868 0.961822
0.821378 0.716655 0.966079
0.943725 0.699748 0.974151
0.941238 0.664683 0.973007
0.941238 0.664729 0.973007
0.517327 0.731838 0.961852
0.517327 0.731838 0.961852
0.517327 0.731838 0.961852
0.517327 0.731838 0.961852
0.517327 0.731838 0.961852
0.820127 0.716365 0.966003
0.943709 0.69987 0.974121
0.941238 0.664698 0.973007
0.941238 0.664729 0.973007
0.517357 0.731838 0.961837
0.517357 0.731838 0.961837
0.517357 0.731838 0.961837
0.517357 0.731838 0.961837
0.517357 0.731838 0.961837
0.818509 0.715999 0.965911
0.943694 0.700038 0.974105
0.941238 0.664698 0.973007
0.941238 0.664744 0.973007
0.517418 0.731853 0.961837
0.517418 0.731853 0.961837
0.517418 0.731853 0.961837
0.517418 0.731853 0.961837
0.517464 0.731853 0.961852
0.814069 0.715099 0.965805
0.94374 0.700572 0.974121
0.941238 0.664729 0.973007
0.941238 0.664775 0.973007
0.517678 0.731899 0.961852
0.517678 0.731899 0.961852
0.517678 0.731899 0.961852
0.517678 0.731899 0.961852
0.517678 0.731899 0.961852
0.797894 0.712566 0.96524
0.943984 0.702113 0.974319
0.941238 0.66482 0.973007
0.941238 0.664851 0.973007
0.594629 0.799603 0.96466
0.594415 0.79942 0.96463
0.594156 0.799237 0.964569
0.59324 0.798596 0.964309
0.590707 0.796429 0.963882
0.749874 0.792248 0.968551
0.95024 0.745052 0.97702
0.942061 0.682063 0.97351
0.941238 0.665095 0.973007
0.666712 0.899733 0.974884
0.666865 0.899672 0.974884
0.667079 0.899596 0.974884
0.667643 0.899382 0.974899
0.668803 0.898695 0.974823
0.671122 0.896605 0.974395
0.910964 0.902617 0.975402
0.960037 0.867796 0.981201
0.959335 0.856123 0.982208
0.393973 0.952514 0.987778
0.394186 0.952499 0.987762
0.39443 0.952468 0.987747
0.395377 0.952392 0.987671
0.397604 0.952102 0.987488
0.405402 0.951278 0.987045
0.749447 0.950805 0.978515
0.957702 0.957321 0.974029
0.967178 0.95256 0.974914
0.309834 0.955062 0.990204
0.309834 0.955062 0.990204
0.30985 0.955062 0.990204
0.30985 0.955062 0.990204
0.30985 0.955062 0.990204
0.309911 0.955062 0.990204
0.47306 0.955489 0.98613
0.934401 0.967132 0.967834
0.963485 0.968002 0.970962
0.494881 0.731044 0.961517
0.494881 0.731044 0.961517
0.494881 0.731044 0.961517
0.494881 0.731044 0.961517
0.494881 0.731044 0.961517
0.782513 0.708827 0.965026
0.943908 0.701915 0.974273
0.9411 0.665888 0.972869
0.9411 0.665888 0.972869
0.494881 0.731044 0.961517
0.494881 0.731044 0.961517
0.494881 0.731044 0.961517
0.494881 0.731044 0.961517
0.494881 0.731044 0.961517
0.780789 0.708644 0.964965
0.943954 0.702037 0.974304
0.9411 0.665888 0.972869
0.9411 0.665888 0.972869
0.494881 0.731044 0.961517
0.494881 0.731044 0.961517
0.494881 0.731044 0.961517
0.494881 0.731044 0.961517
0.494881 0.731044 0.961517
0.77847 0.708507 0.964935
0.943999 0.70219 0.974334
0.9411 0.665888 0.972869
0.9411 0.665888 0.972869
0.494881 0.731044 0.961517
0.494881 0.731044 0.961517
0.494881 0.731044 0.961517
0.494881 0.731044 0.961517
0.494881 0.731044 0.961517
0.771527 0.708019 0.964797
0.944091 0.702647 0.974411
0.9411 0.665888 0.972869
0.9411 0.665888 0.972869
0.494881 0.731044 0.961517
0.494881 0.731044 0.961517
0.494881 0.731044 0.961517
0.494881 0.731044 0.961517
0.494881 0.731044 0.961517
0.746227 0.706996 0.965194
0.944244 0.70425 0.974487
0.9411 0.665888 0.972869
0.9411 0.665888 0.972869
0.534585 0.775616 0.965103
0.534264 0.775418 0.965148
0.533837 0.775143 0.965164
0.532616 0.774365 0.965179
0.528862 0.771908 0.965164
0.66009 0.763546 0.963928
0.94461 0.722026 0.975158
0.94107 0.666484 0.972824
0.9411 0.665888 0.972869
0.65069 0.89163 0.972213
0.650767 0.891569 0.972198
0.650874 0.891478 0.972183
0.651133 0.891249 0.972152
0.652018 0.89044 0.97203
0.654353 0.888182 0.971481
0.902037 0.894438 0.978775
0.958984 0.853727 0.983093
0.95819 0.840467 0.983139
0.400763 0.948898 0.98706
0.401007 0.948867 0.987045
0.401266 0.948852 0.98703
0.402258 0.948745 0.986984
0.404974 0.94847 0.986847
0.412802 0.94754 0.986343
0.718059 0.94609 0.978744
0.955917 0.954559 0.984848
0.968154 0.948638 0.986542
0.288182 0.954849 0.991287
0.288182 0.954849 0.991287
0.288182 0.954849 0.991287
0.288182 0.954849 0.991287
0.288182 0.954849 0.991287
0.288182 0.954849 0.991287
0.400031 0.953796 0.987839
0.929229 0.968109 0.982208
0.964096 0.969451 0.985885
